( Mach3 CNC Laser Code )
( Chris' Circuits - http://ChrisCircuits.com )
( Kitchen Sink Electronics - http://KitchenSinkElectronics.com )
( bottomplate 4/25/2017 9:45:39 PM )
( T0 : 0.22 )
G21 G90 G91.1 G64 G40
G0
( T0 : 0.22 )
T0 M6
G0
M8
( Profile1 )
G17
S1000
G0
G0 X57.5528 Y15.0182
G1 F300.0
E1P1
G1 F400.0 Y12.3262
G1 X54.8608
G1 Y15.0182
G1 X57.5528
E1P0
G0
G0 X59.0608
G1 F300.0
E1P1
G1 F400.0 X61.7528
G1 Y12.3262
G1 X59.0608
G1 Y15.0182
E1P0
G0
G0 Y6.8182
G1 F300.0
E1P1
G1 F400.0 X61.7528
G1 Y4.1262
G1 X59.0608
G1 Y6.8182
E1P0
G0
G0 X57.5528
G1 F300.0
E1P1
G1 F400.0 Y4.1262
G1 X54.8608
G1 Y6.8182
G1 X57.5528
E1P0
G0
G0 X12.7528
G1 F300.0
E1P1
G1 F400.0 Y4.1262
G1 X10.0608
G1 Y6.8182
G1 X12.7528
E1P0
G0
G0 X8.5528
G1 F300.0
E1P1
G1 F400.0 Y4.1262
G1 X5.8608
G1 Y6.8182
G1 X8.5528
E1P0
G0
G0 Y12.3262
G1 F300.0
E1P1
G1 F400.0 X5.8608
G1 Y15.0182
G1 X8.5528
G1 Y12.3262
E1P0
G0
G0 X10.0608
G1 F300.0
E1P1
G1 F400.0 Y15.0182
G1 X12.7528
G1 Y12.3262
G1 X10.0608
E1P0
G0
G0 Y62.1262
G1 F300.0
E1P1
G1 F400.0 Y64.8182
G1 X12.7528
G1 Y62.1262
G1 X10.0608
E1P0
G0
G0 X8.5528
G1 F300.0
E1P1
G1 F400.0 X5.8608
G1 Y64.8182
G1 X8.5528
G1 Y62.1262
E1P0
G0
G0 Y70.3262
G1 F300.0
E1P1
G1 F400.0 X5.8608
G1 Y73.0182
G1 X8.5528
G1 Y70.3262
E1P0
G0
G0 X10.0608
G1 F300.0
E1P1
G1 F400.0 Y73.0182
G1 X12.7528
G1 Y70.3262
G1 X10.0608
E1P0
G0
G0 X54.8608
G1 F300.0
E1P1
G1 F400.0 Y73.0182
G1 X57.5528
G1 Y70.3262
G1 X54.8608
E1P0
G0
G0 X59.0608
G1 F300.0
E1P1
G1 F400.0 Y73.0182
G1 X61.7528
G1 Y70.3262
G1 X59.0608
E1P0
G0
G0 Y64.8182
G1 F300.0
E1P1
G1 F400.0 X61.7528
G1 Y62.1262
G1 X59.0608
G1 Y64.8182
E1P0
G0
G0 X57.5528
G1 F300.0
E1P1
G1 F400.0 Y62.1262
G1 X54.8608
G1 Y64.8182
G1 X57.5528
E1P0
G0
( Profile2 )
S1000
G0
G0 X4.8068 Y3.4622
G1 F300.0
E1P1
G1 F400.0 X10.3468
G1 Y0.8722
G3 X10.4568 Y0.7622 I0.11 J0.0
G1 X18.8068
G3 X18.9168 Y0.8722 I0.0 J0.11
G1 Y3.4622
G1 X24.6968
G1 Y0.8722
G3 X24.8068 Y0.7622 I0.11 J0.0
G1 X30.8068
G3 X30.9168 Y0.8722 I0.0 J0.11
G1 Y3.4622
G1 X36.6968
G1 Y0.8722
G3 X36.8068 Y0.7622 I0.11 J0.0
G1 X42.8068
G3 X42.9168 Y0.8722 I0.0 J0.11
G1 Y3.4622
G1 X48.6968
G1 Y0.8722
G3 X48.8068 Y0.7622 I0.11 J0.0
G1 X57.1568
G3 X57.2668 Y0.8722 I0.0 J0.11
G1 Y3.4622
G1 X62.8068
G3 X62.9168 Y3.5722 I0.0 J0.11
G1 Y10.9872
G1 X65.5068
G3 X65.6168 Y11.0972 I0.0 J0.11
G1 Y21.3222
G3 X65.5068 Y21.4322 I-0.11 J0.0
G1 X62.9168
G1 Y27.2122
G1 X65.5068
G3 X65.6168 Y27.3222 I0.0 J0.11
G1 Y33.3222
G3 X65.5068 Y33.4322 I-0.11 J0.0
G1 X62.9168
G1 Y39.2122
G1 X65.5068
G3 X65.6168 Y39.3222 I0.0 J0.11
G1 Y45.3222
G3 X65.5068 Y45.4322 I-0.11 J0.0
G1 X62.9168
G1 Y51.2122
G1 X65.5068
G3 X65.6168 Y51.3222 I0.0 J0.11
G1 Y57.3222
G3 X65.5068 Y57.4322 I-0.11 J0.0
G1 X62.9168
G1 Y63.2122
G1 X65.5068
G3 X65.6168 Y63.3222 I0.0 J0.11
G1 Y69.3222
G3 X65.5068 Y69.4322 I-0.11 J0.0
G1 X62.9168
G1 Y75.2122
G1 X65.5068
G3 X65.6168 Y75.3222 I0.0 J0.11
G1 Y85.5473
G3 X65.5068 Y85.6573 I-0.11 J0.0
G1 X62.9168
G1 Y93.0723
G3 X62.8068 Y93.1823 I-0.11 J0.0
G1 X57.2668
G1 Y95.7723
G3 X57.1568 Y95.8823 I-0.11 J0.0
G1 X48.8068
G3 X48.6968 Y95.7723 I0.0 J-0.11
G1 Y93.1823
G1 X42.9168
G1 Y95.7723
G3 X42.8068 Y95.8823 I-0.11 J0.0
G1 X36.8068
G3 X36.6968 Y95.7723 I0.0 J-0.11
G1 Y93.1823
G1 X30.9168
G1 Y95.7723
G3 X30.8068 Y95.8823 I-0.11 J0.0
G1 X24.8068
G3 X24.6968 Y95.7723 I0.0 J-0.11
G1 Y93.1823
G1 X18.9168
G1 Y95.7723
G3 X18.8068 Y95.8823 I-0.11 J0.0
G1 X10.4568
G3 X10.3468 Y95.7723 I0.0 J-0.11
G1 Y93.1823
G1 X4.8068
G3 X4.6968 Y93.0723 I0.0 J-0.11
G1 Y85.6573
G1 X2.1068
G3 X1.9968 Y85.5473 I0.0 J-0.11
G1 Y75.3222
G3 X2.1068 Y75.2122 I0.11 J0.0
G1 X4.6968
G1 Y69.4322
G1 X2.1068
G3 X1.9968 Y69.3222 I0.0 J-0.11
G1 Y63.3222
G3 X2.1068 Y63.2122 I0.11 J0.0
G1 X4.6968
G1 Y57.4322
G1 X2.1068
G3 X1.9968 Y57.3222 I0.0 J-0.11
G1 Y51.3222
G3 X2.1068 Y51.2122 I0.11 J0.0
G1 X4.6968
G1 Y45.4322
G1 X2.1068
G3 X1.9968 Y45.3222 I0.0 J-0.11
G1 Y39.3222
G3 X2.1068 Y39.2122 I0.11 J0.0
G1 X4.6968
G1 Y33.4322
G1 X2.1068
G3 X1.9968 Y33.3222 I0.0 J-0.11
G1 Y27.3222
G3 X2.1068 Y27.2122 I0.11 J0.0
G1 X4.6968
G1 Y21.4322
G1 X2.1068
G3 X1.9968 Y21.3222 I0.0 J-0.11
G1 Y11.0972
G3 X2.1068 Y10.9872 I0.11 J0.0
G1 X4.6968
G1 Y3.5722
G3 X4.8068 Y3.4622 I0.11 J0.0
E1P0
G0
E1P0
G0
G1 X0.00 Y0.00
M5
G0
M9
M30
