( Mach3 CNC Laser Code )
( Chris' Circuits - http://ChrisCircuits.com )
( Kitchen Sink Electronics - http://KitchenSinkElectronics.com )
( ends 4/27/2017 12:15:28 AM )
( T0 : 0.22 )
G21 G90 G91.1 G64 G40
G0
( T0 : 0.22 )
T0 M6
G0
M8
( Profile1 )
G17
S1000
G0
G0 X19.1391 Y76.915
G1 F300.0
E1P1
G1 F400.0 X19.1008 Y76.8798
G1 X18.9835 Y76.7739
G1 X18.8666 Y76.6706
G1 X18.7502 Y76.57
G1 X18.6341 Y76.472
G1 X18.5185 Y76.3767
G1 X18.4033 Y76.284
G1 X18.2885 Y76.194
G1 X18.1741 Y76.1066
G1 X18.0602 Y76.0219
G1 X17.9467 Y75.9398
G1 X17.8336 Y75.8603
G1 X17.721 Y75.7835
G1 X17.6088 Y75.7093
G1 X17.497 Y75.6377
G1 X17.3857 Y75.5688
G1 X17.2748 Y75.5025
G1 X17.1643 Y75.4389
G1 X17.0543 Y75.3779
G1 X16.9447 Y75.3195
G1 X16.8356 Y75.2637
G1 X16.7269 Y75.2106
G1 X16.6187 Y75.1601
G1 X16.5109 Y75.1122
G1 X16.4035 Y75.0669
G1 X16.2966 Y75.0242
G1 X16.1902 Y74.9842
G1 X16.0842 Y74.9467
G1 X15.9786 Y74.9119
G1 X15.8735 Y74.8797
G1 X15.7688 Y74.85
G1 X15.6646 Y74.823
G1 X15.5608 Y74.7985
G1 X15.4575 Y74.7767
G1 X15.3546 Y74.7574
G1 X15.2521 Y74.7407
G1 X15.1501 Y74.7266
G1 X15.0485 Y74.715
G1 X14.9474 Y74.706
G1 X14.8466 Y74.6996
G1 X14.7463 Y74.6958
G1 X14.6463 Y74.6945
G1 X14.5163 Y74.696
G1 X14.3875 Y74.7006
G1 X14.2601 Y74.7082
G1 X14.1339 Y74.7189
G1 X14.0091 Y74.7326
G1 X13.8855 Y74.7494
G1 X13.7633 Y74.7692
G1 X13.6424 Y74.792
G1 X13.5227 Y74.8178
G1 X13.4043 Y74.8467
G1 X13.2873 Y74.8786
G1 X13.1714 Y74.9136
G1 X13.0569 Y74.9516
G1 X12.9436 Y74.9926
G1 X12.8315 Y75.0366
G1 X12.7207 Y75.0837
G1 X12.6111 Y75.1339
G1 X12.5028 Y75.187
G1 X12.3956 Y75.2433
G1 X12.2897 Y75.3026
G1 X12.1851 Y75.3649
G1 X12.0816 Y75.4303
G1 X11.9793 Y75.4987
G1 X11.8783 Y75.5703
G1 X11.7784 Y75.6449
G1 X11.6798 Y75.7226
G1 X11.5823 Y75.8034
G1 X11.4861 Y75.8872
G1 X11.3851 Y75.9798
G1 X11.2881 Y76.0736
G1 X11.1952 Y76.1686
G1 X11.1064 Y76.2648
G1 X11.0216 Y76.3621
G1 X10.9408 Y76.4607
G1 X10.864 Y76.5605
G1 X10.7912 Y76.6614
G1 X10.7224 Y76.7636
G1 X10.6576 Y76.867
G1 X10.5967 Y76.9715
G1 X10.5399 Y77.0773
G1 X10.4869 Y77.1844
G1 X10.4379 Y77.2926
G1 X10.3929 Y77.4021
G1 X10.3517 Y77.5128
G1 X10.3145 Y77.6249
G1 X10.2812 Y77.7382
G1 X10.2518 Y77.8528
G1 X10.2264 Y77.9687
G1 X10.2048 Y78.0859
G1 X10.1872 Y78.2044
G1 X10.1734 Y78.3244
G1 X10.1636 Y78.4456
G1 X10.1577 Y78.5683
G1 X10.1557 Y78.6923
G1 X10.1577 Y78.8259
G1 X10.1637 Y78.9574
G1 X10.1736 Y79.0866
G1 X10.1875 Y79.2136
G1 X10.2053 Y79.3385
G1 X10.227 Y79.4611
G1 X10.2527 Y79.5816
G1 X10.2823 Y79.6999
G1 X10.3159 Y79.816
G1 X10.3533 Y79.93
G1 X10.3947 Y80.0419
G1 X10.44 Y80.1517
G1 X10.4892 Y80.2594
G1 X10.5424 Y80.365
G1 X10.5995 Y80.4686
G1 X10.6605 Y80.5701
G1 X10.7255 Y80.6697
G1 X10.7944 Y80.7672
G1 X10.8674 Y80.8627
G1 X10.9443 Y80.9562
G1 X11.0252 Y81.0477
G1 X11.1133 Y81.1403
G1 X11.2033 Y81.2281
G1 X11.2952 Y81.311
G1 X11.3889 Y81.389
G1 X11.4846 Y81.4622
G1 X11.5821 Y81.5306
G1 X11.6816 Y81.5943
G1 X11.783 Y81.6532
G1 X11.8864 Y81.7073
G1 X11.9917 Y81.7567
G1 X12.099 Y81.8014
G1 X12.2084 Y81.8415
G1 X12.3198 Y81.8768
G1 X12.4333 Y81.9074
G1 X12.5489 Y81.9333
G1 X12.6667 Y81.9546
G1 X12.7866 Y81.9711
G1 X12.9086 Y81.983
G1 X13.0329 Y81.9901
G1 X13.1593 Y81.9924
G1 X13.277 Y81.9901
G1 X13.3941 Y81.9833
G1 X13.5107 Y81.9718
G1 X13.6267 Y81.9557
G1 X13.7423 Y81.9351
G1 X13.8574 Y81.9099
G1 X13.9721 Y81.88
G1 X14.0864 Y81.8456
G1 X14.2002 Y81.8065
G1 X14.3136 Y81.7628
G1 X14.4267 Y81.7144
G1 X14.5393 Y81.6614
G1 X14.6516 Y81.6037
G1 X14.7635 Y81.5413
G1 X14.875 Y81.4742
G1 X14.9861 Y81.4024
G1 X15.0969 Y81.3258
G1 X15.2076 Y81.2443
G1 X15.2681 Y81.1976
G1 X15.3304 Y81.148
G1 X15.3942 Y81.0959
G1 X15.4594 Y81.041
G1 X15.526 Y80.9836
G1 X15.5941 Y80.9235
G1 X15.6636 Y80.8609
G1 X15.7345 Y80.7956
G1 X15.8069 Y80.7277
G1 X15.8806 Y80.6571
G1 X15.9558 Y80.584
G1 X16.0323 Y80.5083
G1 X16.1103 Y80.4299
G1 X16.1897 Y80.349
G1 X16.2704 Y80.2654
G1 X16.3526 Y80.1793
G1 X16.4361 Y80.0905
G1 X16.5211 Y79.9991
G1 X16.6074 Y79.9052
G1 X16.6951 Y79.8086
G1 X16.7842 Y79.7095
G1 X16.8747 Y79.6077
G1 X16.9665 Y79.5034
G1 X17.0598 Y79.3964
G1 X17.1544 Y79.2869
G1 X17.2504 Y79.1748
G1 X17.3478 Y79.06
G1 X17.4465 Y78.9427
G1 X17.5466 Y78.8228
G1 X17.6482 Y78.7003
G1 X17.751 Y78.5752
G1 X17.8553 Y78.4475
G1 X17.961 Y78.3171
G3 X17.9613 Y78.3168 I0.0854 J0.0693
G1 X18.0562 Y78.2007
G3 X18.0563 Y78.2006 I0.0852 J0.0696
G1 X18.1489 Y78.0878
G3 X18.149 Y78.0876 I0.085 J0.0698
G1 X18.2392 Y77.9781
G3 X18.2393 Y77.9779 I0.0849 J0.0699
G1 X18.3272 Y77.8716
G3 X18.3273 Y77.8714 I0.0848 J0.0701
G1 X18.4128 Y77.7683
G3 X18.413 Y77.7681 I0.0847 J0.0702
G1 X18.4961 Y77.6683
G3 X18.4963 Y77.6681 I0.0845 J0.0704
G1 X18.5771 Y77.5714
G3 X18.5773 Y77.5712 I0.0844 J0.0706
G1 X18.6558 Y77.4778
G3 X18.656 Y77.4776 I0.0842 J0.0708
G1 X18.7321 Y77.3874
G3 X18.7323 Y77.3872 I0.084 J0.071
G1 X18.8061 Y77.3003
G3 X18.8063 Y77.3 I0.0839 J0.0712
G1 X18.8778 Y77.2163
G3 X18.878 Y77.2161 I0.0837 J0.0714
G1 X18.9471 Y77.1356
G3 X18.9473 Y77.1353 I0.0834 J0.0717
G1 X19.0141 Y77.0581
G3 X19.0144 Y77.0578 I0.0832 J0.0719
G1 X19.0788 Y76.9838
G3 X19.0791 Y76.9835 I0.083 J0.0722
G1 X19.1391 Y76.915
E1P0
G0
G0 X20.9815 Y77.2583
G1 F300.0
E1P1
G1 F400.0 X20.9908 Y77.2682
G1 X21.3256 Y77.6032
G3 X21.3276 Y77.6052 I-0.0778 J0.0778
G1 X21.6248 Y77.918
G3 X21.6299 Y77.9238 I-0.0797 J0.0758
G1 X21.6546 Y77.9538
G1 X21.6634 Y77.963
G1 X21.7381 Y77.9523
G3 X21.7443 Y77.9516 I0.0155 J0.1089
G1 X21.8747 Y77.9405
G3 X21.8809 Y77.9402 I0.0093 J0.1096
G1 X22.0114 Y77.9364
G3 X22.0164 I0.0031 J0.11
G1 X22.1095 Y77.938
G3 X22.1129 Y77.9381 I-0.0019 J0.11
G1 X22.2115 Y77.9428
G3 X22.2145 Y77.943 I-0.0053 J0.1099
G1 X22.3187 Y77.9509
G3 X22.3214 Y77.9511 I-0.0083 J0.1097
G1 X22.4311 Y77.9622
G3 X22.4335 Y77.9624 I-0.011 J0.1094
G1 X22.5488 Y77.9766
G3 X22.551 Y77.9769 I-0.0134 J0.1092
G1 X22.6718 Y77.9942
G3 X22.6738 Y77.9945 I-0.0156 J0.1089
G1 X22.8002 Y78.015
G3 X22.802 Y78.0153 I-0.0176 J0.1086
G1 X22.934 Y78.0389
G3 X22.9356 Y78.0392 I-0.0194 J0.1083
G1 X23.0731 Y78.066
G3 X23.0746 Y78.0663 I-0.021 J0.108
G1 X23.2177 Y78.0962
G3 X23.2191 Y78.0965 I-0.0225 J0.1077
G1 X23.3677 Y78.1296
G3 X23.369 Y78.1299 I-0.0239 J0.1074
G1 X23.5232 Y78.1661
G3 X23.5243 Y78.1664 I-0.0252 J0.1071
G1 X23.6841 Y78.2058
G1
G1 X23.854 Y78.2477
G1 X24.0181 Y78.2874
G1 X24.1767 Y78.3249
G1 X24.3296 Y78.3603
G1 X24.4769 Y78.3935
G1 X24.6186 Y78.4246
G1 X24.7547 Y78.4535
G1 X24.8851 Y78.4803
G1 X25.01 Y78.5048
G1 X25.1292 Y78.5273
G1 X25.2427 Y78.5475
G1 X25.3505 Y78.5656
G1 X25.4527 Y78.5816
G1 X25.5492 Y78.5953
G1 X25.6398 Y78.607
G1 X25.7247 Y78.6164
G1 X25.8038 Y78.6238
G1 X25.877 Y78.629
G1 X25.9441 Y78.6321
G1 X26.0047 Y78.6331
G1 X26.1418 Y78.6293
G1 X26.2731 Y78.6182
G1 X26.3991 Y78.5998
G1 X26.5199 Y78.5742
G1 X26.6356 Y78.5413
G1 X26.7463 Y78.5013
G1 X26.8522 Y78.4541
G1 X26.9532 Y78.3998
G1 X27.0496 Y78.3383
G1 X27.1415 Y78.2694
G1 X27.2289 Y78.1933
G1 X27.31 Y78.1114
G1 X27.3832 Y78.0253
G1 X27.4484 Y77.935
G1 X27.5059 Y77.8404
G1 X27.5558 Y77.7413
G1 X27.5981 Y77.6376
G1 X27.6328 Y77.5291
G1 X27.6599 Y77.4157
G1 X27.6793 Y77.2973
G1 X27.6911 Y77.1737
G1 X27.695 Y77.0446
G1 X27.6919 Y76.9205
G1 X27.6825 Y76.7983
G1 X27.6669 Y76.6784
G1 X27.6451 Y76.5607
G1 X27.6171 Y76.4451
G1 X27.5829 Y76.3316
G1 X27.5424 Y76.2201
G1 X27.4957 Y76.1107
G1 X27.4428 Y76.0031
G1 X27.3835 Y75.8975
G1 X27.3179 Y75.7937
G1 X27.2459 Y75.6917
G1 X27.1674 Y75.5916
G1 X27.0825 Y75.4933
G1 X26.9911 Y75.3969
G1 X26.8931 Y75.3023
G1 X26.7969 Y75.2168
G1 X26.6989 Y75.1366
G1 X26.599 Y75.0617
G1 X26.4972 Y74.992
G1 X26.3936 Y74.9276
G1 X26.2881 Y74.8684
G1 X26.1808 Y74.8143
G1 X26.0714 Y74.7654
G1 X25.9602 Y74.7217
G1 X25.8469 Y74.6831
G1 X25.7316 Y74.6497
G1 X25.6143 Y74.6214
G1 X25.4949 Y74.5982
G1 X25.3734 Y74.5801
G1 X25.2497 Y74.5672
G1 X25.1239 Y74.5595
G1 X24.9961 Y74.5569
G1 X24.8924 Y74.5592
G1 X24.7883 Y74.566
G1 X24.6836 Y74.5774
G1 X24.5785 Y74.5933
G1 X24.4727 Y74.6138
G1 X24.3663 Y74.639
G1 X24.2594 Y74.6687
G1 X24.1518 Y74.7031
G1 X24.0436 Y74.7422
G1 X23.9348 Y74.7859
G1 X23.8253 Y74.8343
G1 X23.7153 Y74.8875
G1 X23.6046 Y74.9453
G1 X23.4933 Y75.0079
G1 X23.3814 Y75.0752
G1 X23.2689 Y75.1472
G1 X23.1558 Y75.224
G1 X23.0421 Y75.3056
G1 X22.9278 Y75.392
G1 X22.813 Y75.4831
G1 X22.6976 Y75.579
G1 X22.5816 Y75.6797
G1 X22.4646 Y75.7856
G1 X22.3558 Y75.8857
G1 X22.249 Y75.9847
G1 X22.1445 Y76.0826
G1 X22.0422 Y76.1793
G1 X21.9421 Y76.2749
G1 X21.8443 Y76.3693
G1 X21.7487 Y76.4626
G1 X21.6553 Y76.5548
G1 X21.5642 Y76.6457
G1 X21.4753 Y76.7355
G1 X21.3887 Y76.8242
G1 X21.3042 Y76.9117
G1 X21.222 Y76.998
G1 X21.1421 Y77.0832
G1 X21.0644 Y77.1672
G1 X20.9889 Y77.2501
G1 X20.9815 Y77.2583
E1P0
G0
G0 X30.512 Y74.1774
G1 F300.0
E1P1
G1 F400.0 X30.6029 Y74.2374
G3 X30.6052 Y74.2389 I-0.0605 J0.0918
G1 X30.7244 Y74.3218
G3 X30.7264 Y74.3232 I-0.0628 J0.0903
G1 X30.8499 Y74.4133
G3 X30.8517 Y74.4146 I-0.0648 J0.0889
G1 X30.9797 Y74.5119
G3 X30.9813 Y74.5131 I-0.0666 J0.0876
G1 X31.1136 Y74.6176
G3 X31.115 Y74.6187 I-0.0682 J0.0863
G1 X31.2518 Y74.7304
G3 X31.253 Y74.7315 I-0.0696 J0.0852
G1 X31.3942 Y74.8504
G3 X31.3953 Y74.8514 I-0.0709 J0.0841
G1 X31.5008 Y74.9428
G1 X31.5 Y74.8933
G3 X31.5001 Y74.888 I0.11 J-0.0017
G1 X31.505 Y74.737
G3 X31.5056 Y74.729 I0.1099 J0.0036
G1 X31.5203 Y74.5892
G3 X31.5217 Y74.58 I0.1094 J0.0116
G1 X31.5464 Y74.4514
G3 X31.5488 Y74.4411 I0.108 J0.0207
G1 X31.5834 Y74.3236
G3 X31.5874 Y74.3122 I0.1055 J0.031
G1 X31.6318 Y74.206
G3 X31.6377 Y74.1938 I0.1015 J0.0424
G1 X31.691 Y74.1004
G1 X31.5891 Y74.1087
G3 X31.5881 Y74.1088 I-0.009 J-0.1096
G1 X31.2028 Y74.1368
G3 X31.202 Y74.1369 I-0.008 J-0.1097
G1 X30.9449 Y74.1536
G3 X30.9441 I-0.0071 J-0.1098
G1 X30.6012 Y74.1733
G3 X30.6 I-0.0063 J-0.1098
G1 X30.512 Y74.1774
E1P0
G0
( Profile2 )
S1000
G0
G0 X33.7857 Y78.4407
G1 F300.0
E1P1
G1 F400.0 X33.8103 Y78.477
G1 X33.8853 Y78.5831
G1 X33.9621 Y78.6871
G1 X34.0408 Y78.7891
G1 X34.1213 Y78.8891
G1 X34.2035 Y78.9869
G1 X34.3142 Y79.1125
G1 X34.4243 Y79.23
G1 X34.5339 Y79.3397
G1 X34.6429 Y79.4415
G1 X34.7513 Y79.5355
G1 X34.859 Y79.6217
G1 X34.9661 Y79.7001
G1 X35.0724 Y79.7708
G1 X35.1781 Y79.8338
G1 X35.283 Y79.8891
G1 X35.3871 Y79.9368
G1 X35.4904 Y79.977
G1 X35.5931 Y80.0097
G1 X35.695 Y80.035
G1 X35.7962 Y80.053
G1 X35.897 Y80.0638
G1 X35.9954 Y80.0674
G1 X36.1363 Y80.0575
G1 X36.2414 Y80.0306
G1 X36.3134 Y79.9911
G1 X36.3597 Y79.9414
G1 X36.3884 Y79.8751
G1 X36.3996 Y79.7808
G1 X36.3937 Y79.6887
G1 X36.3754 Y79.5949
G1 X36.3448 Y79.5017
G1 X36.3013 Y79.4087
G1 X36.2445 Y79.3158
G1 X36.174 Y79.2228
G1 X36.0895 Y79.1299
G1 X35.9908 Y79.0372
G1 X35.8777 Y78.9452
G1 X35.75 Y78.8536
G1 X35.6373 Y78.7812
G1 X35.5229 Y78.7151
G1 X35.4068 Y78.6553
G1 X35.2892 Y78.6019
G1 X35.17 Y78.5548
G1 X35.0492 Y78.514
G1 X34.9267 Y78.4795
G1 X34.8025 Y78.4513
G1 X34.6765 Y78.4293
G1 X34.5487 Y78.4136
G1 X34.4191 Y78.4042
G1 X34.2874 Y78.401
G1 X34.2035 Y78.4027
G1 X34.1074 Y78.408
G1 X33.9993 Y78.4168
G1 X33.8796 Y78.4292
G1 X33.7857 Y78.4407
E1P0
G0
G0 X25.538 Y79.8856
G1 F300.0
E1P1
G1 F400.0 X25.4549 Y79.8803
G3 X25.4522 Y79.8801 I0.0069 J-0.1098
G1 X25.3201 Y79.8685
G3 X25.3174 Y79.8682 I0.0097 J-0.1096
G1 X25.1849 Y79.8532
G3 X25.1823 Y79.8529 I0.0123 J-0.1093
G1 X25.0492 Y79.8346
G3 X25.0466 Y79.8342 I0.015 J-0.109
G1 X24.9131 Y79.8126
G3 X24.9105 Y79.8121 I0.0176 J-0.1086
G1 X24.7765 Y79.7872
G3 X24.774 Y79.7867 I0.0201 J-0.1081
G1 X24.6394 Y79.7584
G3 X24.637 Y79.7579 I0.0226 J-0.1076
G1 X24.502 Y79.7263
G3 X24.5001 Y79.7258 I0.0251 J-0.1071
G1 X23.1808 Y79.3931
G1 X23.032 Y79.3572
G1 X22.8896 Y79.3252
G1 X22.7534 Y79.2969
G1 X22.6234 Y79.2723
G1 X22.5546 Y79.2607
G1 X22.5664 Y79.2747
G3 X22.5668 Y79.2752 I-0.0842 J0.0708
G1 X22.6416 Y79.3652
G3 X22.6419 Y79.3656 I-0.0846 J0.0703
G1 X22.7209 Y79.4615
G3 X22.7212 Y79.4619 I-0.0849 J0.0699
G1 X22.8044 Y79.5639
G3 X22.8047 Y79.5642 I-0.0852 J0.0695
G1 X22.8921 Y79.6722
G3 X22.8924 Y79.6725 I-0.0855 J0.0692
G1 X22.984 Y79.7865
G3 X22.9842 Y79.7867 I-0.0857 J0.0689
G1 X23.0801 Y79.9067
G3 X23.0803 Y79.907 I-0.0859 J0.0687
G1 X23.1804 Y80.033
G3 X23.1806 Y80.0332 I-0.0861 J0.0684
G1 X23.285 Y80.1652
G1
G1 X23.3929 Y80.3019
G1 X23.4912 Y80.4263
G1 X23.5798 Y80.5382
G1 X23.6588 Y80.6378
G1 X23.7281 Y80.725
G1 X23.7874 Y80.7993
G1 X23.8822 Y80.915
G3 X23.8827 Y80.9155 I-0.0851 J0.0697
G1 X23.9705 Y81.0241
G3 X23.971 Y81.0247 I-0.0855 J0.0692
G1 X24.0515 Y81.1255
G3 X24.052 Y81.1262 I-0.086 J0.0686
G1 X24.1251 Y81.2193
G3 X24.1258 Y81.2201 I-0.0865 J0.0679
G1 X24.1914 Y81.3055
G3 X24.1922 Y81.3065 I-0.0872 J0.0671
G1 X24.2096 Y81.3296
G1 X24.2327 Y81.2956
G3 X24.2335 Y81.2944 I0.091 J0.0618
G1 X24.3408 Y81.1405
G3 X24.3417 Y81.1392 I0.0902 J0.0629
G1 X24.4459 Y80.9941
G3 X24.4469 Y80.9927 I0.0893 J0.0642
G1 X24.5481 Y80.8564
G3 X24.5493 Y80.8549 I0.0883 J0.0656
G1 X24.6474 Y80.7273
G3 X24.6487 Y80.7257 I0.0872 J0.0671
G1 X24.7438 Y80.6069
G3 X24.7453 Y80.6051 I0.0859 J0.0688
G1 X24.8373 Y80.4951
G3 X24.8391 Y80.4931 I0.0844 J0.0706
G1 X24.928 Y80.392
G3 X24.9301 Y80.3897 I0.0826 J0.0726
G1 X25.016 Y80.2973
G3 X25.0184 Y80.2948 I0.0805 J0.0749
G1 X25.1013 Y80.2113
G3 X25.1042 Y80.2084 I0.0781 J0.0774
G1 X25.1839 Y80.1337
G3 X25.1874 Y80.1305 I0.0752 J0.0803
G1 X25.2642 Y80.0646
G3 X25.2684 Y80.0611 I0.0717 J0.0834
G1 X25.3421 Y80.0039
G3 X25.3474 Y80.0001 I0.0674 J0.0869
G1 X25.418 Y79.9517
G3 X25.4245 Y79.9475 I0.0622 J0.0907
G1 X25.4921 Y79.9079
G3 X25.5003 Y79.9036 I0.0556 J0.0949
G1 X25.538 Y79.8856
E1P0
G0
G0 X26.1123 Y79.8862
G1 F300.0
E1P1
G1 F400.0 X26.1561 Y79.8835
G2 X26.1608 Y79.8831 I-0.0067 J-0.1098
G1 X26.3028 Y79.8683
G2 X26.3077 Y79.8677 I-0.0114 J-0.1094
G1 X26.4462 Y79.8471
G2 X26.4512 Y79.8462 I-0.0162 J-0.1088
G1 X26.5862 Y79.8196
G2 X26.5913 Y79.8185 I-0.0212 J-0.1079
G1 X26.7229 Y79.786
G2 X26.7281 Y79.7846 I-0.0264 J-0.1068
G1 X26.8561 Y79.7462
G2 X26.8614 Y79.7445 I-0.0316 J-0.1054
G1 X26.986 Y79.7002
G2 X26.9912 Y79.6982 I-0.0368 J-0.1036
G1 X27.1123 Y79.648
G2 X27.1175 Y79.6457 I-0.0421 J-0.1016
G1 X27.2351 Y79.5896
G2 X27.2403 Y79.587 I-0.0474 J-0.0993
G1 X27.3544 Y79.525
G2 X27.3594 Y79.5221 I-0.0525 J-0.0967
G1 X27.4701 Y79.4542
G2 X27.4749 Y79.451 I-0.0575 J-0.0938
G1 X27.5821 Y79.3772
G2 X27.5867 Y79.3738 I-0.0624 J-0.0906
G1 X27.6904 Y79.2941
G2 X27.6948 Y79.2905 I-0.067 J-0.0872
G1 X27.795 Y79.2049
G2 X27.7993 Y79.201 I-0.0715 J-0.0836
G1 X27.901 Y79.1044
G2 X27.9054 Y79.1 I-0.0758 J-0.0797
G1 X27.9996 Y78.9997
G2 X28.0038 Y78.9949 I-0.0802 J-0.0753
G1 X28.0905 Y78.891
G2 X28.0946 Y78.8858 I-0.0845 J-0.0705
G1 X28.1737 Y78.7784
G2 X28.1776 Y78.7728 I-0.0886 J-0.0652
G1 X28.2491 Y78.6618
G2 X28.2527 Y78.6558 I-0.0924 J-0.0596
G1 X28.3167 Y78.5412
G2 X28.3199 Y78.535 I-0.096 J-0.0537
G1 X28.3764 Y78.4169
G2 X28.3793 Y78.4105 I-0.0992 J-0.0475
G1 X28.4282 Y78.2887
G2 X28.4306 Y78.2822 I-0.1021 J-0.041
G1 X28.472 Y78.1569
G2 X28.474 Y78.1504 I-0.1044 J-0.0345
G1 X28.5079 Y78.0215
G2 X28.5094 Y78.015 I-0.1064 J-0.028
G1 X28.5358 Y77.8825
G2 X28.5368 Y77.8761 I-0.1079 J-0.0215
G1 X28.5557 Y77.74
G2 X28.5563 Y77.7338 I-0.109 J-0.0151
G1 X28.5676 Y77.5942
G2 X28.568 Y77.5882 I-0.1096 J-0.0089
G1 X28.5717 Y77.445
G2 Y77.44 I-0.11 J-0.0029
G1 X28.5692 Y77.3087
G2 X28.569 Y77.3044 I-0.11 J0.0021
G1 X28.5614 Y77.1746
G2 X28.561 Y77.1702 I-0.1098 J0.0065
G1 X28.5483 Y77.0418
G2 X28.5478 Y77.0374 I-0.1095 J0.0109
G1 X28.5299 Y76.9105
G2 X28.5292 Y76.906 I-0.1089 J0.0153
G1 X28.5063 Y76.7806
G2 X28.5054 Y76.7762 I-0.1082 J0.0198
G1 X28.4773 Y76.6522
G2 X28.4762 Y76.6478 I-0.1073 J0.0243
G1 X28.4431 Y76.5253
G2 X28.4418 Y76.5209 I-0.1062 J0.0287
G1 X28.4036 Y76.3999
G2 X28.4021 Y76.3955 I-0.1049 J0.0331
G1 X28.3588 Y76.276
G2 X28.3572 Y76.2717 I-0.1034 J0.0375
G1 X28.3087 Y76.1536
G2 X28.3069 Y76.1495 I-0.1018 J0.0417
G1 X28.2534 Y76.0329
G2 X28.2515 Y76.0289 I-0.1 J0.0459
G1 X28.1929 Y75.9137
G2 X28.1908 Y75.9098 I-0.098 J0.0499
G1 X28.1271 Y75.7961
G2 X28.1249 Y75.7924 I-0.096 J0.0538
G1 X28.0561 Y75.6802
G2 X28.0539 Y75.6766 I-0.0938 J0.0575
G1 X27.98 Y75.5659
G2 X27.9776 Y75.5625 I-0.0915 J0.061
G1 X27.8986 Y75.4532
G2 X27.8962 Y75.45 I-0.0892 J0.0644
G1 X27.8121 Y75.3422
G2 X27.8097 Y75.3391 I-0.0867 J0.0676
G1 X27.7205 Y75.2328
G2 X27.718 Y75.2299 I-0.0843 J0.0707
G1 X27.6238 Y75.125
G2 X27.6213 Y75.1224 I-0.0818 J0.0735
G1 X27.5219 Y75.0189
G2 X27.5194 Y75.0164 I-0.0793 J0.0762
G1 X27.4149 Y74.9145
G2 X27.4125 Y74.9121 I-0.0768 J0.0787
G1 X27.3029 Y74.8116
G2 X27.3005 Y74.8095 I-0.0744 J0.0811
G1 X27.1925 Y74.7161
G2 X27.19 Y74.714 I-0.0719 J0.0832
G1 X27.0805 Y74.6248
G2 X27.0779 Y74.6228 I-0.0695 J0.0853
G1 X26.9669 Y74.5377
G2 X26.9642 Y74.5357 I-0.0669 J0.0873
G1 X26.8517 Y74.4548
G2 X26.8489 Y74.4529 I-0.0642 J0.0893
G1 X26.7349 Y74.3761
G2 X26.732 Y74.3743 I-0.0614 J0.0913
G1 X26.6164 Y74.3016
G2 X26.6134 Y74.2998 I-0.0585 J0.0931
G1 X26.4964 Y74.2314
G2 X26.4933 Y74.2296 I-0.0555 J0.095
G1 X26.3747 Y74.1653
G2 X26.3715 Y74.1637 I-0.0524 J0.0967
G1 X26.2873 Y74.1215
G2 X27.0155 Y74.1705 I2.7015 J-34.7379
G1 X27.0156
G2 X28.5521 Y74.2211 I1.8462 J-32.6941
G2 X28.5527 I0.001 J-0.11
G1 X28.8385 Y74.2221
G2 X28.8395 I0.0004 J-0.11
G1 X28.9606 Y74.2214
G1 X28.9516 Y74.2491
G2 X28.9477 Y74.2652 I0.1046 J0.034
G1 X28.9245 Y74.406
G2 X28.9231 Y74.4186 I0.1085 J0.0179
G1 X28.9154 Y74.5811
G2 X28.9153 Y74.5892 I0.1099 J0.0052
G1 X28.9177 Y74.6815
G2 X28.9179 Y74.6867 I0.11 J-0.0028
G1 X28.9251 Y74.785
G2 X28.9255 Y74.7895 I0.1097 J-0.008
G1 X28.9374 Y74.8938
G2 X28.9379 Y74.8978 I0.1093 J-0.0125
G1 X28.9546 Y75.008
G2 X28.9552 Y75.0115 I0.1088 J-0.0164
G1 X28.9766 Y75.1277
G2 X28.9772 Y75.1308 I0.1082 J-0.02
G1 X29.0034 Y75.253
G2 X29.0041 Y75.2558 I0.1076 J-0.0231
G1 X29.035 Y75.3839
G2 X29.0357 Y75.3864 I0.1069 J-0.0258
G1 X29.0714 Y75.5205
G2 X29.072 Y75.5227 I0.1063 J-0.0283
G1 X29.1125 Y75.6627
G2 X29.1131 Y75.6648 I0.1057 J-0.0305
G1 X29.1583 Y75.8108
G2 X29.1589 Y75.8126 I0.1051 J-0.0326
G1 X29.2089 Y75.9646
G2 X29.2095 Y75.9662 I0.1045 J-0.0344
G1 X29.2642 Y76.1241
G2 X29.2646 Y76.1252 I0.1039 J-0.036
G1 X29.2856 Y76.1838
G2 X29.2858 Y76.1843 I0.1036 J-0.0371
G1 X29.3084 Y76.2466
G2 X29.3086 Y76.2471 I0.1034 J-0.0376
G1 X29.3329 Y76.3131
G2 X29.333 Y76.3135 I0.1032 J-0.038
G1 X29.359 Y76.3832
G2 X29.3591 Y76.3835 I0.1031 J-0.0384
G1 X29.3867 Y76.457
G2 X29.3868 Y76.4573 I0.103 J-0.0387
G1 X29.4161 Y76.5344
G2 X29.4162 Y76.5347 I0.1028 J-0.039
G1 X29.4471 Y76.6155
G2 X29.4472 Y76.6158 I0.1027 J-0.0393
G1 X29.4797 Y76.7003
G2 X29.4798 Y76.7005 I0.1026 J-0.0395
G1 X29.514 Y76.7887
G2 X29.5141 Y76.7889 I0.1026 J-0.0398
G1 X29.55 Y76.8809
G2 X29.5501 Y76.8811 I0.1025 J-0.04
G1 X29.5876 Y76.9767
G2 Y76.9768 I0.1024 J-0.0402
G1 X29.6268 Y77.0762
G2 X29.6269 Y77.0763 I0.1023 J-0.0404
G1 X29.6677 Y77.1793
G2 X29.6678 Y77.1795 I0.1023 J-0.0405
G1 X29.7102 Y77.2862
G2 X29.7103 Y77.2863 I0.1022 J-0.0407
G1 X29.7544 Y77.3967
G2 X29.7545 Y77.3969 I0.1021 J-0.0408
G1 X29.8002 Y77.511
G2 X29.8003 Y77.5111 I0.1021 J-0.041
G1 X29.8477 Y77.6289
G2 Y77.629 I0.102 J-0.0411
G1 X29.8968 Y77.7505
G2 X29.8969 Y77.7506 I0.102 J-0.0412
G1 X29.9476 Y77.8758
G2 Y77.8759 I0.1019 J-0.0413
G1 X30.0 Y78.0048
G2 Y78.0049 I0.1019 J-0.0414
G1 X30.0541 Y78.1375
G2 Y78.1376 I0.1019 J-0.0415
G1 X30.1098 Y78.2739
G1 Y78.274
G1 X30.1672 Y78.4139
G1 Y78.414
G1 X30.2262 Y78.5577
G1 Y78.5578
G1 X30.2869 Y78.7051
G1 Y78.7052
G1 X30.3492 Y78.8563
G1 Y78.8564
G1 X30.4131 Y79.0111
G1 X30.4132 Y79.0112
G1 X30.4788 Y79.1697
G1
G1 X30.546 Y79.3319
G1 X30.5461 Y79.332
G1 X30.6149 Y79.4978
G1 X30.615 Y79.4979
G1 X30.6855 Y79.6674
G1 Y79.6675
G1 X30.7577 Y79.8408
G1 X30.7578
G1 X30.8316 Y80.0178
G1
G1 X30.9071 Y80.1984
G1 X31.6921 Y82.0797
G1 Y82.0798
G1 X31.7688 Y82.2632
G1 X31.841 Y82.4377
G1 X31.9088 Y82.6034
G1 X31.9722 Y82.7604
G1 X32.0313 Y82.9086
G1 X32.0858 Y83.048
G1 X32.136 Y83.1787
G1 X32.1818 Y83.3005
G1 X32.2231 Y83.4134
G1 X32.26 Y83.5175
G1 X32.2924 Y83.6126
G1 X32.3204 Y83.6987
G1 X32.3439 Y83.7756
G1 X32.3628 Y83.8432
G1 X32.3773 Y83.9012
G1 X32.3872 Y83.9489
G1 X32.3926 Y83.9854
G1 X32.3937 Y84.0038
G1 X32.3837 Y84.0646
G1 X32.3651 Y84.0915
G1 X32.3265 Y84.1116
G1 X32.2464 Y84.1215
G1 X32.203 Y84.1168
G1 X32.1173 Y84.0984
G1 X31.9954 Y84.066
G1 X31.8418 Y84.0205
G1 X31.7929 Y84.0029
G2 X31.7885 Y84.0014 I-0.0372 J0.1035
G1 X31.716 Y83.9787
G2 X31.5791 Y84.0479 I-0.0328 J0.105
G1 X31.4968 Y84.287
G2 X31.56 Y84.4249 I0.104 J0.0358
G1 X31.6837 Y84.4743
G2 X31.6851 Y84.4749 I0.0408 J-0.1022
G1 X31.8501 Y84.538
G1 X32.0092 Y84.5994
G1 X32.1626 Y84.6592
G1 X32.3103 Y84.7173
G1 X32.4524 Y84.7737
G1 X32.5888 Y84.8285
G1 X32.7195 Y84.8816
G1 X32.8446 Y84.933
G1 X32.9639 Y84.9827
G1 X33.0776 Y85.0308
G1 X33.1855 Y85.0771
G1 X33.2877 Y85.1218
G1 X33.3842 Y85.1648
G1 X33.475 Y85.2061
G1 X33.56 Y85.2457
G1 X33.6392 Y85.2835
G1 X33.7133 Y85.32
G2 X33.8718 Y85.2192 I0.0485 J-0.0987
G1 X33.8706 Y85.1582
G2 X33.8705 Y85.1544 I-0.11 J0.0021
G1 X33.867 Y85.09
G2 X33.8668 Y85.0865 I-0.1098 J0.0059
G1 X33.861 Y85.0186
G2 X33.8607 Y85.0156 I-0.1096 J0.0093
G1 X33.8526 Y84.9441
G2 X33.8523 Y84.9414 I-0.1093 J0.0124
G1 X33.8419 Y84.8665
G2 X33.8415 Y84.864 I-0.109 J0.0151
G1 X33.8288 Y84.7856
G2 X33.8284 Y84.7833 I-0.1086 J0.0176
G1 X33.8134 Y84.7014
G2 X33.813 Y84.6994 I-0.1082 J0.0198
G1 X33.7956 Y84.614
G2 X33.7952 Y84.6121 I-0.1078 J0.0219
G1 X33.7756 Y84.5232
G2 X33.7752 Y84.5215 I-0.1074 J0.0237
G1 X33.7532 Y84.4291
G2 X33.7529 Y84.4276 I-0.107 J0.0254
G1 X33.7286 Y84.3317
G2 X33.7282 Y84.3302 I-0.1066 J0.027
G1 X33.7016 Y84.2309
G2 X33.7013 Y84.2295 I-0.1063 J0.0284
G1 X33.6724 Y84.1266
G2 X33.672 Y84.1254 I-0.1059 J0.0297
G1 X33.6408 Y84.019
G2 X33.6405 Y84.0179 I-0.1056 J0.031
G1 X33.6069 Y83.908
G2 X33.6066 Y83.907 I-0.1052 J0.0321
G1 X33.5708 Y83.7936
G2 X33.5705 Y83.7926 I-0.1049 J0.0332
G1 X33.5323 Y83.6758
G2 X33.532 Y83.6749 I-0.1046 J0.0341
G1 X33.4916 Y83.5545
G2 X33.4913 Y83.5536 I-0.1043 J0.035
G1 X33.4485 Y83.4298
G2 X33.4482 Y83.429 I-0.104 J0.0359
G1 X33.4031 Y83.3016
G2 X33.4029 Y83.3009 I-0.1037 J0.0367
G1 X33.3555 Y83.17
G2 X33.3552 Y83.1693 I-0.1034 J0.0375
G1 X33.3055 Y83.035
G2 X33.3053 Y83.0343 I-0.1032 J0.0382
G1 X33.2533 Y82.8964
G2 X33.253 Y82.8958 I-0.1029 J0.0388
G1 X33.1987 Y82.7545
G2 X33.1985 Y82.7539 I-0.1027 J0.0395
G1 X33.1418 Y82.609
G2 X33.1416 Y82.6085 I-0.1024 J0.0401
G1 X33.0827 Y82.4602
G2 X33.0824 Y82.4596 I-0.1022 J0.0406
G1 X33.0212 Y82.3078
G2 X33.021 Y82.3073 I-0.102 J0.0412
G1 X32.9574 Y82.152
G2 X32.9572 Y82.1515 I-0.1018 J0.0417
G1 X32.8913 Y81.9927
G2 X32.8911 Y81.9922 I-0.1016 J0.0422
G1 X32.8229 Y81.8299
G2 X32.8227 Y81.8295 I-0.1014 J0.0426
G1 X32.7522 Y81.6637
G2 X32.752 Y81.6632 I-0.1012 J0.043
G1 X32.6792 Y81.4939
G2 X32.6791 Y81.4935 I-0.101 J0.0435
G1 X32.6039 Y81.3207
G2 X32.6038 Y81.3204 I-0.1009 J0.0439
G1 X32.5263 Y81.1441
G1
G1
G1
G1 X32.4428 Y80.9539
G1 X32.3608 Y80.7668
G1 X32.2803 Y80.5826
G1 X32.2014 Y80.4012
G1 X32.1239 Y80.2229
G1 X32.0479 Y80.0474
G1 X31.9735 Y79.8749
G1 X31.9005 Y79.7053
G1 X31.8291 Y79.5386
G1 X31.7592 Y79.3749
G1 X31.6907 Y79.2141
G1 X31.6238 Y79.0562
G1 X31.5584 Y78.9012
G1 X31.4945 Y78.7492
G1 X31.4321 Y78.6001
G1 X31.3712 Y78.4539
G1 X31.3119 Y78.3107
G1 X31.254 Y78.1704
G1 X31.1976 Y78.033
G1 X31.1428 Y77.8986
G1 X31.0894 Y77.767
G1 X31.0376 Y77.6385
G1 X30.9873 Y77.5128
G1 X30.9385 Y77.3901
G1 X30.8912 Y77.2703
G1 X30.8454 Y77.1535
G1 X30.8011 Y77.0396
G1 X30.7583 Y76.9286
G1 X30.717 Y76.8206
G1 X30.6773 Y76.7155
G1 X30.639 Y76.6134
G1 X30.6023 Y76.5142
G1 X30.5671 Y76.418
G1 X30.5334 Y76.3247
G1 X30.5012 Y76.2343
G1 X30.4705 Y76.147
G1 X30.4414 Y76.0625
G1 X30.4137 Y75.9811
G1 X30.3876 Y75.9026
G1 X30.363 Y75.8271
G1 X30.3399 Y75.7546
G1 X30.3184 Y75.6851
G1 X30.2983 Y75.6185
G1 X30.2798 Y75.555
G1 X30.2628 Y75.4945
G1 X30.2473 Y75.4371
G1 X30.2334 Y75.3827
G1 X30.221 Y75.3314
G1 X30.2101 Y75.2833
G1 X30.2007 Y75.2383
G1 X30.1929 Y75.1965
G1 X30.1866 Y75.1581
G1 X30.1817 Y75.123
G1 X30.1784 Y75.0914
G1 X30.1767 Y75.0676
G1 X30.1823 Y74.9557
G1 X30.2042 Y74.888
G1 X30.2341 Y74.8522
G1 X30.2797 Y74.831
G1 X30.3599 Y74.8246
G1 X30.4046 Y74.831
G1 X30.4677 Y74.8507
G1 X30.547 Y74.8854
G1 X30.6409 Y74.9355
G1 X30.7481 Y75.0008
G1 X30.8682 Y75.0814
G1 X31.0006 Y75.177
G1 X31.1462 Y75.2885
G2 X31.147 Y75.2891 I0.0669 J-0.0873
G1 X31.2446 Y75.3623
G1 X31.562 Y75.6167
G1 X31.5695 Y75.6624
G2 X31.57 Y75.6654 I0.1086 J-0.0178
G1 X31.5946 Y75.7931
G2 X31.5952 Y75.796 I0.108 J-0.0208
G1 X31.6235 Y75.9243
G2 X31.6242 Y75.9272 I0.1074 J-0.0237
G1 X31.6563 Y76.0561
G2 X31.657 Y76.0589 I0.1067 J-0.0266
G1 X31.6929 Y76.1884
G2 X31.6937 Y76.1911 I0.106 J-0.0294
G1 X31.7334 Y76.3213
G2 X31.7342 Y76.3239 I0.1052 J-0.0321
G1 X31.7776 Y76.4546
G2 X31.7785 Y76.4572 I0.1044 J-0.0347
G1 X31.8257 Y76.5885
G2 X31.8266 Y76.591 I0.1035 J-0.0372
G1 X31.8776 Y76.723
G2 X31.8786 Y76.7253 I0.1026 J-0.0396
G1 X31.9334 Y76.8579
G2 X31.9343 Y76.8602 I0.1017 J-0.042
G1 X31.9929 Y76.9934
G2 X31.9939 Y76.9956 I0.1007 J-0.0443
G1 X32.0562 Y77.1295
G2 X32.0572 Y77.1316 I0.0997 J-0.0464
G1 X32.1233 Y77.2661
G2 X32.1243 Y77.2681 I0.0987 J-0.0485
G1 X32.1942 Y77.4032
G2 X32.1953 Y77.4051 I0.0977 J-0.0505
G1 X32.2689 Y77.5408
G2 X32.2699 Y77.5426 I0.0967 J-0.0525
G1 X32.3395 Y77.6653
G2 X32.3405 Y77.667 I0.0957 J-0.0543
G1 X32.4118 Y77.7877
G2 X32.4128 Y77.7894 I0.0947 J-0.056
G1 X32.4859 Y77.9081
G2 X32.487 Y77.9098 I0.0937 J-0.0577
G1 X32.5618 Y78.0265
G2 X32.5629 Y78.0282 I0.0926 J-0.0594
G1 X32.6395 Y78.143
G2 X32.6407 Y78.1447 I0.0915 J-0.0611
G1 X32.719 Y78.2575
G2 X32.7202 Y78.2592 I0.0903 J-0.0628
G1 X32.8003 Y78.37
G2 X32.8016 Y78.3716 I0.0891 J-0.0644
G1 X32.8835 Y78.4805
G2 X32.8847 Y78.4821 I0.0879 J-0.0661
G1 X32.9684 Y78.589
G2 X32.9697 Y78.5907 I0.0866 J-0.0678
G1 X33.0551 Y78.6955
G2 X33.0564 Y78.6972 I0.0853 J-0.0694
G1 X33.1436 Y78.8001
G2 X33.145 Y78.8017 I0.0839 J-0.0711
G1 X33.2339 Y78.9026
G2 X33.2353 Y78.9042 I0.0825 J-0.0727
G1 X33.326 Y79.0032
G2 X33.3275 Y79.0048 I0.0811 J-0.0743
G1 X33.4199 Y79.1018
G2 X33.4214 Y79.1033 I0.0796 J-0.0759
G1 X33.5156 Y79.1983
G2 X33.5171 Y79.1998 I0.0781 J-0.0774
G1 X33.613 Y79.2929
G2 X33.6146 Y79.2944 I0.0766 J-0.079
G1 X33.7123 Y79.3854
G2 X33.7139 Y79.3869 I0.075 J-0.0805
G1 X33.8134 Y79.476
G2 X33.815 Y79.4774 I0.0734 J-0.0819
G1 X33.9162 Y79.5645
G2 X33.9179 Y79.5659 I0.0718 J-0.0834
G1 X34.0209 Y79.651
G2 X34.0225 Y79.6524 I0.0701 J-0.0848
G1 X34.1273 Y79.7355
G2 X34.129 Y79.7369 I0.0684 J-0.0861
G1 X34.2355 Y79.818
G2 X34.2372 Y79.8193 I0.0667 J-0.0875
G1 X34.3733 Y79.919
G2 X34.375 Y79.9202 I0.065 J-0.0888
G1 X34.5097 Y80.0149
G2 X34.5115 Y80.0162 I0.0633 J-0.09
G1 X34.6448 Y80.1061
G2 X34.6467 Y80.1073 I0.0615 J-0.0912
G1 X34.7785 Y80.1924
G2 X34.7805 Y80.1936 I0.0596 J-0.0924
G1 X34.911 Y80.2738
G2 X34.9131 Y80.2751 I0.0576 J-0.0937
G1 X35.0422 Y80.3505
G2 X35.0444 Y80.3518 I0.0555 J-0.095
G1 X35.172 Y80.4222
G2 X35.1745 Y80.4235 I0.0532 J-0.0963
G1 X35.3006 Y80.4891
G2 X35.3032 Y80.4904 I0.0507 J-0.0976
G1 X35.428 Y80.5512
G2 X35.4307 Y80.5525 I0.0482 J-0.0989
G1 X35.5541 Y80.6084
G2 X35.557 Y80.6097 I0.0454 J-0.1002
G1 X35.6789 Y80.6607
G2 X35.682 Y80.6619 I0.0425 J-0.1015
G1 X35.8025 Y80.7081
G2 X35.8058 Y80.7093 I0.0394 J-0.1027
G1 X35.9249 Y80.7506
G2 X35.9284 Y80.7518 I0.0361 J-0.1039
G1 X36.046 Y80.7882
G2 X36.0497 Y80.7893 I0.0326 J-0.1051
G1 X36.1659 Y80.8209
G2 X36.1698 Y80.8219 I0.0289 J-0.1061
G1 X36.2846 Y80.8486
G2 X36.2887 Y80.8495 I0.0249 J-0.1071
G1 X36.4021 Y80.8714
G2 X36.4064 Y80.8721 I0.0208 J-0.108
G1 X36.5184 Y80.8891
G2 X36.5229 Y80.8897 I0.0165 J-0.1088
G1 X36.6334 Y80.9019
G2 X36.6381 Y80.9023 I0.012 J-0.1093
G1 X36.7472 Y80.9096
G2 X36.752 Y80.9098 I0.0073 J-0.1098
G1 X36.8597 Y80.9122
G2 X36.8676 Y80.9121 I0.0025 J-0.11
G1 X37.0205 Y80.9046
G2 X37.0334 Y80.9032 I-0.0054 J-0.1099
G1 X37.1659 Y80.8808
G2 X37.1823 Y80.8768 I-0.0183 J-0.1085
G1 X37.2945 Y80.8394
G2 X37.3142 Y80.8306 I-0.0347 J-0.1044
G1 X37.4059 Y80.7784
G2 X37.4269 Y80.7629 I-0.0544 J-0.0956
G1 X37.4982 Y80.6957
G2 X37.5163 Y80.6736 I-0.0754 J-0.0801
G1 X37.5672 Y80.5915
G2 X37.5787 Y80.5666 I-0.0935 J-0.058
G1 X37.6092 Y80.4695
G2 X37.6139 Y80.4464 I-0.1049 J-0.0331
G1 X37.6241 Y80.3345
G2 X37.6243 Y80.3169 I-0.1095 J-0.01
G1 X37.6179 Y80.2248
G2 X37.616 Y80.2112 I-0.1097 J0.0076
G1 X37.5968 Y80.1139
G2 X37.5961 Y80.1103 I-0.1079 J0.0213
G1 X37.7138 Y80.1417
G1 X37.8557 Y80.1828
G1 X37.9967 Y80.2248
G1 X38.1358 Y80.2674
G1 X38.2733 Y80.3106
G1 X38.409 Y80.3545
G1 X38.5429 Y80.399
G1 X38.6751 Y80.4441
G1 X38.8055 Y80.4899
G1 X38.9341 Y80.5363
G1 X39.061 Y80.5833
G1 X39.1862 Y80.631
G1 X39.3096 Y80.6793
G1 X39.4312 Y80.7282
G1 X39.5511 Y80.7778
G1 X39.6693 Y80.8279
G1 X39.7851 Y80.8785
G1 X39.8912 Y80.9275
G2 X40.0465 Y80.8412 I0.0462 J-0.0998
G1 X40.0577 Y80.7504
G2 X40.0583 Y80.7441 I-0.1092 J-0.0135
G1 X40.062 Y80.6863
G2 X40.0622 Y80.6763 I-0.1098 J-0.0071
G1 X40.0608 Y80.6196
G2 X40.0605 Y80.6145 I-0.11 J0.0029
G1 X40.0561 Y80.5533
G2 X40.0557 Y80.549 I-0.1097 J0.008
G1 X40.0483 Y80.4832
G2 X40.0478 Y80.4795 I-0.1093 J0.0123
G1 X40.0374 Y80.4092
G2 X40.0369 Y80.4059 I-0.1088 J0.016
G1 X40.0236 Y80.3311
G2 X40.023 Y80.3283 I-0.1083 J0.0193
G1 X40.0067 Y80.2489
G2 X40.0062 Y80.2464 I-0.1078 J0.0221
G1 X39.987 Y80.1624
G2 X39.9864 Y80.1602 I-0.1072 J0.0246
G1 X39.9642 Y80.0717
G2 X39.9637 Y80.0698 I-0.1067 J0.0268
G1 X39.9386 Y79.9767
G2 X39.9381 Y79.975 I-0.1062 J0.0287
G1 X39.9099 Y79.8774
G2 X39.9095 Y79.8758 I-0.1057 J0.0305
G1 X39.8784 Y79.7736
G2 X39.8779 Y79.7722 I-0.1052 J0.032
G1 X39.8439 Y79.6655
G2 X39.8435 Y79.6642 I-0.1048 J0.0334
G1 X39.8065 Y79.553
G2 X39.8061 Y79.5518 I-0.1044 J0.0347
G1 X39.7661 Y79.436
G2 X39.7657 Y79.4349 I-0.104 J0.0359
G1 X39.7228 Y79.3146
G2 X39.7225 Y79.3136 I-0.1036 J0.037
G1 X39.6766 Y79.1887
G2 X39.6762 Y79.1878 I-0.1033 J0.0379
G1 X39.6274 Y79.0583
G2 X39.6271 Y79.0575 I-0.1029 J0.0388
G1 X39.5752 Y78.9235
G2 X39.5749 Y78.9227 I-0.1026 J0.0397
G1 X39.5202 Y78.7842
G2 X39.5199 Y78.7834 I-0.1023 J0.0404
G1 X39.4622 Y78.6403
G2 X39.4619 Y78.6397 I-0.102 J0.0412
G1 X39.4012 Y78.492
G2 X39.4009 Y78.4914 I-0.1017 J0.0418
G1 X39.3373 Y78.3392
G2 X39.337 Y78.3386 I-0.1015 J0.0424
G1 X39.2704 Y78.1819
G2 X39.2702 Y78.1813 I-0.1012 J0.043
G1 X39.2006 Y78.02
G2 X39.2004 Y78.0195 I-0.101 J0.0436
G1 X39.1545 Y77.9146
G1 X39.2437 Y78.0125
G2 X39.2442 Y78.013 I0.0813 J-0.0741
G1 X39.3493 Y78.127
G2 X39.3497 Y78.1275 I0.0809 J-0.0746
G1 X39.4541 Y78.2393
G2 X39.4546 Y78.2398 I0.0804 J-0.0751
G1 X39.5583 Y78.3496
G2 X39.5588 Y78.3501 I0.0799 J-0.0756
G1 X39.6619 Y78.4578
G2 X39.6624 Y78.4583 I0.0795 J-0.0761
G1 X39.7648 Y78.5639
G2 X39.7653 Y78.5644 I0.079 J-0.0766
G1 X39.867 Y78.6679
G2 X39.8676 Y78.6684 I0.0784 J-0.0771
G1 X39.9686 Y78.7698
G2 X39.9692 Y78.7703 I0.0779 J-0.0777
G1 X40.0695 Y78.8696
G2 X40.0701 Y78.8702 I0.0774 J-0.0782
G1 X40.1698 Y78.9673
G2 X40.1704 Y78.9679 I0.0768 J-0.0788
G1 X40.2694 Y79.063
G2 X40.2701 Y79.0636 I0.0762 J-0.0794
G1 X40.3684 Y79.1565
G2 X40.369 Y79.1571 I0.0756 J-0.0799
G1 X40.4667 Y79.248
G2 X40.4674 Y79.2486 I0.0749 J-0.0805
G1 X40.5644 Y79.3374
G2 X40.5651 Y79.338 I0.0743 J-0.0811
G1 X40.6614 Y79.4247
G2 X40.6622 Y79.4254 I0.0736 J-0.0818
G1 X40.7578 Y79.5099
G2 X40.7586 Y79.5106 I0.0729 J-0.0824
G1 X40.8536 Y79.5931
G2 X40.8543 Y79.5937 I0.0721 J-0.0831
G1 X40.9487 Y79.6741
G2 X40.9495 Y79.6748 I0.0713 J-0.0837
G1 X41.0431 Y79.7531
G2 X41.0439 Y79.7538 I0.0705 J-0.0844
G1 X41.1369 Y79.83
G2 X41.1378 Y79.8307 I0.0697 J-0.0851
G1 X41.2301 Y79.9048
G2 X41.231 Y79.9055 I0.0689 J-0.0858
G1 X41.3226 Y79.9775
G2 X41.3239 Y79.9784 I0.068 J-0.0865
G1 X41.4646 Y80.0858
G2 X41.4662 Y80.087 I0.0667 J-0.0874
G1 X41.603 Y80.1875
G2 X41.6048 Y80.1888 I0.0651 J-0.0887
G1 X41.7377 Y80.2823
G2 X41.7397 Y80.2837 I0.0633 J-0.09
G1 X41.8688 Y80.3703
G2 X41.871 Y80.3717 I0.0613 J-0.0913
G1 X41.9961 Y80.4514
G2 X41.9986 Y80.4529 I0.0591 J-0.0928
G1 X42.1198 Y80.5257
G2 X42.1226 Y80.5273 I0.0566 J-0.0943
G1 X42.24 Y80.5931
G2 X42.2431 Y80.5948 I0.0538 J-0.0959
G1 X42.3565 Y80.6537
G2 X42.3601 Y80.6554 I0.0507 J-0.0976
G1 X42.4696 Y80.7074
G2 X42.4736 Y80.7092 I0.0471 J-0.0994
G1 X42.5793 Y80.7542
G2 X42.5839 Y80.7561 I0.0431 J-0.1012
G1 X42.6856 Y80.7942
G2 X42.6908 Y80.796 I0.0386 J-0.103
G1 X42.7887 Y80.8271
G2 X42.7946 Y80.8288 I0.0334 J-0.1048
G1 X42.8886 Y80.8531
G2 X42.8953 Y80.8546 I0.0275 J-0.1065
G1 X42.9853 Y80.8719
G2 X42.993 Y80.8731 I0.0208 J-0.108
G1 X43.0791 Y80.8835
G2 X43.0877 Y80.8842 I0.0132 J-0.1092
G1 X43.17 Y80.8876
G2 X43.1848 Y80.8873 I0.0046 J-0.1099
G1 X43.3081 Y80.8758
G2 X43.3334 Y80.8704 I-0.0102 J-0.1095
G1 X43.4343 Y80.8361
G2 X43.4637 Y80.8208 I-0.0355 J-0.1041
G1 X43.5422 Y80.7635
G2 X43.5675 Y80.7377 I-0.0648 J-0.0889
G1 X43.6236 Y80.6575
G2 X43.638 Y80.6286 I-0.0901 J-0.063
G1 X43.6716 Y80.5256
G2 X43.6766 Y80.5012 I-0.1046 J-0.0341
G1 X43.6878 Y80.3752
G2 X43.6881 Y80.3599 I-0.1096 J-0.0098
G1 X43.6861 Y80.3195
G2 X43.6853 Y80.3107 I-0.1099 J0.0056
G1 X43.6792 Y80.2639
G2 X43.6781 Y80.2574 I-0.1091 J0.0143
G1 X43.6679 Y80.2043
G2 X43.6668 Y80.1994 I-0.108 J0.0208
G1 X43.6525 Y80.14
G2 X43.6515 Y80.1361 I-0.1069 J0.0257
G1 X43.6331 Y80.0703
G2 X43.6322 Y80.0672 I-0.1059 J0.0296
G1 X43.6097 Y79.9951
G2 X43.6089 Y79.9926 I-0.105 J0.0327
G1 X43.5823 Y79.9142
G2 X43.5816 Y79.912 I-0.1042 J0.0353
G1 X43.5509 Y79.8273
G2 X43.5503 Y79.8255 I-0.1034 J0.0374
G1 X43.5155 Y79.7344
G2 X43.5149 Y79.7329 I-0.1028 J0.0392
G1 X43.4761 Y79.6355
G2 X43.4756 Y79.6342 I-0.1022 J0.0407
G1 X43.4326 Y79.5305
G2 X43.4322 Y79.5293 I-0.1016 J0.0421
G1 X43.3852 Y79.4193
G2 X43.3847 Y79.4183 I-0.1012 J0.0432
G1 X43.3336 Y79.3019
G2 X43.3332 Y79.301 I-0.1007 J0.0442
G1 X43.278 Y79.1783
G2 X43.2777 Y79.1775 I-0.1003 J0.0451
G1 X43.2184 Y79.0484
G2 X43.2181 Y79.0477 I-0.1 J0.0459
G1 X43.1547 Y78.9124
G2 X43.1544 Y78.9117 I-0.0996 J0.0466
G1 X43.087 Y78.77
G2 X43.0867 Y78.7694 I-0.0993 J0.0473
G1 X43.0152 Y78.6214
G2 X43.0149 Y78.6209 I-0.099 J0.0479
G1 X42.9393 Y78.4666
G2 X42.9391 Y78.4661 I-0.0988 J0.0484
G1 X42.8594 Y78.3054
G2 X42.8592 Y78.3049 I-0.0985 J0.0489
G1 X42.7754 Y78.138
G2 X42.7752 Y78.1375 I-0.0983 J0.0493
G1 X42.6873 Y77.9642
G2 X42.6871 Y77.9638 I-0.0981 J0.0497
G1 X42.5951 Y77.7842
G2 X42.595 Y77.7839 I-0.0979 J0.0501
G1 X42.5008 Y77.6013
G1 X42.4103 Y77.4249
G1 X42.3234 Y77.2545
G1 X42.24 Y77.0901
G1 X42.1601 Y76.9317
G1 X42.0839 Y76.7794
G1 X42.0112 Y76.6332
G1 X41.942 Y76.493
G1 X41.8764 Y76.3588
G1 X41.8144 Y76.2307
G1 X41.756 Y76.1086
G1 X41.7012 Y75.9926
G1 X41.6499 Y75.8827
G1 X41.6022 Y75.7789
G1 X41.5581 Y75.6812
G1 X41.5176 Y75.5896
G1 X41.4807 Y75.5042
G1 X41.4474 Y75.4249
G1 X41.4177 Y75.3519
G1 X41.3917 Y75.2851
G1 X41.3693 Y75.2247
G1 X41.3506 Y75.1709
G1 X41.3356 Y75.1237
G1 X41.3243 Y75.0837
G1 X41.3168 Y75.0513
G1 X41.3129 Y75.0278
G1 X41.3125 Y75.0208
G1 X41.3289 Y74.9333
G1 X41.3581 Y74.9022
G1 X41.4329 Y74.8862
G1 X41.497 Y74.8917
G1 X41.5819 Y74.9111
G1 X41.6803 Y74.945
G1 X41.7912 Y74.9941
G1 X41.914 Y75.0584
G1 X42.044 Y75.1355
G1 X42.0772 Y75.1617
G1 X43.1157 Y76.0853
G1 X43.1382 Y76.1357
G2 X43.1395 Y76.1384 I0.1004 J-0.0449
G1 X43.21 Y76.2853
G2 X43.2111 Y76.2875 I0.0992 J-0.0476
G1 X43.2713 Y76.4058
G2 X43.2723 Y76.4078 I0.0981 J-0.0499
G1 X43.335 Y76.5253
G2 X43.3361 Y76.5272 I0.097 J-0.0518
G1 X43.4014 Y76.6441
G2 X43.4025 Y76.6459 I0.096 J-0.0537
G1 X43.4705 Y76.762
G2 X43.4716 Y76.7639 I0.0949 J-0.0556
G1 X43.5421 Y76.8792
G2 X43.5432 Y76.881 I0.0938 J-0.0574
G1 X43.6164 Y76.9956
G2 X43.6176 Y76.9974 I0.0927 J-0.0592
G1 X43.6933 Y77.1113
G2 X43.6945 Y77.113 I0.0916 J-0.0609
G1 X43.7729 Y77.2262
G2 X43.7741 Y77.2278 I0.0904 J-0.0626
G1 X43.8551 Y77.3402
G2 X43.8562 Y77.3419 I0.0893 J-0.0643
G1 X43.9398 Y77.4536
G2 X43.941 Y77.4551 I0.0881 J-0.0659
G1 X44.0272 Y77.5661
G2 X44.0284 Y77.5676 I0.0869 J-0.0675
G1 X44.1173 Y77.6779
G2 X44.1185 Y77.6793 I0.0857 J-0.069
G1 X44.2099 Y77.7889
G2 X44.2111 Y77.7903 I0.0844 J-0.0705
G1 X44.3051 Y77.8991
G2 X44.3063 Y77.9005 I0.0832 J-0.0719
G1 X44.403 Y78.0085
G2 X44.4042 Y78.0099 I0.082 J-0.0733
G1 X44.5049 Y78.1186
G2 X44.5059 Y78.1197 I0.0807 J-0.0747
G1 X44.6073 Y78.2262
G2 X44.6084 Y78.2273 I0.0797 J-0.0758
G1 X44.7106 Y78.3318
G2 X44.7117 Y78.3329 I0.0786 J-0.0769
G1 X44.8147 Y78.4351
G2 X44.8158 Y78.4363 I0.0775 J-0.0781
G1 X44.9196 Y78.5364
G2 X44.9208 Y78.5375 I0.0764 J-0.0792
G1 X45.0254 Y78.6356
G2 X45.0266 Y78.6366 I0.0752 J-0.0803
G1 X45.132 Y78.7326
G2 X45.1332 Y78.7337 I0.074 J-0.0814
G1 X45.2394 Y78.8274
G2 X45.2406 Y78.8285 I0.0728 J-0.0824
G1 X45.3476 Y78.9202
G2 X45.3489 Y78.9213 I0.0716 J-0.0835
G1 X45.4566 Y79.0108
G2 X45.458 Y79.0118 I0.0703 J-0.0846
G1 X45.5665 Y79.0992
G2 X45.5679 Y79.1003 I0.069 J-0.0857
G1 X45.6772 Y79.1856
G2 X45.6786 Y79.1866 I0.0676 J-0.0867
G1 X45.7888 Y79.2698
G2 X45.7902 Y79.2708 I0.0663 J-0.0878
G1 X45.9011 Y79.3518
G2 X45.9025 Y79.3529 I0.0649 J-0.0888
G1 X46.0143 Y79.4317
G2 X46.0157 Y79.4328 I0.0634 J-0.0899
G1 X46.1283 Y79.5095
G2 X46.1298 Y79.5105 I0.062 J-0.0909
G1 X46.2431 Y79.5851
G2 X46.2446 Y79.5861 I0.0605 J-0.0919
G1 X46.3588 Y79.6586
G2 X46.3603 Y79.6596 I0.059 J-0.0928
G1 X46.4752 Y79.73
G2 X46.4768 Y79.7309 I0.0574 J-0.0938
G1 X46.5925 Y79.7992
G2 X46.5941 Y79.8001 I0.0559 J-0.0947
G1 X46.7106 Y79.8662
G2 X46.7122 Y79.8671 I0.0543 J-0.0957
G1 X46.8296 Y79.9311
G2 X46.8312 Y79.932 I0.0527 J-0.0966
G1 X46.9493 Y79.9938
G2 X46.951 Y79.9947 I0.051 J-0.0974
G1 X47.0699 Y80.0544
G2 X47.0715 Y80.0553 I0.0494 J-0.0983
G1 X47.1912 Y80.1129
G2 X47.1929 Y80.1137 I0.0477 J-0.0991
G1 X47.3134 Y80.1692
G2 X47.3152 Y80.1699 I0.046 J-0.0999
G1 X47.4364 Y80.2233
G2 X47.4382 Y80.224 I0.0443 J-0.1007
G1 X47.5603 Y80.2753
G2 X47.562 Y80.276 I0.0426 J-0.1014
G1 X47.6849 Y80.3251
G2 X47.6866 Y80.3258 I0.0408 J-0.1021
G1 X47.8103 Y80.3727
G2 X47.8121 Y80.3734 I0.0391 J-0.1028
G1 X47.9366 Y80.4183
G2 X47.9383 Y80.4189 I0.0373 J-0.1035
G1 X48.0636 Y80.4616
G2 X48.0654 Y80.4622 I0.0355 J-0.1041
G1 X48.1915 Y80.5028
G2 X48.1933 Y80.5033 I0.0337 J-0.1047
G1 X48.3201 Y80.5418
G2 X48.3219 Y80.5423 I0.0319 J-0.1053
G1 X48.4496 Y80.5787
G2 X48.4514 Y80.5792 I0.0301 J-0.1058
G1 X48.5798 Y80.6134
G2 X48.5816 Y80.6139 I0.0283 J-0.1063
G1 X48.7109 Y80.6459
G2 X48.7127 Y80.6464 I0.0265 J-0.1068
G1 X48.8427 Y80.6763
G2 X48.8445 Y80.6767 I0.0247 J-0.1072
G1 X48.9753 Y80.7046
G2 X48.9771 Y80.7049 I0.0229 J-0.1076
G1 X49.1088 Y80.7306
G2 X49.1106 Y80.731 I0.0211 J-0.108
G1 X49.1824 Y80.7438
G1 X49.3827 Y81.2544
G1 X49.9772 Y82.8109
G1
G1 X50.039 Y82.9723
G1 X50.0923 Y83.1191
G1 X50.1376 Y83.2521
G1 X50.1747 Y83.3711
G1 X50.2037 Y83.4757
G1 X50.2245 Y83.5656
G1 X50.2373 Y83.6399
G1 X50.2422 Y83.6952
G1 X50.2351 Y83.7967
G1 X50.21 Y83.8589
G1 X50.1702 Y83.8986
G1 X50.1029 Y83.9266
G1 X49.9947 Y83.9381
G1 X49.8992 Y83.9325
G1 X49.7934 Y83.9146
G1 X49.6798 Y83.8843
G1 X49.5549 Y83.8398
G2 X49.4159 Y83.9025 I-0.0369 J0.1036
G1 X49.3169 Y84.1498
G2 X49.3805 Y84.2937 I0.1021 J0.0409
G1 X49.5124 Y84.3431
G1 X49.6599 Y84.3986
G1 X49.8042 Y84.4538
G1 X49.9454 Y84.5086
G1 X50.0836 Y84.563
G1 X50.2187 Y84.6171
G1 X50.3507 Y84.6708
G1 X50.4796 Y84.7241
G1 X50.6054 Y84.7771
G1 X50.7282 Y84.8296
G1 X50.8479 Y84.8818
G1 X50.9645 Y84.9337
G1 X51.078 Y84.9851
G1 X51.1884 Y85.0362
G1 X51.2957 Y85.0869
G1 X51.4 Y85.1372
G1 X51.5011 Y85.1871
G1 X51.5992 Y85.2366
G1 X51.6946 Y85.286
G2 X51.8548 Y85.1787 I0.0506 J-0.0977
G1 X51.8497 Y85.121
G2 X51.8492 Y85.116 I-0.1096 J0.0096
G1 X51.8405 Y85.0517
G2 X51.8399 Y85.0477 I-0.109 J0.0146
G1 X51.8278 Y84.9767
G2 X51.8272 Y84.9734 I-0.1084 J0.0186
G1 X51.8115 Y84.8958
G2 X51.8109 Y84.8931 I-0.1078 J0.0218
G1 X51.7916 Y84.8089
G2 X51.7911 Y84.8066 I-0.1072 J0.0245
G1 X51.7683 Y84.7157
G2 X51.7678 Y84.7138 I-0.1067 J0.0268
G1 X51.7414 Y84.6162
G2 X51.741 Y84.6146 I-0.1062 J0.0287
G1 X51.7111 Y84.5104
G2 X51.7106 Y84.509 I-0.1057 J0.0303
G1 X51.6772 Y84.3982
G2 X51.6768 Y84.3969 I-0.1053 J0.0318
G1 X51.6398 Y84.2794
G2 X51.6394 Y84.2783 I-0.1049 J0.033
G1 X51.5989 Y84.1542
G2 X51.5986 Y84.1532 I-0.1046 J0.0342
G1 X51.5545 Y84.0225
G2 X51.5542 Y84.0216 I-0.1042 J0.0352
G1 X51.5065 Y83.8843
G2 X51.5063 Y83.8835 I-0.1039 J0.036
G1 X51.4551 Y83.7395
G2 X51.4548 Y83.7388 I-0.1036 J0.0368
G1 X51.4001 Y83.5881
G2 X51.3998 Y83.5875 I-0.1034 J0.0376
G1 X51.3416 Y83.4302
G2 X51.3413 Y83.4296 I-0.1031 J0.0382
G1 X51.2795 Y83.2657
G2 X51.2793 Y83.2651 I-0.1029 J0.0388
G1 X51.2139 Y83.0946
G2 X51.2137 Y83.0941 I-0.1027 J0.0394
G1 X51.1448 Y82.9169
G2 X51.1446 Y82.9164 I-0.1025 J0.0399
G1 X51.0721 Y82.7326
G2 X51.072 Y82.7323 I-0.1023 J0.0403
G1 X50.4616 Y81.1991
G2 X50.4614 Y81.1987 I-0.1022 J0.0407
G1 X50.2608 Y80.7008
G1 X50.2844 Y80.6895
G2 X50.2981 Y80.6816 I-0.0476 J-0.0992
G1 X50.4006 Y80.6128
G2 X50.414 Y80.6022 I-0.0613 J-0.0913
G1 X50.5023 Y80.5205
G2 X50.5142 Y80.5076 I-0.0747 J-0.0807
G1 X50.5883 Y80.413
G2 X50.5978 Y80.3987 I-0.0866 J-0.0678
G1 X50.6198 Y80.3591
G1 X50.8581 Y80.1282
G1 X50.9661 Y80.1643
G1 X51.0864 Y80.209
G1 X51.2084 Y80.255
G1 X51.3308 Y80.3017
G1 X51.4534 Y80.3492
G1 X51.5764 Y80.3974
G1 X51.6996 Y80.4463
G1 X51.8231 Y80.496
G1 X51.947 Y80.5464
G1 X52.0711 Y80.5976
G1 X52.1956 Y80.6494
G1 X52.3203 Y80.702
G1 X52.4453 Y80.7554
G1 X52.5707 Y80.8095
G1 X52.6963 Y80.8643
G1 X52.8214 Y80.9195
G1 X53.0678 Y81.0344
G2 X53.2241 Y80.928 I0.0465 J-0.0997
G1 X53.2187 Y80.8393
G1 X53.2172 Y80.7794
G2 X53.217 Y80.7746 I-0.11 J0.0027
G1 X53.2125 Y80.7082
G2 X53.2121 Y80.704 I-0.1097 J0.0075
G1 X53.2046 Y80.6331
G2 X53.2041 Y80.6295 I-0.1094 J0.0116
G1 X53.1935 Y80.5541
G2 X53.1931 Y80.5509 I-0.1089 J0.0153
G1 X53.1795 Y80.4711
G2 X53.179 Y80.4683 I-0.1084 J0.0184
G1 X53.1623 Y80.3839
G2 X53.1618 Y80.3814 I-0.1079 J0.0212
G1 X53.1422 Y80.2926
G2 X53.1417 Y80.2904 I-0.1074 J0.0237
G1 X53.119 Y80.197
G2 X53.1185 Y80.195 I-0.1069 J0.0259
G1 X53.0929 Y80.0972
G2 X53.0924 Y80.0954 I-0.1064 J0.0279
G1 X53.0637 Y79.9931
G2 X53.0633 Y79.9915 I-0.1059 J0.0297
G1 X53.0315 Y79.8846
G2 X53.0311 Y79.8832 I-0.1055 J0.0313
G1 X52.9964 Y79.7718
G2 X52.996 Y79.7705 I-0.105 J0.0328
G1 X52.9582 Y79.6547
G2 X52.9578 Y79.6535 I-0.1046 J0.0341
G1 X52.917 Y79.5332
G2 X52.9167 Y79.5321 I-0.1042 J0.0353
G1 X52.8729 Y79.4073
G2 X52.8725 Y79.4062 I-0.1038 J0.0364
G1 X52.8257 Y79.2769
G2 X52.8254 Y79.276 I-0.1034 J0.0374
G1 X52.7755 Y79.1422
G2 X52.7752 Y79.1413 I-0.1031 J0.0384
G1 X52.7224 Y79.0031
G2 X52.7221 Y79.0022 I-0.1028 J0.0393
G1 X52.6662 Y78.8595
G2 X52.6659 Y78.8587 I-0.1024 J0.0401
G1 X52.607 Y78.7115
G2 X52.6067 Y78.7108 I-0.1021 J0.0408
G1 X52.5448 Y78.559
G2 X52.5446 Y78.5583 I-0.1019 J0.0415
G1 X52.4796 Y78.4021
G2 X52.4794 Y78.4015 I-0.1016 J0.0422
G1 X52.4114 Y78.2407
G2 X52.4112 Y78.2402 I-0.1013 J0.0428
G1 X52.3402 Y78.0749
G2 X52.34 Y78.0744 I-0.1011 J0.0434
G1 X52.266 Y77.9047
G2 X52.2658 Y77.9041 I-0.1008 J0.044
G1 X52.1889 Y77.73
G1 X51.5802 Y76.3443
G1 X51.5028 Y76.1653
G1 X51.4319 Y75.9984
G1 X51.3676 Y75.8436
G1 X51.3099 Y75.7011
G1 X51.2588 Y75.5708
G1 X51.2142 Y75.4529
G1 X51.1763 Y75.3473
G1 X51.1451 Y75.2544
G1 X51.1206 Y75.1743
G1 X51.1028 Y75.1078
G1 X51.0918 Y75.0557
G1 X51.0882 Y75.0269
G1 X51.0975 Y74.9558
G1 X51.118 Y74.9252
G1 X51.1608 Y74.9045
G1 X51.2547 Y74.898
G1 X51.3125 Y74.9054
G1 X51.3946 Y74.9253
G1 X51.4972 Y74.9581
G1 X51.6188 Y75.0038
G1 X51.7547 Y75.0608
G1 X53.3835 Y75.9651
G1 X53.397 Y75.9965
G1 X53.4535 Y76.1295
G1 X53.5101 Y76.2636
G1 X53.5668 Y76.3988
G1 X53.6234 Y76.535
G1 X53.6802 Y76.6722
G1 X53.7369 Y76.8106
G1 X53.7937 Y76.9499
G1 X53.8505 Y77.0904
G1 X53.9074 Y77.2319
G1 X53.9643 Y77.3744
G1 X54.0392 Y77.5636
G1 X54.1102 Y77.7449
G1 X54.1774 Y77.9182
G1 X54.2407 Y78.0836
G1 X54.3001 Y78.241
G1 X54.3557 Y78.3905
G1 X54.4075 Y78.532
G1 X54.4553 Y78.6655
G1 X54.4993 Y78.791
G1 X54.5394 Y78.9085
G1 X54.5756 Y79.018
G1 X54.6079 Y79.1194
G1 X54.6363 Y79.2126
G1 X54.6608 Y79.2976
G1 X54.6814 Y79.3744
G1 X54.698 Y79.4426
G1 X54.7107 Y79.5022
G1 X54.7195 Y79.5526
G1 X54.7244 Y79.5931
G1 X54.7257 Y79.6196
G1 X54.714 Y79.7222
G1 X54.6891 Y79.7741
G1 X54.6572 Y79.798
G1 X54.593 Y79.8094
G1 X54.5517 Y79.8061
G1 X54.476 Y79.7926
G1 X54.374 Y79.7689
G1 X54.2474 Y79.7351
G1 X54.0961 Y79.6908
G2 X54.0933 Y79.6901 I-0.0309 J0.1056
G1 X54.0553 Y79.68
G1 X54.0048 Y79.6658
G2 X53.867 Y79.7514 I-0.0298 J0.1059
G1 X53.8174 Y80.0154
G2 X53.8949 Y80.1413 I0.1081 J0.0203
G1 X54.038 Y80.1828
G1 X54.1789 Y80.2248
G1 X54.3181 Y80.2674
G1 X54.4555 Y80.3106
G1 X54.5912 Y80.3545
G1 X54.7251 Y80.399
G1 X54.8573 Y80.4441
G1 X54.9877 Y80.4899
G1 X55.1164 Y80.5363
G1 X55.2433 Y80.5833
G1 X55.3685 Y80.631
G1 X55.4919 Y80.6793
G1 X55.6135 Y80.7282
G1 X55.7334 Y80.7778
G1 X55.8515 Y80.8279
G1 X55.9673 Y80.8785
G1 X56.0734 Y80.9275
G2 X56.2288 Y80.8412 I0.0462 J-0.0998
G1 X56.24 Y80.7504
G2 X56.2406 Y80.7441 I-0.1092 J-0.0135
G1 X56.2443 Y80.6863
G2 X56.2445 Y80.6763 I-0.1098 J-0.0071
G1 X56.243 Y80.6196
G2 X56.2428 Y80.6145 I-0.11 J0.0029
G1 X56.2383 Y80.5533
G2 X56.2379 Y80.549 I-0.1097 J0.008
G1 X56.2305 Y80.4832
G2 X56.23 Y80.4795 I-0.1093 J0.0123
G1 X56.2197 Y80.4092
G2 X56.2191 Y80.4059 I-0.1088 J0.016
G1 X56.2058 Y80.3311
G2 X56.2053 Y80.3283 I-0.1083 J0.0193
G1 X56.189 Y80.2489
G2 X56.1884 Y80.2464 I-0.1078 J0.0221
G1 X56.1692 Y80.1624
G2 X56.1687 Y80.1602 I-0.1072 J0.0246
G1 X56.1465 Y80.0717
G2 X56.146 Y80.0698 I-0.1067 J0.0268
G1 X56.1208 Y79.9767
G2 X56.1203 Y79.975 I-0.1062 J0.0287
G1 X56.0922 Y79.8774
G2 X56.0917 Y79.8758 I-0.1057 J0.0305
G1 X56.0606 Y79.7736
G2 X56.0602 Y79.7722 I-0.1052 J0.032
G1 X56.0261 Y79.6655
G2 X56.0257 Y79.6642 I-0.1048 J0.0334
G1 X55.9887 Y79.553
G2 X55.9883 Y79.5518 I-0.1044 J0.0347
G1 X55.9484 Y79.436
G2 X55.948 Y79.4349 I-0.104 J0.0359
G1 X55.9051 Y79.3146
G2 X55.9047 Y79.3136 I-0.1036 J0.037
G1 X55.8588 Y79.1887
G2 X55.8585 Y79.1878 I-0.1033 J0.0379
G1 X55.8096 Y79.0583
G2 X55.8093 Y79.0575 I-0.1029 J0.0388
G1 X55.7575 Y78.9235
G2 X55.7572 Y78.9227 I-0.1026 J0.0397
G1 X55.7024 Y78.7842
G2 X55.7021 Y78.7834 I-0.1023 J0.0404
G1 X55.6444 Y78.6403
G2 X55.6441 Y78.6397 I-0.102 J0.0412
G1 X55.5834 Y78.492
G2 X55.5832 Y78.4914 I-0.1017 J0.0418
G1 X55.5195 Y78.3392
G2 X55.5193 Y78.3386 I-0.1015 J0.0424
G1 X55.4527 Y78.1819
G2 X55.4524 Y78.1813 I-0.1012 J0.043
G1 X55.3829 Y78.02
G2 X55.3826 Y78.0195 I-0.101 J0.0436
G1 X55.3368 Y77.9146
G1 X55.426 Y78.0125
G2 X55.4264 Y78.013 I0.0813 J-0.0741
G1 X55.5315 Y78.127
G2 X55.532 Y78.1275 I0.0809 J-0.0746
G1 X55.6364 Y78.2393
G2 X55.6368 Y78.2398 I0.0804 J-0.0751
G1 X55.7406 Y78.3496
G2 X55.7411 Y78.3501 I0.0799 J-0.0756
G1 X55.8441 Y78.4578
G2 X55.8446 Y78.4583 I0.0795 J-0.0761
G1 X55.947 Y78.5639
G2 X55.9475 Y78.5644 I0.079 J-0.0766
G1 X56.0493 Y78.6679
G2 X56.0498 Y78.6684 I0.0784 J-0.0771
G1 X56.1508 Y78.7698
G2 X56.1514 Y78.7703 I0.0779 J-0.0777
G1 X56.2518 Y78.8696
G2 X56.2524 Y78.8702 I0.0774 J-0.0782
G1 X56.3521 Y78.9673
G2 X56.3527 Y78.9679 I0.0768 J-0.0788
G1 X56.4517 Y79.063
G2 X56.4523 Y79.0636 I0.0762 J-0.0794
G1 X56.5507 Y79.1565
G2 X56.5513 Y79.1571 I0.0756 J-0.0799
G1 X56.649 Y79.248
G2 X56.6496 Y79.2486 I0.0749 J-0.0805
G1 X56.7467 Y79.3374
G2 X56.7474 Y79.338 I0.0743 J-0.0811
G1 X56.8437 Y79.4247
G2 X56.8444 Y79.4254 I0.0736 J-0.0818
G1 X56.9401 Y79.5099
G2 X56.9408 Y79.5106 I0.0729 J-0.0824
G1 X57.0358 Y79.5931
G2 X57.0366 Y79.5937 I0.0721 J-0.0831
G1 X57.1309 Y79.6741
G2 X57.1317 Y79.6748 I0.0713 J-0.0837
G1 X57.2254 Y79.7531
G2 X57.2262 Y79.7538 I0.0705 J-0.0844
G1 X57.3192 Y79.83
G2 X57.32 Y79.8307 I0.0697 J-0.0851
G1 X57.4124 Y79.9048
G2 X57.4132 Y79.9055 I0.0689 J-0.0858
G1 X57.5049 Y79.9775
G2 X57.5061 Y79.9784 I0.068 J-0.0865
G1 X57.6468 Y80.0858
G2 X57.6484 Y80.087 I0.0667 J-0.0874
G1 X57.7853 Y80.1875
G2 X57.7871 Y80.1888 I0.0651 J-0.0887
G1 X57.92 Y80.2823
G2 X57.922 Y80.2837 I0.0633 J-0.09
G1 X58.051 Y80.3703
G2 X58.0532 Y80.3717 I0.0613 J-0.0913
G1 X58.1784 Y80.4514
G2 X58.1809 Y80.4529 I0.0591 J-0.0928
G1 X58.3021 Y80.5257
G2 X58.3049 Y80.5273 I0.0566 J-0.0943
G1 X58.4222 Y80.5931
G2 X58.4253 Y80.5948 I0.0538 J-0.0959
G1 X58.5388 Y80.6537
G2 X58.5423 Y80.6554 I0.0507 J-0.0976
G1 X58.6519 Y80.7074
G2 X58.6559 Y80.7092 I0.0471 J-0.0994
G1 X58.7616 Y80.7542
G2 X58.7661 Y80.7561 I0.0431 J-0.1012
G1 X58.8679 Y80.7942
G2 X58.8731 Y80.796 I0.0386 J-0.103
G1 X58.9709 Y80.8271
G2 X58.9768 Y80.8288 I0.0334 J-0.1048
G1 X59.0708 Y80.8531
G2 X59.0775 Y80.8546 I0.0275 J-0.1065
G1 X59.1676 Y80.8719
G2 X59.1752 Y80.8731 I0.0208 J-0.108
G1 X59.2614 Y80.8835
G2 X59.2699 Y80.8842 I0.0132 J-0.1092
G1 X59.3522 Y80.8876
G2 X59.367 Y80.8873 I0.0046 J-0.1099
G1 X59.4904 Y80.8758
G2 X59.5156 Y80.8704 I-0.0102 J-0.1095
G1 X59.6166 Y80.8361
G2 X59.6459 Y80.8208 I-0.0355 J-0.1041
G1 X59.7244 Y80.7635
G2 X59.7497 Y80.7377 I-0.0648 J-0.0889
G1 X59.8058 Y80.6575
G2 X59.8202 Y80.6286 I-0.0901 J-0.063
G1 X59.8539 Y80.5256
G2 X59.8589 Y80.5012 I-0.1046 J-0.0341
G1 X59.8701 Y80.3752
G2 X59.8704 Y80.3599 I-0.1096 J-0.0098
G1 X59.8683 Y80.3195
G2 X59.8675 Y80.3107 I-0.1099 J0.0056
G1 X59.8614 Y80.2639
G2 X59.8604 Y80.2574 I-0.1091 J0.0143
G1 X59.8501 Y80.2043
G2 X59.8491 Y80.1994 I-0.108 J0.0208
G1 X59.8348 Y80.14
G2 X59.8338 Y80.1361 I-0.1069 J0.0257
G1 X59.8154 Y80.0703
G2 X59.8144 Y80.0672 I-0.1059 J0.0296
G1 X59.792 Y79.9951
G2 X59.7911 Y79.9926 I-0.105 J0.0327
G1 X59.7646 Y79.9142
G2 X59.7638 Y79.912 I-0.1042 J0.0353
G1 X59.7332 Y79.8273
G2 X59.7325 Y79.8255 I-0.1034 J0.0374
G1 X59.6978 Y79.7344
G2 X59.6972 Y79.7329 I-0.1028 J0.0392
G1 X59.6583 Y79.6355
G2 X59.6578 Y79.6342 I-0.1022 J0.0407
G1 X59.6149 Y79.5305
G2 X59.6144 Y79.5293 I-0.1016 J0.0421
G1 X59.5674 Y79.4193
G2 X59.567 Y79.4183 I-0.1012 J0.0432
G1 X59.5159 Y79.3019
G2 X59.5155 Y79.301 I-0.1007 J0.0442
G1 X59.4603 Y79.1783
G2 X59.4599 Y79.1775 I-0.1003 J0.0451
G1 X59.4007 Y79.0484
G2 X59.4003 Y79.0477 I-0.1 J0.0459
G1 X59.337 Y78.9124
G2 X59.3367 Y78.9117 I-0.0996 J0.0466
G1 X59.2692 Y78.77
G2 X59.269 Y78.7694 I-0.0993 J0.0473
G1 X59.1974 Y78.6214
G2 X59.1972 Y78.6209 I-0.099 J0.0479
G1 X59.1216 Y78.4666
G2 X59.1213 Y78.4661 I-0.0988 J0.0484
G1 X59.0416 Y78.3054
G2 X59.0414 Y78.3049 I-0.0985 J0.0489
G1 X58.9576 Y78.138
G2 X58.9574 Y78.1375 I-0.0983 J0.0493
G1 X58.8695 Y77.9642
G2 X58.8693 Y77.9638 I-0.0981 J0.0497
G1 X58.7774 Y77.7842
G2 X58.7772 Y77.7839 I-0.0979 J0.0501
G1 X58.6831 Y77.6013
G1 X58.5926 Y77.4249
G1 X58.5056 Y77.2545
G1 X58.4222 Y77.0901
G1 X58.3424 Y76.9317
G1 X58.2661 Y76.7794
G1 X58.1934 Y76.6332
G1 X58.1243 Y76.493
G1 X58.0587 Y76.3588
G1 X57.9967 Y76.2307
G1 X57.9383 Y76.1086
G1 X57.8834 Y75.9926
G1 X57.8321 Y75.8827
G1 X57.7844 Y75.7789
G1 X57.7403 Y75.6812
G1 X57.6998 Y75.5896
G1 X57.6629 Y75.5042
G1 X57.6296 Y75.4249
G1 X57.5999 Y75.3519
G1 X57.5739 Y75.2851
G1 X57.5515 Y75.2247
G1 X57.5328 Y75.1709
G1 X57.5178 Y75.1237
G1 X57.5066 Y75.0837
G1 X57.4991 Y75.0513
G1 X57.4952 Y75.0278
G1 X57.4947 Y75.0208
G1 X57.5111 Y74.9333
G1 X57.5403 Y74.9022
G1 X57.6151 Y74.8862
G1 X57.6792 Y74.8917
G1 X57.7641 Y74.9111
G1 X57.8625 Y74.945
G1 X57.9735 Y74.9941
G1 X58.0963 Y75.0584
G1 X58.2262 Y75.1355
G1 X58.2621 Y75.1637
G2 X58.2635 Y75.1648 I0.0681 J-0.0864
G1 X60.0624 Y76.5335
G1 X60.0801 Y76.5742
G2 X60.0802 Y76.5747 I0.1009 J-0.0438
G1 X60.1414 Y76.7141
G2 X60.1416 Y76.7145 I0.1007 J-0.0442
G1 X60.2058 Y76.8594
G2 X60.206 Y76.8597 I0.1006 J-0.0446
G1 X60.2732 Y77.0099
G2 X60.2734 Y77.0102 I0.1004 J-0.045
G1 X60.3437 Y77.1657
G2 X60.3438 Y77.166 I0.1002 J-0.0453
G1 X60.4171 Y77.3268
G2 X60.4172 Y77.3271 I0.1001 J-0.0456
G1 X60.4935 Y77.493
G1 X60.5761 Y77.6746
G1 X60.6548 Y77.8488
G1 X60.7295 Y78.0156
G1 X60.8002 Y78.1751
G1 X60.867 Y78.3272
G1 X60.9298 Y78.4719
G1 X60.9886 Y78.6093
G1 X61.0434 Y78.7392
G1 X61.0942 Y78.8617
G1 X61.141 Y78.9768
G1 X61.1839 Y79.0845
G1 X61.2227 Y79.1846
G1 X61.2575 Y79.2773
G1 X61.2883 Y79.3624
G1 X61.315 Y79.4398
G1 X61.3377 Y79.5095
G1 X61.3563 Y79.5713
G1 X61.3708 Y79.6249
G1 X61.3811 Y79.67
G1 X61.3874 Y79.7056
G1 X61.3897 Y79.7276
G1 X61.3844 Y79.8094
G1 X61.368 Y79.8439
G1 X61.3436 Y79.8609
G1 X61.2818 Y79.8708
G1 X61.2231 Y79.8659
G1 X61.1411 Y79.8488
G1 X61.0407 Y79.8185
G1 X60.6977 Y79.694
G2 X60.6955 Y79.6932 I-0.0375 J0.1034
G1 X60.6424 Y79.6752
G1 X60.5441 Y79.6364
G2 X60.3988 Y79.706 I-0.0403 J0.1023
G1 X60.3163 Y79.9699
G2 X60.3864 Y80.1071 I0.105 J0.0328
G1 X60.5579 Y80.1643
G1 X60.6781 Y80.209
G1 X60.8002 Y80.255
G1 X60.9225 Y80.3017
G1 X61.0452 Y80.3492
G1 X61.1681 Y80.3974
G1 X61.2914 Y80.4463
G1 X61.4149 Y80.496
G1 X61.5387 Y80.5464
G1 X61.6629 Y80.5976
G1 X61.7873 Y80.6494
G1 X61.9121 Y80.702
G1 X62.0371 Y80.7554
G1 X62.1624 Y80.8095
G1 X62.2881 Y80.8643
G1 X62.4131 Y80.9195
G1 X62.6596 Y81.0344
G2 X62.8159 Y80.928 I0.0465 J-0.0997
G1 X62.8104 Y80.8393
G1 X62.809 Y80.7794
G2 X62.8088 Y80.7746 I-0.11 J0.0027
G1 X62.8042 Y80.7082
G2 X62.8039 Y80.704 I-0.1097 J0.0075
G1 X62.7963 Y80.6331
G2 X62.7959 Y80.6295 I-0.1094 J0.0116
G1 X62.7853 Y80.5541
G2 X62.7848 Y80.5509 I-0.1089 J0.0153
G1 X62.7712 Y80.4711
G2 X62.7707 Y80.4683 I-0.1084 J0.0184
G1 X62.7541 Y80.3839
G2 X62.7536 Y80.3814 I-0.1079 J0.0212
G1 X62.734 Y80.2926
G2 X62.7334 Y80.2904 I-0.1074 J0.0237
G1 X62.7108 Y80.197
G2 X62.7103 Y80.195 I-0.1069 J0.0259
G1 X62.6846 Y80.0972
G2 X62.6841 Y80.0954 I-0.1064 J0.0279
G1 X62.6555 Y79.9931
G2 X62.655 Y79.9915 I-0.1059 J0.0297
G1 X62.6233 Y79.8846
G2 X62.6229 Y79.8832 I-0.1055 J0.0313
G1 X62.5881 Y79.7718
G2 X62.5877 Y79.7705 I-0.105 J0.0328
G1 X62.55 Y79.6547
G2 X62.5496 Y79.6535 I-0.1046 J0.0341
G1 X62.5088 Y79.5332
G2 X62.5084 Y79.5321 I-0.1042 J0.0353
G1 X62.4646 Y79.4073
G2 X62.4643 Y79.4062 I-0.1038 J0.0364
G1 X62.4175 Y79.2769
G2 X62.4171 Y79.276 I-0.1034 J0.0374
G1 X62.3673 Y79.1422
G2 X62.367 Y79.1413 I-0.1031 J0.0384
G1 X62.3141 Y79.0031
G2 X62.3138 Y79.0022 I-0.1028 J0.0393
G1 X62.2579 Y78.8595
G2 X62.2576 Y78.8587 I-0.1024 J0.0401
G1 X62.1988 Y78.7115
G2 X62.1985 Y78.7108 I-0.1021 J0.0408
G1 X62.1366 Y78.559
G2 X62.1363 Y78.5583 I-0.1019 J0.0415
G1 X62.0714 Y78.4021
G2 X62.0711 Y78.4015 I-0.1016 J0.0422
G1 X62.0032 Y78.2407
G2 X62.0029 Y78.2402 I-0.1013 J0.0428
G1 X61.932 Y78.0749
G2 X61.9318 Y78.0744 I-0.1011 J0.0434
G1 X61.8578 Y77.9047
G2 X61.8575 Y77.9041 I-0.1008 J0.044
G1 X61.7806 Y77.73
G1 X61.1719 Y76.3443
G1 X61.0945 Y76.1653
G1 X61.0237 Y75.9984
G1 X60.9594 Y75.8436
G1 X60.9017 Y75.7011
G1 X60.8505 Y75.5708
G1 X60.806 Y75.4529
G1 X60.7681 Y75.3473
G1 X60.7369 Y75.2544
G1 X60.7123 Y75.1743
G1 X60.6946 Y75.1078
G1 X60.6836 Y75.0557
G1 X60.6799 Y75.0269
G1 X60.6892 Y74.9558
G1 X60.7097 Y74.9252
G1 X60.7525 Y74.9045
G1 X60.8464 Y74.898
G1 X60.9043 Y74.9054
G1 X60.9864 Y74.9253
G1 X61.089 Y74.9581
G1 X61.2106 Y75.0038
G1 X61.352 Y75.0631
G2 X61.4949 Y75.0067 I0.0425 J-0.1014
G1 X61.6023 Y74.7677
G2 X61.5492 Y74.6233 I-0.1003 J-0.0451
G1 X61.3986 Y74.5517
G2 X61.3982 Y74.5515 I-0.0472 J0.0993
G1 X61.2512 Y74.4824
G2 X61.2508 Y74.4822 I-0.0468 J0.0995
G1 X61.1074 Y74.4155
G2 X61.107 Y74.4153 I-0.0464 J0.0997
G1 X60.9672 Y74.3511
G2 X60.9667 Y74.3509 I-0.0459 J0.1
G1 X60.8305 Y74.2891
G2 X60.83 Y74.2889 I-0.0454 J0.1002
G1 X60.6974 Y74.2296
G2 X60.6969 Y74.2293 I-0.0449 J0.1004
G1 X60.5679 Y74.1725
G2 X60.5673 Y74.1722 I-0.0444 J0.1007
G1 X60.4419 Y74.1179
G2 X60.4413 Y74.1176 I-0.0438 J0.1009
G1 X60.3195 Y74.0657
G2 X60.3188 Y74.0654 I-0.0431 J0.1012
G1 X60.2006 Y74.0159
G2 X60.1999 Y74.0156 I-0.0425 J0.1015
G1 X60.0853 Y73.9686
G2 X60.0845 Y73.9683 I-0.0418 J0.1018
G1 X59.9735 Y73.9237
G2 X59.9727 Y73.9234 I-0.041 J0.1021
G1 X59.8653 Y73.8813
G2 X59.8644 Y73.8809 I-0.0401 J0.1024
G1 X59.7606 Y73.8413
G2 X59.7596 Y73.8409 I-0.0392 J0.1028
G1 X59.6594 Y73.8037
G2 X59.6583 Y73.8033 I-0.0383 J0.1031
G1 X59.5617 Y73.7686
G2 X59.5606 Y73.7682 I-0.0372 J0.1035
G1 X59.4676 Y73.7359
G2 X59.3217 Y73.8468 I-0.0361 J0.1039
G1 X59.3306 Y73.9869
G2 X59.3308 Y73.9892 I0.1098 J-0.007
G1 X59.3424 Y74.1273
G2 X59.3427 Y74.1297 I0.1096 J-0.0093
G1 X59.3571 Y74.2658
G2 X59.3574 Y74.2682 I0.1094 J-0.0116
G1 X59.3747 Y74.4024
G2 X59.375 Y74.4048 I0.1091 J-0.014
G1 X59.3951 Y74.537
G2 X59.3955 Y74.5395 I0.1088 J-0.0165
G1 X59.4183 Y74.6697
G2 X59.4188 Y74.6723 I0.1083 J-0.019
G1 X59.4444 Y74.8005
G2 X59.445 Y74.8031 I0.1079 J-0.0216
G1 X59.4734 Y74.9294
G2 X59.4741 Y74.932 I0.1073 J-0.0242
G1 X59.5053 Y75.0563
G2 X59.506 Y75.0589 I0.1067 J-0.0268
G1 X59.54 Y75.1812
G2 X59.5408 Y75.1839 I0.106 J-0.0295
G1 X59.5776 Y75.3042
G2 X59.5783 Y75.3064 I0.1052 J-0.0322
G1 X59.6032 Y75.382
G2 X59.6037 Y75.3835 I0.1045 J-0.0344
G1 X59.6239 Y75.4422
G1 X58.5226 Y74.7625
G1 X58.42 Y74.6908
G2 X58.4178 Y74.6893 I-0.063 J0.0902
G1 X58.3106 Y74.6182
G2 X58.3084 Y74.6168 I-0.0608 J0.0917
G1 X58.1992 Y74.548
G2 X58.197 Y74.5467 I-0.0586 J0.0931
G1 X58.0857 Y74.4803
G2 X58.0835 Y74.479 I-0.0564 J0.0945
G1 X57.9703 Y74.415
G2 X57.968 Y74.4138 I-0.0541 J0.0958
G1 X57.8527 Y74.3521
G2 X57.8505 Y74.351 I-0.0519 J0.097
G1 X57.7332 Y74.2917
G2 X57.731 Y74.2906 I-0.0496 J0.0982
G1 X57.6117 Y74.2338
G2 X57.6094 Y74.2327 I-0.0473 J0.0993
G1 X57.4881 Y74.1782
G2 X57.4859 Y74.1773 I-0.0451 J0.1003
G1 X57.3626 Y74.1251
G2 X57.3603 Y74.1242 I-0.0428 J0.1013
G1 X57.235 Y74.0745
G2 X57.2328 Y74.0736 I-0.0406 J0.1022
G1 X57.1055 Y74.0263
G2 X57.1033 Y74.0255 I-0.0383 J0.1031
G1 X56.9739 Y73.9805
G2 X56.9718 Y73.9798 I-0.0361 J0.1039
G1 X56.8404 Y73.9372
G2 X56.8382 Y73.9365 I-0.0339 J0.1046
G1 X56.7049 Y73.8963
G2 X56.7027 Y73.8957 I-0.0318 J0.1053
G1 X56.5674 Y73.8578
G2 X56.5652 Y73.8573 I-0.0296 J0.1059
G1 X56.4279 Y73.8218
G2 X56.4258 Y73.8213 I-0.0275 J0.1065
G1 X56.2864 Y73.7882
G2 X56.2843 Y73.7877 I-0.0254 J0.107
G1 X56.1429 Y73.757
G2 X56.0106 Y73.8796 I-0.0233 J0.1075
G1 X56.0219 Y73.9609
G2 X56.0222 Y73.9632 I0.109 J-0.0151
G1 X56.0356 Y74.047
G2 X56.036 Y74.0491 I0.1086 J-0.0174
G1 X56.0516 Y74.1353
G2 X56.052 Y74.1373 I0.1082 J-0.0196
G1 X56.0697 Y74.226
G2 X56.0701 Y74.2279 I0.1079 J-0.0216
G1 X56.09 Y74.3189
G2 X56.0904 Y74.3207 I0.1075 J-0.0235
G1 X56.1125 Y74.4142
G2 X56.1129 Y74.4159 I0.1071 J-0.0253
G1 X56.1371 Y74.5118
G2 X56.1376 Y74.5134 I0.1066 J-0.0269
G1 X56.164 Y74.6118
G2 X56.1644 Y74.6132 I0.1062 J-0.0285
G1 X56.1929 Y74.7141
G2 X56.1933 Y74.7154 I0.1058 J-0.03
G1 X56.2241 Y74.8187
G2 X56.2245 Y74.82 I0.1054 J-0.0314
G1 X56.2574 Y74.9257
G2 X56.2578 Y74.927 I0.105 J-0.0327
G1 X56.2928 Y75.0351
G2 X56.2932 Y75.0363 I0.1046 J-0.0339
G1 X56.3304 Y75.1469
G2 X56.3308 Y75.148 I0.1043 J-0.0351
G1 X56.3702 Y75.261
G2 X56.3706 Y75.262 I0.1039 J-0.0362
G1 X56.4121 Y75.3775
G2 X56.4125 Y75.3785 I0.1035 J-0.0372
G1 X56.4562 Y75.4964
G2 X56.4566 Y75.4974 I0.1031 J-0.0382
G1 X56.5025 Y75.6177
G2 X56.5028 Y75.6186 I0.1028 J-0.0392
G1 X56.5508 Y75.7414
G2 X56.5512 Y75.7423 I0.1024 J-0.0401
G1 X56.6014 Y75.8675
G2 X56.6017 Y75.8683 I0.1021 J-0.0409
G1 X56.6541 Y75.996
G2 X56.6544 Y75.9968 I0.1018 J-0.0418
G1 X56.709 Y76.1269
G2 X56.7093 Y76.1276 I0.1014 J-0.0425
G1 X56.766 Y76.2602
G2 X56.7663 Y76.2609 I0.1011 J-0.0433
G1 X56.8252 Y76.3959
G2 X56.8255 Y76.3965 I0.1008 J-0.044
G1 X56.8865 Y76.534
G2 X56.8868 Y76.5346 I0.1005 J-0.0446
G1 X56.95 Y76.6745
G2 X56.9503 Y76.6751 I0.1002 J-0.0453
G1 X57.0157 Y76.8174
G2 X57.0159 Y76.818 I0.1 J-0.0459
G1 X57.0835 Y76.9628
G2 X57.0837 Y76.9634 I0.0997 J-0.0465
G1 X57.1534 Y77.1106
G2 X57.1537 Y77.1111 I0.0994 J-0.0471
G1 X57.2256 Y77.2607
G2 X57.2258 Y77.2613 I0.0992 J-0.0476
G1 X57.2998 Y77.4134
G2 X57.3001 Y77.4139 I0.0989 J-0.0481
G1 X57.3763 Y77.5684
G2 X57.3765 Y77.5689 I0.0987 J-0.0486
G1 X57.4549 Y77.7258
G2 X57.4551 Y77.7263 I0.0984 J-0.0491
G1 X57.5356 Y77.8857
G2 X57.5358 Y77.8861 I0.0982 J-0.0496
G1 X57.6185 Y78.048
G2 X57.619 Y78.0489 I0.098 J-0.05
G1 X58.1538 Y79.0712
G1 X58.2357 Y79.2345
G1 X58.3022 Y79.3759
G1 X58.3531 Y79.4948
G1 X58.3883 Y79.5902
G1 X58.4076 Y79.6592
G1 X58.4122 Y79.6954
G1 X58.3993 Y79.7746
G1 X58.3806 Y79.7975
G1 X58.3343 Y79.8089
G1 X58.3063 Y79.806
G1 X58.2558 Y79.7925
G1 X58.1917 Y79.7674
G1 X58.1155 Y79.7304
G1 X58.0284 Y79.6813
G1 X57.9309 Y79.6202
G1 X57.8234 Y79.5472
G1 X57.7062 Y79.4623
G1 X57.5793 Y79.3656
G1 X57.4429 Y79.2571
G1 X57.3425 Y79.1747
G1 X57.2423 Y79.0903
G1 X57.1424 Y79.004
G1 X57.0429 Y78.9159
G1 X56.9438 Y78.826
G1 X56.845 Y78.7342
G1 X56.7466 Y78.6405
G1 X56.6485 Y78.545
G1 X56.5507 Y78.4476
G1 X56.4534 Y78.3484
G1 X56.3563 Y78.2474
G1 X56.2597 Y78.1444
G1 X56.1633 Y78.0397
G1 X56.0673 Y77.933
G1 X55.981 Y77.8352
G1 X55.8955 Y77.7363
G1 X55.811 Y77.6362
G1 X55.7273 Y77.5349
G1 X55.6445 Y77.4324
G1 X55.5626 Y77.3286
G1 X55.4815 Y77.2236
G1 X55.4013 Y77.1174
G1 X55.322 Y77.0099
G1 X55.2435 Y76.9013
G1 X55.166 Y76.7914
G1 X55.0892 Y76.6803
G1 X55.0134 Y76.5679
G1 X54.9384 Y76.4544
G1 X54.8643 Y76.3396
G1 X54.7911 Y76.2236
G1 X54.7187 Y76.1063
G1 X54.6472 Y75.9878
G1 X54.5766 Y75.8681
G1 X54.5069 Y75.7472
G1 X54.438 Y75.6251
G1 X54.37 Y75.5017
G1 X54.3028 Y75.3771
G1 X54.2366 Y75.2512
G1 X54.1712 Y75.1242
G1 X54.1067 Y74.9959
G1 X54.043 Y74.8664
G1 X53.9802 Y74.7356
G1 X53.9183 Y74.6036
G1 X53.8573 Y74.4704
G1 X53.7971 Y74.336
G1 X53.7377 Y74.1999
G2 X53.6638 Y74.1373 I-0.1008 J0.044
G1 X53.5754 Y74.1149
G1 X53.4803 Y74.0876
G1 X53.3768 Y74.055
G1 X53.265 Y74.0171
G1 X53.1449 Y73.9738
G1 X53.0167 Y73.9251
G1 X52.8803 Y73.8711
G1 X52.7358 Y73.8117
G1 X52.5827 Y73.7468
G2 X52.4408 Y73.8962 I-0.0429 J0.1013
G1 X52.4968 Y74.0114
G1 X52.5528 Y74.1276
G1 X52.6088 Y74.2447
G1 X52.6649 Y74.363
G1 X52.721 Y74.4823
G1 X52.7771 Y74.6027
G1 X52.8333 Y74.7241
G1 X52.8895 Y74.8466
G1 X52.9457 Y74.9701
G1 X53.002 Y75.0947
G1 X53.0438 Y75.1881
G1 X51.9609 Y74.625
G2 X51.9574 Y74.6233 I-0.0507 J0.0976
G1 X51.8068 Y74.5517
G2 X51.8064 Y74.5515 I-0.0472 J0.0993
G1 X51.6595 Y74.4824
G2 X51.659 Y74.4822 I-0.0468 J0.0995
G1 X51.5157 Y74.4155
G2 X51.5152 Y74.4153 I-0.0464 J0.0997
G1 X51.3754 Y74.3511
G2 X51.3749 Y74.3509 I-0.0459 J0.1
G1 X51.2388 Y74.2891
G2 X51.2383 Y74.2889 I-0.0454 J0.1002
G1 X51.1057 Y74.2296
G2 X51.1051 Y74.2293 I-0.0449 J0.1004
G1 X50.9761 Y74.1725
G2 X50.9755 Y74.1722 I-0.0444 J0.1007
G1 X50.8502 Y74.1179
G2 X50.8495 Y74.1176 I-0.0438 J0.1009
G1 X50.7277 Y74.0657
G2 X50.7271 Y74.0654 I-0.0431 J0.1012
G1 X50.6089 Y74.0159
G2 X50.6082 Y74.0156 I-0.0425 J0.1015
G1 X50.4936 Y73.9686
G2 X50.4928 Y73.9683 I-0.0418 J0.1018
G1 X50.3818 Y73.9237
G2 X50.381 Y73.9234 I-0.041 J0.1021
G1 X50.2735 Y73.8813
G2 X50.2726 Y73.8809 I-0.0401 J0.1024
G1 X50.1688 Y73.8413
G2 X50.1679 Y73.8409 I-0.0392 J0.1028
G1 X50.0677 Y73.8037
G2 X50.0666 Y73.8033 I-0.0383 J0.1031
G1 X49.97 Y73.7686
G2 X49.9688 Y73.7682 I-0.0372 J0.1035
G1 X49.8758 Y73.7359
G2 X49.73 Y73.8468 I-0.0361 J0.1039
G1 X49.7388 Y73.9869
G2 X49.739 Y73.9892 I0.1098 J-0.007
G1 X49.7507 Y74.1273
G2 X49.7509 Y74.1297 I0.1096 J-0.0093
G1 X49.7654 Y74.2658
G2 X49.7657 Y74.2682 I0.1094 J-0.0116
G1 X49.7829 Y74.4024
G2 X49.7833 Y74.4048 I0.1091 J-0.014
G1 X49.8033 Y74.537
G2 X49.8037 Y74.5395 I0.1088 J-0.0165
G1 X49.8266 Y74.6697
G2 X49.8271 Y74.6723 I0.1083 J-0.019
G1 X49.8527 Y74.8005
G2 X49.8532 Y74.8031 I0.1079 J-0.0216
G1 X49.8817 Y74.9294
G2 X49.8823 Y74.932 I0.1073 J-0.0242
G1 X49.9135 Y75.0563
G2 X49.9142 Y75.0589 I0.1067 J-0.0268
G1 X49.9483 Y75.1812
G2 X49.9491 Y75.1839 I0.106 J-0.0295
G1 X49.9859 Y75.3042
G2 X49.9866 Y75.3064 I0.1052 J-0.0322
G1 X50.0114 Y75.382
G2 X50.0119 Y75.3835 I0.1045 J-0.0344
G1 X50.0398 Y75.4644
G2 X50.0403 Y75.4656 I0.104 J-0.0359
G1 X50.0712 Y75.5519
G2 X50.0716 Y75.553 I0.1035 J-0.0371
G1 X50.1055 Y75.6445
G2 X50.1059 Y75.6455 I0.1031 J-0.0382
G1 X50.1429 Y75.7424
G2 X50.1432 Y75.7433 I0.1028 J-0.0392
G1 X50.1832 Y75.8455
G2 X50.1835 Y75.8463 I0.1024 J-0.0401
G1 X50.2266 Y75.9538
G2 X50.2268 Y75.9545 I0.1021 J-0.0409
G1 X50.2729 Y76.0673
G2 X50.2731 Y76.068 I0.1018 J-0.0416
G1 X50.3222 Y76.1862
G2 X50.3225 Y76.1867 I0.1016 J-0.0422
G1 X50.3746 Y76.3102
G2 X50.3748 Y76.3108 I0.1013 J-0.0428
G1 X50.4299 Y76.4396
G2 X50.4301 Y76.4401 I0.1011 J-0.0433
G1 X50.4883 Y76.5742
G2 X50.4885 Y76.5747 I0.1009 J-0.0438
G1 X50.5497 Y76.7141
G2 X50.5499 Y76.7145 I0.1007 J-0.0442
G1 X50.6141 Y76.8594
G2 X50.6142 Y76.8597 I0.1006 J-0.0446
G1 X50.6815 Y77.0099
G2 X50.6816 Y77.0102 I0.1004 J-0.045
G1 X50.7519 Y77.1657
G2 X50.7521 Y77.166 I0.1002 J-0.0453
G1 X50.8254 Y77.3268
G2 X50.8255 Y77.3271 I0.1001 J-0.0456
G1 X50.9017 Y77.493
G1 X50.9844 Y77.6746
G1 X51.0631 Y77.8488
G1 X51.1378 Y78.0156
G1 X51.2085 Y78.1751
G1 X51.2753 Y78.3272
G1 X51.338 Y78.4719
G1 X51.3968 Y78.6093
G1 X51.4516 Y78.7392
G1 X51.5025 Y78.8617
G1 X51.5493 Y78.9768
G1 X51.5921 Y79.0845
G1 X51.6309 Y79.1846
G1 X51.6657 Y79.2773
G1 X51.6965 Y79.3624
G1 X51.7233 Y79.4398
G1 X51.7459 Y79.5095
G1 X51.7645 Y79.5713
G1 X51.779 Y79.6249
G1 X51.7894 Y79.67
G1 X51.7957 Y79.7056
G1 X51.7979 Y79.7276
G1 X51.7927 Y79.8094
G1 X51.7762 Y79.8439
G1 X51.7519 Y79.8609
G1 X51.69 Y79.8708
G1 X51.6314 Y79.8659
G1 X51.5494 Y79.8488
G1 X51.4489 Y79.8185
G1 X51.1059 Y79.694
G2 X51.1037 Y79.6932 I-0.0375 J0.1034
G1 X51.0507 Y79.6752
G1 X50.9523 Y79.6364
G2 X50.8723 Y79.6362 I-0.0403 J0.1023
G1 X50.6204 Y79.7337
G1 X50.5087 Y79.7677
G1 X50.3902 Y79.7973
G1 X50.2659 Y79.8221
G1 X50.1358 Y79.8423
G1 X49.9999 Y79.8576
G1 X49.9374 Y79.8622
G1 X49.9091 Y79.7894
G2 X49.909 Y79.7891 I-0.1025 J0.0399
G1 X48.8452 Y77.0829
G1 X48.7729 Y76.8982
G1 X48.7044 Y76.7217
G1 X48.6395 Y76.5534
G1 X48.5784 Y76.3932
G1 X48.521 Y76.2412
G1 X48.4674 Y76.0974
G1 X48.4175 Y75.9617
G1 X48.3713 Y75.8343
G1 X48.3288 Y75.7151
G1 X48.2901 Y75.604
G1 X48.2551 Y75.5013
G1 X48.2239 Y75.4068
G1 X48.1965 Y75.3207
G1 X48.1728 Y75.243
G1 X48.1529 Y75.1738
G1 X48.1369 Y75.1133
G1 X48.1247 Y75.0619
G1 X48.1164 Y75.02
G1 X48.1119 Y74.9888
G1 X48.1112 Y74.9767
G1 X48.1271 Y74.894
G1 X48.1551 Y74.865
G1 X48.2294 Y74.8495
G1 X48.2776 Y74.8539
G1 X48.349 Y74.8706
G1 X48.4363 Y74.9005
G1 X48.5383 Y74.9438
G1 X48.6539 Y75.0006
G1 X48.7828 Y75.0708
G1 X48.9247 Y75.1546
G1 X48.9565 Y75.1745
G2 X48.9593 Y75.1762 I0.0583 J-0.0933
G1 X49.0088 Y75.2052
G2 X49.1506 Y75.1785 I0.0555 J-0.095
G1 X49.3073 Y74.9806
G2 X49.2827 Y74.8212 I-0.0862 J-0.0683
G1 X49.1919 Y74.7597
G2 X49.1897 Y74.7583 I-0.0616 J0.0911
G1 X49.0953 Y74.6977
G2 X49.0932 Y74.6963 I-0.0594 J0.0926
G1 X48.9952 Y74.6365
G2 X48.9932 Y74.6353 I-0.0573 J0.0939
G1 X48.8917 Y74.5763
G2 X48.8897 Y74.5752 I-0.0553 J0.0951
G1 X48.7847 Y74.517
G2 X48.7827 Y74.516 I-0.0533 J0.0962
G1 X48.6742 Y74.4587
G2 X48.6723 Y74.4577 I-0.0514 J0.0973
G1 X48.5602 Y74.4012
G2 X48.5584 Y74.4003 I-0.0495 J0.0982
G1 X48.4427 Y74.3446
G2 X48.441 Y74.3438 I-0.0477 J0.0991
G1 X48.3217 Y74.289
G2 X48.3201 Y74.2882 I-0.046 J0.0999
G1 X48.1973 Y74.2342
G2 X48.1957 Y74.2335 I-0.0443 J0.1007
G1 X48.0694 Y74.1803
G2 X48.0678 Y74.1796 I-0.0427 J0.1014
G1 X47.9379 Y74.1273
G2 X47.9364 Y74.1267 I-0.0412 J0.102
G1 X47.803 Y74.0751
G2 X47.8016 Y74.0746 I-0.0397 J0.1026
G1 X47.6646 Y74.0238
G2 X47.6632 Y74.0233 I-0.0382 J0.1031
G1 X47.5227 Y73.9734
G2 X47.5214 Y73.9729 I-0.0368 J0.1037
G1 X47.3773 Y73.9238
G2 X47.376 Y73.9234 I-0.0355 J0.1041
G1 X47.2284 Y73.8751
G2 X47.2272 Y73.8747 I-0.0342 J0.1046
G1 X47.076 Y73.8273
G2 X47.0748 Y73.8269 I-0.0329 J0.105
G1 X46.9201 Y73.7803
G2 X46.919 Y73.78 I-0.0317 J0.1053
G1 X46.7607 Y73.7342
G2 X46.6233 Y73.8658 I-0.0306 J0.1057
G1 X46.6893 Y74.138
G2 X46.69 Y74.1409 I0.1069 J-0.0259
G1 X46.7188 Y74.2465
G2 X46.7191 Y74.2475 I0.1061 J-0.0289
G1 X46.7496 Y74.3559
G2 X46.7499 Y74.3568 I0.1059 J-0.0299
G1 X46.7824 Y74.4679
G2 X46.7827 Y74.4688 I0.1056 J-0.0309
G1 X46.817 Y74.5826
G2 X46.8173 Y74.5835 I0.1053 J-0.0318
G1 X46.8535 Y74.7001
G2 X46.8537 Y74.7009 I0.105 J-0.0326
G1 X46.8918 Y74.8202
G2 X46.8921 Y74.8209 I0.1048 J-0.0335
G1 X46.932 Y74.943
G2 X46.9323 Y74.9437 I0.1045 J-0.0342
G1 X46.9741 Y75.0685
G2 X46.9744 Y75.0692 I0.1043 J-0.035
G1 X47.0181 Y75.1967
G2 X47.0183 Y75.1974 I0.1041 J-0.0357
G1 X47.0639 Y75.3277
G2 X47.0641 Y75.3283 I0.1038 J-0.0363
G1 X47.1116 Y75.4613
G2 X47.1118 Y75.4619 I0.1036 J-0.037
G1 X47.1611 Y75.5977
G2 X47.1613 Y75.5982 I0.1034 J-0.0376
G1 X47.2125 Y75.7367
G2 X47.2128 Y75.7373 I0.1032 J-0.0381
G1 X47.2658 Y75.8785
G2 X47.266 Y75.879 I0.103 J-0.0387
G1 X47.321 Y76.023
G2 X47.3212 Y76.0235 I0.1028 J-0.0392
G1 X47.378 Y76.1702
G2 X47.3782 Y76.1707 I0.1026 J-0.0397
G1 X47.4369 Y76.3202
G2 X47.4371 Y76.3206 I0.1024 J-0.0402
G1 X47.4977 Y76.4728
G2 X47.4978 Y76.4733 I0.1022 J-0.0407
G1 X47.5603 Y76.6282
G2 X47.5608 Y76.6294 I0.102 J-0.0411
G1 X47.6142 Y76.7578
G1 X47.6663 Y76.8836
G1 X47.717 Y77.0071
G1 X47.7664 Y77.1283
G1 X47.8144 Y77.247
G1 X47.8611 Y77.3634
G1 X47.9063 Y77.477
G1 X48.8298 Y79.8854
G2 X48.8323 Y79.8915 I0.1027 J-0.0394
G1 X48.8418 Y79.9124
G1 X48.7825 Y79.9093
G1 X48.6643 Y79.899
G1 X48.5447 Y79.8847
G1 X48.4238 Y79.8663
G1 X48.3015 Y79.8437
G1 X48.1778 Y79.817
G1 X48.0528 Y79.7862
G1 X47.9264 Y79.7512
G1 X47.7986 Y79.712
G1 X47.6694 Y79.6687
G1 X47.5389 Y79.6212
G1 X47.407 Y79.5695
G1 X47.2738 Y79.5136
G1 X47.1392 Y79.4534
G1 X47.0134 Y79.3941
G1 X46.8895 Y79.3325
G1 X46.7677 Y79.2687
G1 X46.6478 Y79.2028
G1 X46.5299 Y79.1347
G1 X46.4141 Y79.0645
G1 X46.3002 Y78.992
G1 X46.1883 Y78.9174
G1 X46.0783 Y78.8407
G1 X45.9704 Y78.7617
G1 X45.8644 Y78.6806
G1 X45.7604 Y78.5973
G1 X45.6584 Y78.5119
G1 X45.5583 Y78.4242
G1 X45.4602 Y78.3344
G1 X45.3644 Y78.2427
G1 X45.2526 Y78.1292
G1 X45.1451 Y78.0152
G1 X45.0423 Y77.901
G1 X44.9441 Y77.7867
G1 X44.8506 Y77.6722
G1 X44.7618 Y77.5576
G1 X44.6776 Y77.4429
G1 X44.5981 Y77.328
G1 X44.5231 Y77.213
G1 X44.4529 Y77.0979
G1 X44.3872 Y76.9826
G1 X44.3261 Y76.8672
G1 X44.2696 Y76.7517
G1 X44.2177 Y76.6361
G1 X44.1703 Y76.5204
G1 X44.1275 Y76.4045
G1 X44.0893 Y76.2884
G1 X44.0555 Y76.1723
G1 X44.0263 Y76.0559
G1 X44.0016 Y75.9394
G1 X43.9814 Y75.8227
G1 X43.9657 Y75.7057
G1 X43.9545 Y75.5886
G1 X43.9478 Y75.4711
G1 X43.9456 Y75.3551
G1 X43.9531 Y75.2011
G1 X43.9745 Y75.0735
G1 X44.0084 Y74.9714
G1 X44.0525 Y74.8936
G1 X44.1056 Y74.837
G1 X44.1695 Y74.7972
G1 X44.2488 Y74.7722
G1 X44.3487 Y74.763
G1 X44.4205 Y74.7671
G1 X44.4988 Y74.7797
G1 X44.582 Y74.8013
G1 X44.67 Y74.8322
G1 X44.7627 Y74.8724
G1 X44.8599 Y74.9223
G1 X44.9614 Y74.9818
G1 X45.0671 Y75.0511
G1 X45.177 Y75.1302
G1 X45.2909 Y75.2191
G1 X45.4086 Y75.3177
G1 X45.5304 Y75.4263
G1 X45.6222 Y75.5123
G1 X45.7129 Y75.6007
G1 X45.8022 Y75.6915
G1 X45.8901 Y75.7845
G1 X45.9768 Y75.8799
G1 X46.0621 Y75.9776
G1 X46.146 Y76.0776
G1 X46.2286 Y76.1799
G1 X46.3099 Y76.2845
G1 X46.3899 Y76.3915
G1 X46.4685 Y76.5007
G1 X46.5458 Y76.6123
G1 X46.6217 Y76.7263
G1 X46.6963 Y76.8425
G1 X46.7696 Y76.9611
G1 X46.8414 Y77.0819
G1 X46.9038 Y77.1915
G1 X46.965 Y77.3029
G1 X47.0248 Y77.4158
G1 X47.0833 Y77.5303
G1 X47.1405 Y77.6463
G1 X47.1963 Y77.7639
G1 X47.2507 Y77.883
G1 X47.3039 Y78.0037
G1 X47.3557 Y78.1259
G1 X47.4061 Y78.2497
G1 X47.4552 Y78.375
G1 X47.503 Y78.5019
G1 X47.5494 Y78.6303
G1 X47.5945 Y78.7603
G1 X47.6383 Y78.8919
G1 X47.6806 Y79.025
G1 X47.7219 Y79.1603
G2 X47.9293 Y79.1689 I0.1052 J-0.0321
G1 X47.9785 Y79.0454
G2 X47.9816 Y79.0364 I-0.1022 J-0.0407
G1 X48.0199 Y78.9096
G2 X48.0222 Y78.9004 I-0.1053 J-0.0318
G1 X48.0496 Y78.7703
G2 X48.0511 Y78.7611 I-0.1077 J-0.0226
G1 X48.0675 Y78.6276
G2 X48.0682 Y78.6186 I-0.1092 J-0.0134
G1 X48.0737 Y78.4818
G2 Y78.4738 I-0.1099 J-0.0044
G1 X48.0702 Y78.3673
G2 X48.0698 Y78.3604 I-0.1099 J0.0036
G1 X48.0593 Y78.2513
G2 X48.0585 Y78.2448 I-0.1095 J0.0105
G1 X48.0411 Y78.1331
G2 X48.0399 Y78.1271 I-0.1087 J0.017
G1 X48.0155 Y78.0127
G2 X48.0142 Y78.0071 I-0.1076 J0.023
G1 X47.9828 Y77.8901
G2 X47.9813 Y77.885 I-0.1062 J0.0285
G1 X47.9429 Y77.7653
G2 X47.9413 Y77.7607 I-0.1047 J0.0336
G1 X47.8959 Y77.6384
G2 X47.8943 Y77.6341 I-0.1031 J0.0383
G1 X47.8419 Y77.5092
G2 X47.8402 Y77.5053 I-0.1015 J0.0425
G1 X47.7809 Y77.3778
G2 X47.7792 Y77.3742 I-0.0997 J0.0464
G1 X47.7129 Y77.2441
G2 X47.7112 Y77.2408 I-0.098 J0.0499
G1 X47.6379 Y77.108
G2 X47.6363 Y77.1051 I-0.0963 J0.0531
G1 X47.556 Y76.9696
G2 X47.5544 Y76.9669 I-0.0946 J0.0561
G1 X47.4671 Y76.8289
G2 X47.4657 Y76.8267 I-0.093 J0.0587
G1 X47.395 Y76.7203
G2 X47.3938 Y76.7185 I-0.0916 J0.0609
G1 X47.3203 Y76.6125
G2 X47.319 Y76.6108 I-0.0904 J0.0627
G1 X47.2428 Y76.5052
G2 X47.2415 Y76.5035 I-0.0892 J0.0644
G1 X47.1625 Y76.3983
G2 X47.1612 Y76.3967 I-0.0879 J0.0661
G1 X47.0794 Y76.2919
G2 X47.0782 Y76.2903 I-0.0867 J0.0677
G1 X46.9936 Y76.1859
G2 X46.9924 Y76.1844 I-0.0855 J0.0692
G1 X46.905 Y76.0804
G2 X46.9038 Y76.079 I-0.0842 J0.0707
G1 X46.8137 Y75.9754
G2 X46.8124 Y75.974 I-0.083 J0.0722
G1 X46.7196 Y75.8708
G2 X46.7183 Y75.8694 I-0.0818 J0.0736
G1 X46.6227 Y75.7666
G2 X46.6215 Y75.7653 I-0.0805 J0.0749
G1 X46.523 Y75.6629
G2 X46.5218 Y75.6616 I-0.0793 J0.0762
G1 X46.4206 Y75.5596
G2 X46.4194 Y75.5584 I-0.0781 J0.0775
G1 X46.3155 Y75.4568
G2 X46.3143 Y75.4557 I-0.0769 J0.0787
G1 X46.2076 Y75.3544
G2 X46.2064 Y75.3533 I-0.0757 J0.0798
G1 X46.0969 Y75.2525
G2 X46.0957 Y75.2514 I-0.0745 J0.0809
G1 X45.9835 Y75.151
G2 X45.9823 Y75.15 I-0.0733 J0.082
G1 X45.8673 Y75.05
G2 X45.8657 Y75.0486 I-0.0722 J0.083
G1 X45.7266 Y74.9322
G2 X45.7254 Y74.9312 I-0.0706 J0.0844
G1 X45.5893 Y74.8205
G2 X45.588 Y74.8195 I-0.0694 J0.0853
G1 X45.4548 Y74.7144
G2 X45.4534 Y74.7134 I-0.0681 J0.0864
G1 X45.3232 Y74.614
G2 X45.3216 Y74.6129 I-0.0667 J0.0875
G1 X45.1944 Y74.5192
G2 X45.1927 Y74.518 I-0.0652 J0.0886
G1 X45.0684 Y74.43
G2 X45.0666 Y74.4287 I-0.0636 J0.0898
G1 X44.9452 Y74.3464
G2 X44.9432 Y74.3451 I-0.0617 J0.091
G1 X44.8248 Y74.2684
G2 X44.8226 Y74.2671 I-0.0598 J0.0923
G1 X44.7072 Y74.1961
G2 X44.7048 Y74.1947 I-0.0576 J0.0937
G1 X44.5923 Y74.1294
G2 X44.5896 Y74.1279 I-0.0552 J0.0951
G1 X44.4801 Y74.0683
G2 X44.4772 Y74.0667 I-0.0526 J0.0966
G1 X44.3706 Y74.0128
G2 X44.3673 Y74.0112 I-0.0497 J0.0982
G1 X44.2637 Y73.963
G2 X44.2601 Y73.9614 I-0.0464 J0.0997
G1 X44.1594 Y73.9188
G2 X44.1554 Y73.9172 I-0.0428 J0.1013
G1 X44.0577 Y73.8803
G2 X44.0532 Y73.8787 I-0.0389 J0.1029
G1 X43.9584 Y73.8475
G2 X43.9535 Y73.846 I-0.0344 J0.1045
G1 X43.8617 Y73.8204
G2 X43.8562 Y73.8191 I-0.0295 J0.106
G1 X43.7673 Y73.7992
G2 X43.7613 Y73.798 I-0.024 J0.1073
G1 X43.6753 Y73.7838
G2 X43.6686 Y73.7829 I-0.0179 J0.1085
G1 X43.5857 Y73.7744
G2 X43.5783 Y73.7739 I-0.0112 J0.1094
G1 X43.4983 Y73.7711
G2 X43.4872 Y73.7712 I-0.0039 J0.1099
G1 X43.3682 Y73.7791
G2 X43.3517 Y73.7814 I0.0072 J0.1098
G1 X43.2452 Y73.8049
G2 X43.2265 Y73.8108 I0.0237 J0.1074
G1 X43.1325 Y73.8499
G2 X43.1134 Y73.8602 I0.0423 J0.1015
G1 X43.032 Y73.915
G2 X43.0147 Y73.9293 I0.0614 J0.0913
G1 X42.9458 Y73.9998
G2 X42.9324 Y74.0164 I0.0786 J0.0769
G1 X42.876 Y74.1026
G2 X42.867 Y74.1193 I0.092 J0.0603
G1 X42.8232 Y74.2211
G2 X42.8179 Y74.2362 I0.101 J0.0435
G1 X42.7866 Y74.3537
G2 X42.7839 Y74.3666 I0.1063 J0.0284
G1 X42.7651 Y74.4997
G2 X42.7641 Y74.5105 I0.1089 J0.0154
G1 X42.7579 Y74.6592
G2 X42.7578 Y74.6668 I0.1099 J0.0046
G1 X42.7609 Y74.7822
G2 X42.7612 Y74.7878 I0.11 J-0.0029
G1 X42.7704 Y74.9061
G2 X42.7709 Y74.9113 I0.1097 J-0.0085
G1 X42.7862 Y75.0325
G2 X42.7865 Y75.0345 I0.1091 J-0.0138
G1 X42.3402 Y74.7624
G1 X42.2378 Y74.6908
G2 X42.2356 Y74.6893 I-0.063 J0.0902
G1 X42.1284 Y74.6182
G2 X42.1262 Y74.6168 I-0.0608 J0.0917
G1 X42.0169 Y74.548
G2 X42.0147 Y74.5467 I-0.0586 J0.0931
G1 X41.9035 Y74.4803
G2 X41.9012 Y74.479 I-0.0564 J0.0945
G1 X41.788 Y74.415
G2 X41.7857 Y74.4138 I-0.0541 J0.0958
G1 X41.6705 Y74.3521
G2 X41.6682 Y74.351 I-0.0519 J0.097
G1 X41.551 Y74.2917
G2 X41.5487 Y74.2906 I-0.0496 J0.0982
G1 X41.4294 Y74.2338
G2 X41.4272 Y74.2327 I-0.0473 J0.0993
G1 X41.3059 Y74.1782
G2 X41.3036 Y74.1773 I-0.0451 J0.1003
G1 X41.1803 Y74.1251
G2 X41.1781 Y74.1242 I-0.0428 J0.1013
G1 X41.0528 Y74.0745
G2 X41.0506 Y74.0736 I-0.0406 J0.1022
G1 X40.9232 Y74.0263
G2 X40.921 Y74.0255 I-0.0383 J0.1031
G1 X40.7917 Y73.9805
G2 X40.7895 Y73.9798 I-0.0361 J0.1039
G1 X40.6582 Y73.9372
G2 X40.656 Y73.9365 I-0.0339 J0.1046
G1 X40.5226 Y73.8963
G2 X40.5205 Y73.8957 I-0.0318 J0.1053
G1 X40.3851 Y73.8578
G2 X40.383 Y73.8573 I-0.0296 J0.1059
G1 X40.2456 Y73.8218
G2 X40.2435 Y73.8213 I-0.0275 J0.1065
G1 X40.1041 Y73.7882
G2 X40.1021 Y73.7877 I-0.0254 J0.107
G1 X39.9607 Y73.757
G2 X39.8284 Y73.8796 I-0.0233 J0.1075
G1 X39.8396 Y73.9609
G2 X39.84 Y73.9632 I0.109 J-0.0151
G1 X39.8534 Y74.047
G2 X39.8538 Y74.0491 I0.1086 J-0.0174
G1 X39.8693 Y74.1353
G2 X39.8697 Y74.1373 I0.1082 J-0.0196
G1 X39.8875 Y74.226
G2 X39.8879 Y74.2279 I0.1079 J-0.0216
G1 X39.9078 Y74.3189
G2 X39.9082 Y74.3207 I0.1075 J-0.0235
G1 X39.9303 Y74.4142
G2 X39.9307 Y74.4159 I0.1071 J-0.0253
G1 X39.9549 Y74.5118
G2 X39.9553 Y74.5134 I0.1066 J-0.0269
G1 X39.9817 Y74.6118
G2 X39.9821 Y74.6132 I0.1062 J-0.0285
G1 X40.0107 Y74.7141
G2 X40.0111 Y74.7154 I0.1058 J-0.03
G1 X40.0418 Y74.8187
G2 X40.0422 Y74.82 I0.1054 J-0.0314
G1 X40.0751 Y74.9257
G2 X40.0755 Y74.927 I0.105 J-0.0327
G1 X40.1106 Y75.0351
G2 X40.111 Y75.0363 I0.1046 J-0.0339
G1 X40.1482 Y75.1469
G2 X40.1486 Y75.148 I0.1043 J-0.0351
G1 X40.188 Y75.261
G2 X40.1883 Y75.262 I0.1039 J-0.0362
G1 X40.2299 Y75.3775
G2 X40.2302 Y75.3785 I0.1035 J-0.0372
G1 X40.274 Y75.4964
G2 X40.2743 Y75.4974 I0.1031 J-0.0382
G1 X40.3202 Y75.6177
G2 X40.3205 Y75.6186 I0.1028 J-0.0392
G1 X40.3686 Y75.7414
G2 X40.3689 Y75.7423 I0.1024 J-0.0401
G1 X40.4192 Y75.8675
G2 X40.4195 Y75.8683 I0.1021 J-0.0409
G1 X40.4719 Y75.996
G2 X40.4722 Y75.9968 I0.1018 J-0.0418
G1 X40.5267 Y76.1269
G2 X40.527 Y76.1276 I0.1014 J-0.0425
G1 X40.5837 Y76.2602
G2 X40.5841 Y76.2609 I0.1011 J-0.0433
G1 X40.6429 Y76.3959
G2 X40.6432 Y76.3965 I0.1008 J-0.044
G1 X40.7043 Y76.534
G2 X40.7046 Y76.5346 I0.1005 J-0.0446
G1 X40.7678 Y76.6745
G2 X40.768 Y76.6751 I0.1002 J-0.0453
G1 X40.8334 Y76.8174
G2 X40.8337 Y76.818 I0.1 J-0.0459
G1 X40.9012 Y76.9628
G2 X40.9015 Y76.9634 I0.0997 J-0.0465
G1 X40.9712 Y77.1106
G2 X40.9714 Y77.1111 I0.0994 J-0.0471
G1 X41.0433 Y77.2607
G2 X41.0436 Y77.2613 I0.0992 J-0.0476
G1 X41.1176 Y77.4134
G2 X41.1178 Y77.4139 I0.0989 J-0.0481
G1 X41.194 Y77.5684
G2 X41.1943 Y77.5689 I0.0987 J-0.0486
G1 X41.2726 Y77.7258
G2 X41.2729 Y77.7263 I0.0984 J-0.0491
G1 X41.3534 Y77.8857
G2 X41.3536 Y77.8861 I0.0982 J-0.0496
G1 X41.4363 Y78.048
G2 X41.4368 Y78.0489 I0.098 J-0.05
G1 X41.9715 Y79.0712
G1 X42.0535 Y79.2345
G1 X42.12 Y79.3759
G1 X42.1709 Y79.4948
G1 X42.2061 Y79.5902
G1 X42.2253 Y79.6592
G1 X42.2299 Y79.6954
G1 X42.217 Y79.7746
G1 X42.1984 Y79.7975
G1 X42.1521 Y79.8089
G1 X42.1241 Y79.806
G1 X42.0736 Y79.7925
G1 X42.0094 Y79.7674
G1 X41.9333 Y79.7304
G1 X41.8462 Y79.6813
G1 X41.7487 Y79.6202
G1 X41.6412 Y79.5472
G1 X41.5239 Y79.4623
G1 X41.3971 Y79.3656
G1 X41.2607 Y79.2571
G1 X41.1602 Y79.1747
G1 X41.06 Y79.0903
G1 X40.9602 Y79.004
G1 X40.8607 Y78.9159
G1 X40.7616 Y78.826
G1 X40.6628 Y78.7342
G1 X40.5643 Y78.6405
G1 X40.4662 Y78.545
G1 X40.3685 Y78.4476
G1 X40.2711 Y78.3484
G1 X40.1741 Y78.2474
G1 X40.0774 Y78.1444
G1 X39.9811 Y78.0397
G1 X39.8851 Y77.933
G1 X39.7987 Y77.8352
G1 X39.7133 Y77.7363
G1 X39.6288 Y77.6362
G1 X39.5451 Y77.5349
G1 X39.4623 Y77.4324
G1 X39.3803 Y77.3286
G1 X39.2993 Y77.2236
G1 X39.2191 Y77.1174
G1 X39.1398 Y77.0099
G1 X39.0613 Y76.9013
G1 X38.9837 Y76.7914
G1 X38.907 Y76.6803
G1 X38.8312 Y76.5679
G1 X38.7562 Y76.4544
G1 X38.6821 Y76.3396
G1 X38.6088 Y76.2236
G1 X38.5365 Y76.1063
G1 X38.465 Y75.9878
G1 X38.3944 Y75.8681
G1 X38.3246 Y75.7472
G1 X38.2557 Y75.6251
G1 X38.1877 Y75.5017
G1 X38.1206 Y75.3771
G1 X38.0543 Y75.2512
G1 X37.9889 Y75.1242
G1 X37.9244 Y74.9959
G1 X37.8608 Y74.8664
G1 X37.798 Y74.7356
G1 X37.7361 Y74.6036
G1 X37.675 Y74.4704
G1 X37.6149 Y74.336
G1 X37.5554 Y74.1999
G2 X37.4816 Y74.1373 I-0.1008 J0.044
G1 X37.3931 Y74.1149
G1 X37.2981 Y74.0876
G1 X37.1946 Y74.055
G1 X37.0827 Y74.0171
G1 X36.9627 Y73.9738
G1 X36.8344 Y73.9251
G1 X36.698 Y73.8711
G1 X36.5535 Y73.8117
G1 X36.4004 Y73.7468
G2 X36.2585 Y73.8962 I-0.0429 J0.1013
G1 X36.3146 Y74.0114
G1 X36.3705 Y74.1276
G1 X36.4266 Y74.2447
G1 X36.4826 Y74.363
G1 X36.5387 Y74.4823
G1 X36.5948 Y74.6027
G1 X36.651 Y74.7241
G1 X36.7072 Y74.8466
G1 X36.7635 Y74.9701
G1 X36.8197 Y75.0947
G1 X36.8761 Y75.2204
G1 X36.9324 Y75.3471
G1 X36.9888 Y75.4748
G1 X37.0452 Y75.6037
G1 X37.1017 Y75.7335
G1 X37.1582 Y75.8645
G1 X37.2147 Y75.9965
G1 X37.2713 Y76.1295
G1 X37.3279 Y76.2636
G1 X37.3845 Y76.3988
G1 X37.4412 Y76.535
G1 X37.4979 Y76.6722
G1 X37.5547 Y76.8106
G1 X37.6114 Y76.9499
G1 X37.6683 Y77.0904
G1 X37.7251 Y77.2319
G1 X37.782 Y77.3744
G1 X37.8569 Y77.5636
G1 X37.9279 Y77.7449
G1 X37.9951 Y77.9182
G1 X38.0584 Y78.0836
G1 X38.1179 Y78.241
G1 X38.1735 Y78.3905
G1 X38.2252 Y78.532
G1 X38.273 Y78.6655
G1 X38.317 Y78.791
G1 X38.3571 Y78.9085
G1 X38.3933 Y79.018
G1 X38.4256 Y79.1194
G1 X38.454 Y79.2126
G1 X38.4785 Y79.2976
G1 X38.4991 Y79.3744
G1 X38.5157 Y79.4426
G1 X38.5284 Y79.5022
G1 X38.5372 Y79.5526
G1 X38.5422 Y79.5931
G1 X38.5435 Y79.6196
G1 X38.5317 Y79.7222
G1 X38.5068 Y79.7741
G1 X38.475 Y79.798
G1 X38.4108 Y79.8094
G1 X38.3695 Y79.8061
G1 X38.2938 Y79.7926
G1 X38.1917 Y79.7689
G1 X38.0652 Y79.7351
G1 X37.9138 Y79.6908
G2 X37.9111 Y79.6901 I-0.0309 J0.1056
G1 X37.873 Y79.68
G1 X37.8226 Y79.6658
G2 X37.8206 Y79.6653 I-0.0298 J0.1059
G1 X37.3069 Y79.5314
G1 X37.2921 Y79.5094
G2 X37.2892 Y79.5053 I-0.0912 J0.0615
G1 X37.2083 Y79.3965
G2 X37.2056 Y79.393 I-0.0883 J0.0656
G1 X37.1198 Y79.2869
G2 X37.117 Y79.2835 I-0.0855 J0.0691
G1 X37.0263 Y79.1801
G2 X37.0234 Y79.1769 I-0.0827 J0.0725
G1 X36.9278 Y79.0762
G2 X36.9248 Y79.0731 I-0.0798 J0.0757
G1 X36.8243 Y78.9751
G2 X36.8213 Y78.9723 I-0.0768 J0.0787
G1 X36.7159 Y78.877
G2 X36.7129 Y78.8743 I-0.0738 J0.0816
G1 X36.6026 Y78.7817
G2 X36.5995 Y78.7792 I-0.0707 J0.0842
G1 X36.4843 Y78.6893
G2 X36.4803 Y78.6863 I-0.0677 J0.0867
G1 X36.3904 Y78.6226
G2 X36.3876 Y78.6206 I-0.0637 J0.0897
G1 X36.2931 Y78.5579
G2 X36.2904 Y78.5561 I-0.0608 J0.0916
G1 X36.1911 Y78.4944
G2 X36.1885 Y78.4928 I-0.0581 J0.0934
G1 X36.0846 Y78.432
G2 X36.0821 Y78.4306 I-0.0555 J0.095
G1 X35.9734 Y78.3708
G2 X35.9711 Y78.3695 I-0.053 J0.0964
G1 X35.8577 Y78.3107
G2 X35.8554 Y78.3096 I-0.0507 J0.0976
G1 X35.7374 Y78.2518
G2 X35.7352 Y78.2507 I-0.0484 J0.0988
G1 X35.6124 Y78.1939
G2 X35.6104 Y78.193 I-0.0462 J0.0998
G1 X35.4829 Y78.1371
G2 X35.4809 Y78.1363 I-0.0441 J0.1008
G1 X35.3487 Y78.0814
G2 X35.3465 Y78.0806 I-0.0422 J0.1016
G1 X35.1832 Y78.0169
G2 X35.1804 Y78.0158 I-0.04 J0.1025
G1 X35.0267 Y77.9606
G2 X35.0235 Y77.9595 I-0.0372 J0.1035
G1 X34.8795 Y77.9128
G2 X34.8756 Y77.9116 I-0.0339 J0.1046
G1 X34.7413 Y77.8734
G2 X34.7367 Y77.8722 I-0.0301 J0.1058
G1 X34.6121 Y77.8425
G2 X34.6065 Y77.8413 I-0.0255 J0.107
G1 X34.4915 Y77.8201
G2 X34.4848 Y77.819 I-0.02 J0.1082
G1 X34.3794 Y77.8063
G2 X34.3711 Y77.8056 I-0.0132 J0.1092
G1 X34.2754 Y77.8014
G2 X34.26 Y77.8017 I-0.0049 J0.1099
G1 X34.1374 Y77.8136
G2 X34.114 Y77.8184 I0.0105 J0.1095
G1 X34.0046 Y77.8538
G2 X33.9809 Y77.8647 I0.0339 J0.1047
G1 X33.8849 Y77.9237
G2 X33.8647 Y77.9396 I0.0576 J0.0937
G1 X33.782 Y78.0222
G2 X33.7676 Y78.0399 I0.0777 J0.0778
G1 X33.6982 Y78.1461
G2 X33.6893 Y78.1627 I0.0921 J0.0602
G1 X33.6551 Y78.2415
G1 X33.5962 Y78.1463
G1 X33.5284 Y78.032
G1 X33.4625 Y77.9156
G1 X33.3984 Y77.7972
G1 X33.3362 Y77.6767
G1 X33.2757 Y77.5541
G1 X33.2171 Y77.4295
G1 X33.1604 Y77.3028
G1 X33.1054 Y77.174
G1 X33.0459 Y77.0268
G1 X32.9908 Y76.8821
G1 X32.9402 Y76.7399
G1 X32.894 Y76.6001
G1 X32.8523 Y76.4629
G1 X32.8151 Y76.3281
G1 X32.7822 Y76.1959
G1 X32.7538 Y76.0661
G1 X32.7298 Y75.9389
G1 X32.7102 Y75.8142
G1 X32.695 Y75.692
G1 X32.6842 Y75.5724
G1 X32.6777 Y75.4553
G1 X32.6756 Y75.3418
G1 X32.6811 Y75.2031
G1 X32.6973 Y75.0811
G1 X32.7234 Y74.9749
G1 X32.7588 Y74.8845
G1 X32.8027 Y74.809
G1 X32.8547 Y74.7469
G1 X32.9155 Y74.6967
G1 X32.9866 Y74.6572
G1 X33.0697 Y74.6281
G1 X33.1661 Y74.6099
G1 X33.277 Y74.6036
G1 X33.3787 Y74.6076
G1 X33.4823 Y74.6196
G1 X33.5869 Y74.6398
G1 X33.6925 Y74.6682
G1 X33.7994 Y74.7049
G1 X33.9074 Y74.75
G1 X34.0166 Y74.8036
G1 X34.127 Y74.8658
G1 X34.2386 Y74.9366
G1 X34.3513 Y75.0162
G1 X34.4651 Y75.1044
G1 X34.5799 Y75.2014
G1 X34.6957 Y75.3072
G1 X34.8126 Y75.422
G1 X34.8981 Y75.5108
G1 X34.9822 Y75.6026
G1 X35.0649 Y75.697
G1 X35.146 Y75.7942
G1 X35.2256 Y75.894
G1 X35.3037 Y75.9966
G1 X35.3803 Y76.1019
G1 X35.4554 Y76.2098
G1 X35.529 Y76.3206
G1 X35.601 Y76.434
G1 X35.6716 Y76.5502
G1 X35.7406 Y76.6691
G1 X35.8081 Y76.7907
G1 X35.8741 Y76.9151
G1 X35.9386 Y77.0421
G1 X36.0015 Y77.172
G1 X36.0629 Y77.3045
G1 X36.1228 Y77.4398
G1 X36.1815 Y77.5787
G2 X36.3829 Y77.5815 I0.1013 J-0.0428
G1 X36.4341 Y77.4693
G2 X36.438 Y77.4595 I-0.1001 J-0.0456
G1 X36.4745 Y77.3534
G2 X36.478 Y77.3412 I-0.104 J-0.0358
G1 X36.4999 Y77.2413
G2 X36.5021 Y77.2263 I-0.1074 J-0.0236
G1 X36.5094 Y77.1325
G2 X36.5097 Y77.1195 I-0.1097 J-0.0086
G1 X36.5059 Y77.0256
G2 X36.5052 Y77.0171 I-0.1099 J0.0044
G1 X36.4938 Y76.9215
G2 X36.4925 Y76.9134 I-0.1092 J0.013
G1 X36.4735 Y76.8162
G2 X36.4718 Y76.8088 I-0.108 J0.0211
G1 X36.4452 Y76.7099
G2 X36.4431 Y76.7031 I-0.1062 J0.0286
G1 X36.4089 Y76.6025
G2 X36.4066 Y76.5963 I-0.1041 J0.0354
G1 X36.3648 Y76.4942
G2 X36.3623 Y76.4886 I-0.1018 J0.0417
G1 X36.3129 Y76.3847
G2 X36.3103 Y76.3797 I-0.0993 J0.0473
G1 X36.2533 Y76.2742
G2 X36.2507 Y76.2697 I-0.0968 J0.0523
G1 X36.1861 Y76.1626
G2 X36.1836 Y76.1586 I-0.0942 J0.0568
G1 X36.1114 Y76.0498
G2 X36.1089 Y76.0462 I-0.0916 J0.0608
G1 X36.0291 Y75.9358
G2 X36.0267 Y75.9326 I-0.0892 J0.0644
G1 X35.9393 Y75.8205
G2 X35.9369 Y75.8176 I-0.0867 J0.0676
G1 X35.8419 Y75.7039
G2 X35.8397 Y75.7013 I-0.0844 J0.0705
G1 X35.7371 Y75.5859
G2 X35.735 Y75.5836 I-0.0822 J0.0731
G1 X35.6248 Y75.4666
G2 X35.6228 Y75.4645 I-0.0801 J0.0754
G1 X35.505 Y75.3458
G2 X35.5031 Y75.3439 I-0.0781 J0.0775
G1 X35.3776 Y75.2236
G2 X35.3763 Y75.2223 I-0.0762 J0.0794
G1 X35.2436 Y75.0993
G2 X35.2424 Y75.0981 I-0.0748 J0.0807
G1 X35.1113 Y74.9803
G2 X35.11 Y74.9792 I-0.0735 J0.0818
G1 X34.9807 Y74.8666
G2 X34.9792 Y74.8654 I-0.0722 J0.083
G1 X34.8515 Y74.7581
G2 X34.85 Y74.7568 I-0.0708 J0.0842
G1 X34.724 Y74.6547
G2 X34.7223 Y74.6534 I-0.0692 J0.0855
G1 X34.598 Y74.5565
G2 X34.5962 Y74.5552 I-0.0676 J0.0868
G1 X34.4735 Y74.4636
G2 X34.4716 Y74.4622 I-0.0658 J0.0881
G1 X34.3505 Y74.3758
G2 X34.3485 Y74.3744 I-0.0639 J0.0895
G1 X34.2291 Y74.2932
G2 X34.2269 Y74.2917 I-0.0618 J0.091
G1 X34.1092 Y74.2158
G2 X34.1068 Y74.2143 I-0.0596 J0.0924
G1 X33.9907 Y74.1437
G2 X33.9881 Y74.1421 I-0.0572 J0.0939
G1 X33.8738 Y74.0767
G2 X33.871 Y74.0751 I-0.0546 J0.0955
G1 X33.7582 Y74.0149
G2 X33.7552 Y74.0134 I-0.0518 J0.097
G1 X33.6442 Y73.9584
G2 X33.6409 Y73.9569 I-0.0488 J0.0986
G1 X33.5501 Y73.9156
G1 X33.6109 Y73.9085
G2 X33.6114 I-0.0127 J-0.1093
G1 X33.8727 Y73.8769
G2 X33.8732 I-0.0132 J-0.1092
G1 X34.1303 Y73.8448
G2 X34.1307 Y73.8447 I-0.0136 J-0.1092
G1 X34.3837 Y73.8121
G2 X34.3841 I-0.0141 J-0.1091
G1 X34.6329 Y73.7791
G2 X34.6335 Y73.779 I-0.0145 J-0.109
G1 X35.123 Y73.7116
G2 X35.1236 Y73.7115 I-0.015 J-0.109
G2 X37.0188 Y73.4258 I-18.057 J-126.1951
G2 X37.019 I-0.0172 J-0.1086
G1 X37.4327 Y73.3595
G2 X37.4332 Y73.3594 I-0.0174 J-0.1086
G1 X39.0353 Y73.0962
G2 X39.0354 I-0.0178 J-0.1085
G1 X40.4372 Y72.8645
G2 X40.4385 Y72.8642 I-0.0179 J-0.1085
G3 X40.5889 Y72.8397 I0.9413 J5.2929
G2 X40.592 Y72.8392 I-0.0162 J-0.1088
G3 X40.7398 Y72.8151 I0.8778 J4.9315
G2 X40.743 Y72.8146 I-0.016 J-0.1088
G3 X40.8883 Y72.7911 I0.8244 J4.632
G2 X40.8903 Y72.7908 I-0.0159 J-0.1088
G3 X43.2328 Y72.4335 I16.9512 J103.2729
G1 X43.6733 Y72.3727
G2 X43.6752 Y72.3724 I-0.015 J-0.109
G3 X43.774 Y72.3592 I0.3645 J2.3409
G2 X43.7784 Y72.3586 I-0.0123 J-0.1093
G3 X43.8756 Y72.3457 I0.3554 J2.3042
G2 X43.88 Y72.3451 I-0.0122 J-0.1093
G3 X43.9757 Y72.3325 I0.3467 J2.2694
G2 X43.9801 Y72.332 I-0.012 J-0.1093
G3 X44.0742 Y72.3198 I0.3382 J2.236
G2 X44.0786 Y72.3192 I-0.0119 J-0.1094
G3 X44.1712 Y72.3073 I0.33 J2.2043
G2 X44.1756 Y72.3067 I-0.0117 J-0.1094
G3 X44.2666 Y72.2952 I0.3222 J2.174
G2 X44.271 Y72.2946 I-0.0116 J-0.1094
G3 X44.3607 Y72.2834 I0.3145 J2.1451
G2 X44.365 Y72.2828 I-0.0114 J-0.1094
G3 X44.4532 Y72.2719 I0.3072 J2.1174
G2 X44.4576 Y72.2714 I-0.0113 J-0.1094
G3 X44.5443 Y72.2607 I0.3 J2.0909
G2 X44.5467 Y72.2605 I-0.0111 J-0.1094
G3 X47.4232 Y71.9913 I5.9916 J48.5286
G2 X47.4249 Y71.9912 I-0.007 J-0.1098
G3 X47.5109 Y71.986 I0.1729 J2.1629
G2 X47.515 Y71.9858 I-0.0044 J-0.1099
G3 X47.5983 Y71.981 I0.1655 J2.1451
G2 X47.6002 Y71.9809 I-0.0042 J-0.1099
G3 X48.9543 Y71.9296 I2.0942 J37.3828
G1
G1
G1
G3 X50.3081 Y71.9342 I0.5779 J29.4053
G3 X51.6672 Y72.0003 I-0.8769 J32.0156
G3 X54.0363 Y72.2457 I-2.5717 J36.3877
G2 X54.0367 Y72.2458 I0.0149 J-0.109
G3 X55.8035 Y72.5149 I-6.0855 J45.8779
G1 X55.8036 Y72.515
G3 X57.1241 Y72.7522 I-13.9042 J81.1851
G3 X59.0982 Y73.1465 I-20.4489 J107.5118
G1 X59.5911 Y73.2499
G1 X61.069 Y73.5653
G2 X61.1261 Y73.3531 I0.023 J-0.1076
G1 X60.2905 Y73.0798
G2 X60.2902 I-0.0342 J0.1046
G1 X59.4539 Y72.8086
G2 X59.4535 Y72.8085 I-0.0339 J0.1046
G1 X58.8951 Y72.63
G2 X58.8949 Y72.6299 I-0.0335 J0.1048
G2 X56.6489 Y71.9477 I-28.6247 J90.1972
G2 X56.6487 Y71.9476 I-0.0307 J0.1056
G2 X55.137 Y71.5371 I-14.298 J49.6658
G2 X53.0987 Y71.0732 I-9.3237 J36.2565
G2 X50.338 Y70.6621 I-5.5492 J27.7869
G2 X50.3368 Y70.662 I-0.0108 J0.1095
G1 X49.9793 Y70.6305
G2 X49.9783 I-0.0096 J0.1096
G2 X47.7113 Y70.5525 I-2.0162 J25.6405
G2 X47.5573 Y70.5542 I-0.0455 J2.9021
G2 X45.1445 Y70.6774 I0.5263 J34.0105
G2 X45.0668 Y70.684 I0.1063 J1.6959
G2 X44.9877 Y70.691 I0.111 J1.7059
G2 X43.3363 Y70.8691 I4.6205 J50.599
G2 X43.3358 I0.0136 J0.1092
G1 X42.8971 Y70.9257
G2 X42.8963 Y70.9259 I0.0141 J0.1091
G1 X42.4289 Y70.9899
G2 X42.4282 Y70.99 I0.0149 J0.109
G2 X41.3608 Y71.1484 I14.9879 J104.6238
G2 X41.3603 Y71.1485 I0.0167 J0.1087
G2 X38.5247 Y71.6248 I24.2232 J152.8956
G1 X36.9083 Y71.9096
G1 X36.0463 Y72.0589
G1 X35.6011 Y72.1344
G1 X35.601
G3 X33.5645 Y72.456 I-14.7909 J-87.0559
G1 X33.0375 Y72.5306
G3 X30.6236 Y72.8066 I-7.1457 J-51.8072
G1 X30.3162 Y72.8324
G1 X30.0038 Y72.8562
G1 X29.6863 Y72.8778
G1 X29.3633 Y72.8968
G3 X26.6405 Y72.9429 I-1.9908 J-37.1093
G1
G3 X23.9187 Y72.81 I0.899 J-46.3468
G2 X23.9166 Y72.8099 I-0.0086 J0.1097
G3 X23.7453 Y72.7963 I0.2542 J-4.3091
G2 X23.7431 Y72.7961 I-0.0108 J0.1095
G3 X21.8761 Y72.6144 I4.1256 J-52.058
G2 X21.8739 Y72.6141 I-0.0126 J0.1093
G3 X21.7593 Y72.6011 I0.2961 J-3.1087
G2 X21.7576 Y72.6009 I-0.0145 J0.109
G3 X19.2374 Y72.2674 I9.724 J-83.1762
G1 X18.5668 Y72.1659
G1 X17.8524 Y72.0529
G1 X17.091 Y71.9279
G1 X16.2794 Y71.7903
G1 X15.4143 Y71.6396
G1 X14.4919 Y71.4758
G2 X14.4908 Y71.4756 I-0.0192 J0.1083
G3 X14.2591 Y71.4341 I1.6175 J-9.6984
G2 X14.2567 Y71.4337 I-0.0207 J0.108
G3 X14.021 Y71.3914 I1.8604 J-11.0402
G2 X14.0189 Y71.391 I-0.0206 J0.1081
G3 X13.7792 Y71.3479 I2.2359 J-13.1204
G2 X13.7775 Y71.3476 I-0.0205 J0.1081
G3 X13.5335 Y71.3037 I2.9399 J-17.0259
G2 X13.5323 Y71.3034 I-0.0203 J0.1081
G3 X13.2838 Y71.2587 I5.2231 J-29.7006
G2 X13.2356 Y71.4732 I-0.02 J0.1082
G1 X14.5964 Y71.8339
G2 X14.747 Y71.8736 I1.4776 J-5.3019
G2 X17.0976 Y72.4783 I43.388 J-163.7997
G2 X17.0981 Y72.4784 I0.0266 J-0.1067
G1 X17.982 Y72.695
G2 X17.9829 Y72.6952 I0.0262 J-0.1068
G1 X18.7578 Y72.8784
G2 X18.7581 Y72.8785 I0.0253 J-0.1071
G2 X21.4886 Y73.4583 I15.5701 J-66.6015
G1
G2 X23.4018 Y73.7855 I9.3935 J-49.1626
G1 X23.4 Y73.7859
G2 X23.3965 Y73.7867 I0.0219 J0.1078
G1 X23.2695 Y73.8168
G2 X23.2659 Y73.8177 I0.0254 J0.107
G1 X23.1408 Y73.8519
G2 X23.1372 Y73.8529 I0.029 J0.1061
G1 X23.0138 Y73.8911
G2 X23.0103 Y73.8922 I0.0325 J0.1051
G1 X22.8888 Y73.9344
G2 X22.8852 Y73.9357 I0.0361 J0.1039
G1 X22.7655 Y73.9819
G2 X22.762 Y73.9834 I0.0396 J0.1026
G1 X22.6441 Y74.0336
G2 X22.6407 Y74.0351 I0.0431 J0.1012
G1 X22.5246 Y74.0894
G2 X22.5212 Y74.091 I0.0466 J0.0997
G1 X22.407 Y74.1493
G2 X22.4037 Y74.1511 I0.05 J0.098
G1 X22.2912 Y74.2134
G2 X22.288 Y74.2152 I0.0533 J0.0962
G1 X22.1774 Y74.2815
G2 X22.1748 Y74.2832 I0.0566 J0.0943
G1 X22.0994 Y74.3313
G2 X22.0974 Y74.3326 I0.0592 J0.0927
G1 X22.0203 Y74.3842
G2 X22.0185 Y74.3855 I0.0612 J0.0914
G1 X21.9397 Y74.4405
G2 X21.938 Y74.4417 I0.063 J0.0902
G1 X21.8575 Y74.5002
G2 X21.856 Y74.5013 I0.0647 J0.089
G1 X21.7738 Y74.5633
G2 X21.7724 Y74.5644 I0.0662 J0.0878
G1 X21.6885 Y74.6297
G2 X21.6872 Y74.6308 I0.0676 J0.0868
G1 X21.6017 Y74.6996
G2 X21.6004 Y74.7006 I0.0689 J0.0857
G1 X21.5132 Y74.7728
G2 X21.5121 Y74.7738 I0.0702 J0.0847
G1 X21.4231 Y74.8494
G2 X21.4221 Y74.8503 I0.0713 J0.0838
G1 X21.3315 Y74.9295
G2 X21.3305 Y74.9303 I0.0723 J0.0829
G1 X21.2382 Y75.0129
G2 X21.2372 Y75.0137 I0.0733 J0.082
G1 X21.1432 Y75.0997
G2 X21.1424 Y75.1005 I0.0743 J0.0812
G1 X21.0467 Y75.19
G2 X21.0459 Y75.1907 I0.0751 J0.0804
G1 X20.9485 Y75.2836
G2 X20.9478 Y75.2843 I0.0759 J0.0796
G1 X20.8487 Y75.3806
G2 X20.848 Y75.3813 I0.0767 J0.0789
G1 X20.7472 Y75.4811
G2 X20.7465 Y75.4818 I0.0774 J0.0782
G1 X20.6441 Y75.585
G2 X20.6435 Y75.5856 I0.0781 J0.0775
G1 X20.5393 Y75.6922
G2 X20.5387 Y75.6928 I0.0787 J0.0769
G1 X20.4329 Y75.8029
G2 X20.4323 Y75.8035 I0.0793 J0.0762
G1 X20.3248 Y75.917
G2 X20.3243 Y75.9176 I0.0799 J0.0756
G1 X20.2151 Y76.0345
G2 X20.2146 Y76.0351 I0.0804 J0.0751
G1 X20.1037 Y76.1555
G2 X20.1032 Y76.156 I0.0809 J0.0745
G1 X19.9906 Y76.2798
G2 X19.9902 Y76.2803 I0.0814 J0.074
G1 X19.8759 Y76.4076
G2 X19.8755 Y76.4081 I0.0818 J0.0735
G1 X19.8333 Y76.4556
G1 X19.7424 Y76.3733
G2 X19.7408 Y76.3719 I-0.0739 J0.0815
G1 X19.6112 Y76.2589
G2 X19.6104 Y76.2583 I-0.0723 J0.0829
G1 X19.4812 Y76.1477
G2 X19.4805 Y76.147 I-0.0715 J0.0836
G1 X19.3517 Y76.0389
G2 X19.3509 Y76.0382 I-0.0708 J0.0842
G1 X19.2226 Y75.9325
G2 X19.2218 Y75.9318 I-0.07 J0.0849
G1 X19.094 Y75.8286
G2 X19.0931 Y75.8279 I-0.0691 J0.0856
G1 X18.9658 Y75.727
G2 X18.9649 Y75.7264 I-0.0683 J0.0862
G1 X18.838 Y75.6279
G2 X18.8371 Y75.6272 I-0.0674 J0.0869
G1 X18.7106 Y75.5312
G2 X18.7097 Y75.5305 I-0.0665 J0.0876
G1 X18.5837 Y75.437
G2 X18.5827 Y75.4363 I-0.0656 J0.0883
G1 X18.4572 Y75.3452
G2 X18.4562 Y75.3444 I-0.0646 J0.089
G1 X18.3311 Y75.2557
G2 X18.33 Y75.255 I-0.0636 J0.0897
G1 X18.2054 Y75.1688
G2 X18.2044 Y75.168 I-0.0626 J0.0904
G1 X18.0802 Y75.0842
G2 X18.0791 Y75.0835 I-0.0615 J0.0912
G1 X17.9553 Y75.0021
G2 X17.9542 Y75.0013 I-0.0605 J0.0919
G1 X17.831 Y74.9224
G2 X17.8298 Y74.9216 I-0.0593 J0.0926
G1 X17.707 Y74.8451
G2 X17.7058 Y74.8443 I-0.0582 J0.0934
G1 X17.5834 Y74.7702
G2 X17.5822 Y74.7695 I-0.057 J0.0941
G1 X17.4603 Y74.6978
G2 X17.459 Y74.6971 I-0.0558 J0.0948
G1 X17.3376 Y74.6278
G2 X17.3362 Y74.6271 I-0.0545 J0.0956
G1 X17.2152 Y74.5602
G2 X17.2139 Y74.5595 I-0.0532 J0.0963
G1 X17.0934 Y74.4951
G2 X17.092 Y74.4944 I-0.0518 J0.097
G1 X16.9719 Y74.4324
G2 X16.9704 Y74.4317 I-0.0504 J0.0978
G1 X16.8508 Y74.3721
G2 X16.8493 Y74.3714 I-0.049 J0.0985
G1 X16.7302 Y74.3143
G2 X16.7286 Y74.3136 I-0.0475 J0.0992
G1 X16.6099 Y74.2589
G2 X16.6084 Y74.2582 I-0.046 J0.0999
G1 X16.4901 Y74.206
G2 X16.4885 Y74.2053 I-0.0445 J0.1006
G1 X16.3707 Y74.1555
G2 X16.369 Y74.1548 I-0.0428 J0.1013
G1 X16.2517 Y74.1074
G2 X16.25 Y74.1067 I-0.0412 J0.102
G1 X16.1331 Y74.0618
G2 X16.1313 Y74.0611 I-0.0395 J0.1027
G1 X16.0149 Y74.0186
G2 X16.0131 Y74.0179 I-0.0377 J0.1033
G1 X15.8971 Y73.9778
G2 X15.8952 Y73.9772 I-0.0359 J0.104
G1 X15.7797 Y73.9396
G2 X15.7778 Y73.939 I-0.0341 J0.1046
G1 X15.6627 Y73.9037
G2 X15.6608 Y73.9031 I-0.0322 J0.1052
G1 X15.5462 Y73.8703
G2 X15.5442 Y73.8698 I-0.0303 J0.1058
G1 X15.43 Y73.8394
G2 X15.428 Y73.8389 I-0.0283 J0.1063
G1 X15.3143 Y73.8109
G2 X15.3122 Y73.8105 I-0.0263 J0.1068
G1 X15.1989 Y73.7849
G2 X15.1968 Y73.7845 I-0.0242 J0.1073
G1 X15.084 Y73.7614
G2 X15.0819 Y73.761 I-0.0221 J0.1078
G1 X14.9695 Y73.7403
G2 X14.9673 Y73.7399 I-0.0199 J0.1082
G1 X14.8554 Y73.7217
G2 X14.8532 Y73.7214 I-0.0177 J0.1086
G1 X14.7417 Y73.7056
G2 X14.7395 Y73.7053 I-0.0154 J0.1089
G1 X14.6285 Y73.6919
G2 X14.6261 Y73.6917 I-0.0132 J0.1092
G1 X14.5156 Y73.6807
G2 X14.5133 Y73.6805 I-0.0108 J0.1095
G1 X14.4032 Y73.672
G2 X14.4008 Y73.6718 I-0.0085 J0.1097
G1 X14.2912 Y73.6658
G2 X14.2888 Y73.6657 I-0.0061 J0.1098
G1 X14.1796 Y73.662
G2 X14.1772 I-0.0037 J0.1099
G1 X14.0685 Y73.6608
G2 X14.066 I-0.0012 J0.11
G1 X13.9173 Y73.6624
G2 X13.9147 Y73.6625 I0.0012 J0.11
G1 X13.7679 Y73.6675
G2 X13.7653 Y73.6676 I0.0038 J0.1099
G1 X13.6203 Y73.676
G2 X13.6176 Y73.6762 I0.0064 J0.1098
G1 X13.4745 Y73.688
G2 X13.4718 Y73.6882 I0.009 J0.1096
G1 X13.3305 Y73.7034
G2 X13.3278 Y73.7037 I0.0117 J0.1094
G1 X13.1883 Y73.7222
G2 X13.1855 Y73.7226 I0.0144 J0.109
G1 X13.048 Y73.7444
G2 X13.0451 Y73.7449 I0.0172 J0.1086
G1 X12.9094 Y73.7701
G2 X12.9066 Y73.7706 I0.0201 J0.1082
G1 X12.7727 Y73.7992
G2 X12.7698 Y73.7999 I0.0229 J0.1076
G1 X12.6379 Y73.8318
G2 X12.6349 Y73.8325 I0.0259 J0.1069
G1 X12.5048 Y73.8678
G2 X12.5019 Y73.8686 I0.0288 J0.1062
G1 X12.3736 Y73.9073
G2 X12.3707 Y73.9082 I0.0317 J0.1053
G1 X12.2443 Y73.9502
G2 X12.2413 Y73.9512 I0.0347 J0.1044
G1 X12.1168 Y73.9966
G2 X12.1139 Y73.9977 I0.0376 J0.1034
G1 X11.9912 Y74.0464
G2 X11.9883 Y74.0476 I0.0406 J0.1022
G1 X11.8675 Y74.0997
G2 X11.8645 Y74.101 I0.0435 J0.101
G1 X11.7456 Y74.1564
G2 X11.7427 Y74.1578 I0.0465 J0.0997
G1 X11.6256 Y74.2166
G2 X11.6228 Y74.2181 I0.0494 J0.0983
G1 X11.5076 Y74.2802
G2 X11.5048 Y74.2818 I0.0522 J0.0968
G1 X11.3914 Y74.3473
G2 X11.3886 Y74.3489 I0.055 J0.0952
G1 X11.2772 Y74.4178
G2 X11.2744 Y74.4195 I0.0578 J0.0936
G1 X11.1648 Y74.4917
G2 X11.1622 Y74.4935 I0.0605 J0.0919
G1 X11.0544 Y74.5691
G2 X11.0518 Y74.571 I0.0632 J0.0901
G1 X10.9459 Y74.6499
G2 X10.9434 Y74.6518 I0.0657 J0.0882
G1 X10.8394 Y74.7341
G2 X10.837 Y74.7361 I0.0682 J0.0863
G1 X10.7348 Y74.8218
G2 X10.7325 Y74.8238 I0.0707 J0.0843
G1 X10.6322 Y74.9128
G2 X10.6299 Y74.9148 I0.073 J0.0823
G1 X10.5315 Y75.0072
G2 X10.5292 Y75.0093 I0.0753 J0.0802
G1 X10.43 Y75.1078
G2 X10.4278 Y75.1101 I0.0775 J0.0781
G1 X10.3323 Y75.2105
G2 X10.3301 Y75.2129 I0.0797 J0.0758
G1 X10.2383 Y75.3152
G2 X10.2362 Y75.3177 I0.0819 J0.0734
G1 X10.1481 Y75.4219
G2 X10.146 Y75.4245 I0.084 J0.071
G1 X10.0618 Y75.5306
G2 X10.0597 Y75.5333 I0.0862 J0.0684
G1 X9.9792 Y75.6413
G2 X9.9772 Y75.6441 I0.0882 J0.0657
G1 X9.9004 Y75.7541
G2 X9.8985 Y75.7569 I0.0902 J0.063
G1 X9.8255 Y75.8688
G2 X9.8236 Y75.8717 I0.0921 J0.0601
G1 X9.7543 Y75.9855
G2 X9.7526 Y75.9885 I0.094 J0.0572
G1 X9.687 Y76.1042
G2 X9.6854 Y76.1073 I0.0957 J0.0542
G1 X9.6236 Y76.2249
G2 X9.622 Y76.228 I0.0974 J0.0512
G1 X9.5639 Y76.3476
G2 X9.5625 Y76.3507 I0.0989 J0.0481
G1 X9.5082 Y76.4722
G2 X9.5068 Y76.4754 I0.1004 J0.0449
G1 X9.4562 Y76.5987
G2 X9.455 Y76.602 I0.1018 J0.0417
G1 X9.4081 Y76.7272
G2 X9.407 Y76.7305 I0.103 J0.0385
G1 X9.3639 Y76.8577
G2 X9.3629 Y76.8609 I0.1042 J0.0353
G1 X9.3236 Y76.99
G2 X9.3226 Y76.9932 I0.1052 J0.0321
G1 X9.2871 Y77.1243
G2 X9.2862 Y77.1275 I0.1062 J0.0288
G1 X9.2544 Y77.2604
G2 X9.2537 Y77.2636 I0.107 J0.0256
G1 X9.2256 Y77.3985
G2 X9.225 Y77.4016 I0.1077 J0.0224
G1 X9.2006 Y77.5384
G2 X9.2001 Y77.5415 I0.1083 J0.0193
G1 X9.1795 Y77.6802
G2 X9.1791 Y77.6832 I0.1088 J0.0162
G1 X9.1623 Y77.8238
G2 X9.1619 Y77.8269 I0.1092 J0.0131
G1 X9.1488 Y77.9694
G2 X9.1486 Y77.9723 I0.1095 J0.0101
G1 X9.1392 Y78.1168
G2 X9.1391 Y78.1197 I0.1098 J0.0071
G1 X9.1335 Y78.266
G2 X9.1334 Y78.2688 I0.1099 J0.0042
G1 X9.1315 Y78.4171
G2 Y78.4199 I0.11 J0.0014
G1 X9.1334 Y78.5663
G2 X9.1335 Y78.5692 I0.11 J-0.0014
G1 X9.1391 Y78.7136
G2 X9.1393 Y78.7165 I0.1099 J-0.0043
G1 X9.1487 Y78.8588
G2 X9.1489 Y78.8618 I0.1098 J-0.0072
G1 X9.1621 Y79.002
G2 X9.1624 Y79.0051 I0.1095 J-0.0103
G1 X9.1793 Y79.1431
G2 X9.1797 Y79.1463 I0.1092 J-0.0134
G1 X9.2004 Y79.2823
G2 X9.2009 Y79.2855 I0.1088 J-0.0165
G1 X9.2254 Y79.4194
G2 X9.226 Y79.4226 I0.1082 J-0.0197
G1 X9.2542 Y79.5544
G2 X9.255 Y79.5577 I0.1076 J-0.023
G1 X9.2869 Y79.6875
G2 X9.2878 Y79.6908 I0.1068 J-0.0263
G1 X9.3235 Y79.8184
G2 X9.3245 Y79.8218 I0.1059 J-0.0296
G1 X9.3639 Y79.9473
G2 X9.3651 Y79.9506 I0.1049 J-0.033
G1 X9.4083 Y80.0741
G2 X9.4095 Y80.0774 I0.1038 J-0.0363
G1 X9.4565 Y80.1988
G2 X9.4578 Y80.2021 I0.1026 J-0.0397
G1 X9.5086 Y80.3214
G2 X9.5101 Y80.3247 I0.1012 J-0.0431
G1 X9.5645 Y80.4419
G2 X9.5661 Y80.4452 I0.0997 J-0.0464
G1 X9.6244 Y80.5603
G2 X9.6261 Y80.5635 I0.0981 J-0.0497
G1 X9.6881 Y80.6765
G2 X9.6899 Y80.6797 I0.0964 J-0.0529
G1 X9.7557 Y80.7906
G2 X9.7576 Y80.7937 I0.0946 J-0.0561
G1 X9.8271 Y80.9025
G2 X9.8292 Y80.9055 I0.0927 J-0.0592
G1 X9.9024 Y81.0122
G2 X9.9045 Y81.0152 I0.0907 J-0.0623
G1 X9.9816 Y81.1198
G2 X9.9837 Y81.1227 I0.0886 J-0.0652
G1 X10.0645 Y81.2252
G2 X10.0668 Y81.228 I0.0864 J-0.0681
G1 X10.1513 Y81.3284
G2 X10.1537 Y81.331 I0.0842 J-0.0708
G1 X10.242 Y81.4294
G2 X10.2443 Y81.4319 I0.0818 J-0.0735
G1 X10.3364 Y81.5282
G2 X10.3388 Y81.5306 I0.0795 J-0.076
G1 X10.4346 Y81.6248
G2 X10.437 Y81.6271 I0.0771 J-0.0785
G1 X10.5366 Y81.7192
G2 X10.5391 Y81.7214 I0.0747 J-0.0808
G1 X10.6424 Y81.8113
G2 X10.6449 Y81.8134 I0.0722 J-0.083
G1 X10.752 Y81.9013
G2 X10.7544 Y81.9033 I0.0698 J-0.085
G1 X10.8653 Y81.9891
G2 X10.8673 Y81.9906 I0.0673 J-0.087
G1 X10.9833 Y82.0762
G2 X10.9856 Y82.0779 I0.0653 J-0.0885
G1 X11.1027 Y82.1598
G2 X11.1052 Y82.1614 I0.063 J-0.0902
G1 X11.2234 Y82.2395
G2 X11.2259 Y82.2411 I0.0606 J-0.0918
