( Mach3 CNC Laser Code )
( Chris' Circuits - http://ChrisCircuits.com )
( Kitchen Sink Electronics - http://KitchenSinkElectronics.com )
( side 4/26/2017 5:57:04 PM )
( T0 : 0.22 )
G21 G90 G91.1 G64 G40
G0
( T0 : 0.22 )
T0 M6
G0
M8
( Profile1 )
G17
S1000
G0
G0 X11.7774 Y16.4685
G1 F300.0
E1P1
G1 F400.0 Y20.6685
G2 X12.7174 Y21.6085 I0.94 J0.0
G1 X23.2174
G2 X24.1574 Y20.6685 I0.0 J-0.94
G1 Y16.4685
G2 X23.2174 Y15.5285 I-0.94 J0.0
G1 X12.7174
G2 X11.7774 Y16.4685 I0.0 J0.94
E1P0
G0
G0 X19.693 Y33.2634
G1 F300.0
E1P1
G2 F400.0 X19.1824 Y34.0685 I0.3794 J0.8051
G1 Y46.0685
G2 X20.0724 Y46.9585 I0.89 J0.0
G1 X35.0724
G2 X35.9624 Y46.0685 I0.0 J-0.89
G1 Y34.0685
G2 X35.0724 Y33.1785 I-0.89 J0.0
G1 X20.0724
G2 X19.693 Y33.2634 I0.0 J0.89
E1P0
G0
G0 X31.9038 Y24.3435
G1 F300.0
E1P1
G2 F400.0 X32.6224 Y24.7085 I0.7187 J-0.525
G1 X45.6224
G2 X46.5124 Y23.8185 I0.0 J-0.89
G1 Y17.8185
G2 X45.6224 Y16.9285 I-0.89 J0.0
G1 X32.6224
G2 X31.7324 Y17.8185 I0.0 J0.89
G1 Y23.8185
G2 X31.9038 Y24.3435 I0.89 J0.0
E1P0
G0
G0 X41.9147 Y33.4689
G1 F300.0
E1P1
G2 F400.0 X41.6824 Y34.0685 I0.6577 J0.5996
G1 Y46.0685
G2 X42.5724 Y46.9585 I0.89 J0.0
G1 X57.5724
G2 X58.4624 Y46.0685 I0.0 J-0.89
G1 Y34.0685
G2 X57.5724 Y33.1785 I-0.89 J0.0
G1 X42.5724
G2 X41.9147 Y33.4689 I0.0 J0.89
E1P0
G0
G0 X57.5084 Y21.6831
G1 F300.0
E1P1
G2 F400.0 X58.5774 Y22.6275 I2.864 J-2.1646
G2 X63.9624 Y19.5185 I1.795 J-3.109
G2 X58.5774 Y16.4095 I-3.59 J0.0
G2 X57.5084 Y21.6831 I1.795 J3.109
E1P0
G0
G0 X64.6086 Y33.3089
G1 F300.0
E1P1
G2 F400.0 X64.1824 Y34.0685 I0.4639 J0.7596
G1 Y46.0685
G2 X65.0724 Y46.9585 I0.89 J0.0
G1 X80.0724
G2 X80.9624 Y46.0685 I0.0 J-0.89
G1 Y34.0685
G2 X80.0724 Y33.1785 I-0.89 J0.0
G1 X65.0724
G2 X64.6086 Y33.3089 I0.0 J0.89
E1P0
G0
( Profile2 )
S1000
G0
G0 X4.3724 Y1.2585
G1 F300.0
E1P1
G1 F400.0 X11.8975
G3 X12.0075 Y1.3685 I0.0 J0.11
G1 Y3.9585
G1 X22.0125
G1 Y1.3685
G3 X22.1225 Y1.2585 I0.11 J0.0
G1 X28.1225
G3 X28.2325 Y1.3685 I0.0 J0.11
G1 Y3.9585
G1 X34.0125
G1 Y1.3685
G3 X34.1225 Y1.2585 I0.11 J0.0
G1 X40.1225
G3 X40.2325 Y1.3685 I0.0 J0.11
G1 Y3.9585
G1 X46.0125
G1 Y1.3685
G3 X46.1225 Y1.2585 I0.11 J0.0
G1 X52.1225
G3 X52.2325 Y1.3685 I0.0 J0.11
G1 Y3.9585
G1 X58.0125
G1 Y1.3685
G3 X58.1225 Y1.2585 I0.11 J0.0
G1 X64.1225
G3 X64.2325 Y1.3685 I0.0 J0.11
G1 Y3.9585
G1 X70.0125
G1 Y1.3685
G3 X70.1225 Y1.2585 I0.11 J0.0
G1 X76.1225
G3 X76.2325 Y1.3685 I0.0 J0.11
G1 Y3.9585
G1 X86.2375
G1 Y1.3685
G3 X86.3475 Y1.2585 I0.11 J0.0
G1 X93.8725
G3 X93.9825 Y1.3685 I0.0 J0.11
G1 Y9.3585
G1 X96.5725
G3 X96.6825 Y9.4685 I0.0 J0.11
G1 Y17.5685
G3 X96.5725 Y17.6785 I-0.11 J0.0
G1 X93.9825
G1 Y23.4585
G1 X96.5725
G3 X96.6825 Y23.5685 I0.0 J0.11
G1 Y29.5685
G3 X96.5725 Y29.6785 I-0.11 J0.0
G1 X93.9825
G1 Y35.4585
G1 X96.5725
G3 X96.6825 Y35.5685 I0.0 J0.11
G1 Y43.6685
G3 X96.5725 Y43.7785 I-0.11 J0.0
G1 X93.9825
G1 Y51.7685
G3 X93.8725 Y51.8785 I-0.11 J0.0
G1 X86.3475
G3 X86.2375 Y51.7685 I0.0 J-0.11
G1 Y49.1785
G1 X76.2325
G1 Y51.7685
G3 X76.1225 Y51.8785 I-0.11 J0.0
G1 X70.1225
G3 X70.0125 Y51.7685 I0.0 J-0.11
G1 Y49.1785
G1 X64.2325
G1 Y51.7685
G3 X64.1225 Y51.8785 I-0.11 J0.0
G1 X58.1225
G3 X58.0125 Y51.7685 I0.0 J-0.11
G1 Y49.1785
G1 X52.2325
G1 Y51.7685
G3 X52.1225 Y51.8785 I-0.11 J0.0
G1 X46.1225
G3 X46.0125 Y51.7685 I0.0 J-0.11
G1 Y49.1785
G1 X40.2325
G1 Y51.7685
G3 X40.1225 Y51.8785 I-0.11 J0.0
G1 X34.1225
G3 X34.0125 Y51.7685 I0.0 J-0.11
G1 Y49.1785
G1 X28.2325
G1 Y51.7685
G3 X28.1225 Y51.8785 I-0.11 J0.0
G1 X22.1225
G3 X22.0125 Y51.7685 I0.0 J-0.11
G1 Y49.1785
G1 X12.0075
G1 Y51.7685
G3 X11.8975 Y51.8785 I-0.11 J0.0
G1 X4.3724
G3 X4.2624 Y51.7685 I0.0 J-0.11
G1 Y43.7785
G1 X1.6724
G3 X1.5624 Y43.6685 I0.0 J-0.11
G1 Y35.5685
G3 X1.6724 Y35.4585 I0.11 J0.0
G1 X4.2624
G1 Y29.6785
G1 X1.6724
G3 X1.5624 Y29.5685 I0.0 J-0.11
G1 Y23.5685
G3 X1.6724 Y23.4585 I0.11 J0.0
G1 X4.2624
G1 Y17.6785
G1 X1.6724
G3 X1.5624 Y17.5685 I0.0 J-0.11
G1 Y9.4685
G3 X1.6724 Y9.3585 I0.11 J0.0
G1 X4.2624
G1 Y1.3685
G3 X4.3724 Y1.2585 I0.11 J0.0
E1P0
G0
E1P0
G0
G1 X0.00 Y0.00
M5
G0
M9
M30
