( Mach3 CNC Laser Code )
( Chris' Circuits - http://ChrisCircuits.com )
( Kitchen Sink Electronics - http://KitchenSinkElectronics.com )
( standoff 4/24/2017 10:52:51 PM )
( T0 : 0.22 )
G21 G90 G91.1 G64 G40
G0
( T0 : 0.22 )
T0 M6
G0
M8
( Profile1 )
G17
S1000
G0
G0 X5.8853 Y6.0939
G1 F300.0
E1P1
G2 F400.0 X3.6503 Y4.8035 I-1.49 J0.0
G2 Y7.3843 I0.745 J1.2904
G2 X5.8853 Y6.0939 I0.745 J-1.2904
E1P0
G0
G0 X10.4987 Y4.6631
G1 F300.0
E1P1
G1 F400.0 X13.1907
G1 Y1.9711
G1 X10.4987
G1 Y4.6631
E1P0
G0
G0 X14.6987
G1 F300.0
E1P1
G1 F400.0 X17.3907
G1 Y1.9711
G1 X14.6987
G1 Y4.6631
E1P0
G0
G0 X18.294 Y0.982
G1 F300.0
E1P1
G2 F400.0 X18.3084 Y0.993 I0.0507 J-0.0519
G2 X18.4173 Y0.9301 I0.0363 J-0.0629
G2 X18.3084 Y0.8673 I-0.0726 J0.0
G2 X18.294 Y0.982 I0.0363 J0.0629
E1P0
G0
G0 X17.3907 Y10.1711
G1 F300.0
E1P1
G1 F400.0 X14.6987
G1 Y12.8631
G1 X17.3907
G1 Y10.1711
E1P0
G0
G0 X13.1907
G1 F300.0
E1P1
G1 F400.0 X10.4987
G1 Y12.8631
G1 X13.1907
G1 Y10.1711
E1P0
G0
( Profile2 )
S1000
G0
G0 X8.9124 Y0.2178
G1 F300.0
E1P1
G1 F400.0 X18.977
G3 X19.087 Y0.3278 I0.0 J0.11
G1 Y14.5065
G3 X18.977 Y14.6165 I-0.11 J0.0
G1 X8.9124
G3 X8.8024 Y14.5065 I0.0 J-0.11
G1 Y0.3278
G3 X8.9124 Y0.2178 I0.11 J0.0
E1P0
G0
( Profile3 )
S1000
G0
G0 X0.8953 Y0.4839
G1 F300.0
E1P1
G1 F400.0 X2.9953
G3 X3.1053 Y0.5939 I0.0 J0.11
G1 Y3.2839
G1 X5.6853
G1 Y0.5939
G3 X5.7953 Y0.4839 I0.11 J0.0
G1 X7.8953
G3 X8.0053 Y0.5939 I0.0 J0.11
G1 Y11.5939
G3 X7.8953 Y11.7039 I-0.11 J0.0
G1 X5.7953
G3 X5.6853 Y11.5939 I0.0 J-0.11
G1 Y8.9039
G1 X3.1053
G1 Y11.5939
G3 X2.9953 Y11.7039 I-0.11 J0.0
G1 X0.8953
G3 X0.7853 Y11.5939 I0.0 J-0.11
G1 Y0.5939
G3 X0.8953 Y0.4839 I0.11 J0.0
E1P0
G0
G0 X2.9757 Y12.0024
G1 F300.0
E1P1
G3 F400.0 X2.9953 Y12.0007 I0.0196 J0.1082
G1 X5.7953
G3 X5.9053 Y12.1107 I0.0 J0.11
G1 Y14.8007
G1 X7.8953
G3 X8.0053 Y14.9107 I0.0 J0.11
G1 Y21.1107
G3 X7.8953 Y21.2207 I-0.11 J0.0
G1 X5.0953
G3 X4.9853 Y21.1107 I0.0 J-0.11
G1 Y18.4207
G1 X3.8053
G1 Y21.1107
G3 X3.6953 Y21.2207 I-0.11 J0.0
G1 X0.8953
G3 X0.7853 Y21.1107 I0.0 J-0.11
G1 Y14.9107
G3 X0.8953 Y14.8007 I0.11 J0.0
G1 X2.8853
G1 Y12.1107
G3 X2.9757 Y12.0024 I0.11 J0.0
E1P0
G0
G0 X2.9951 Y21.6004
G1 F300.0
E1P1
G3 F400.0 X2.9953 I0.0002 J0.11
G1 X5.7953
G3 X5.9053 Y21.7104 I0.0 J0.11
G1 Y24.4004
G1 X7.8953
G3 X8.0053 Y24.5104 I0.0 J0.11
G1 Y30.7104
G3 X7.8953 Y30.8204 I-0.11 J0.0
G1 X5.0953
G3 X4.9853 Y30.7104 I0.0 J-0.11
G1 Y28.0204
G1 X3.8053
G1 Y30.7104
G3 X3.6953 Y30.8204 I-0.11 J0.0
G1 X0.8953
G3 X0.7853 Y30.7104 I0.0 J-0.11
G1 Y24.5104
G3 X0.8953 Y24.4004 I0.11 J0.0
G1 X2.8853
G1 Y21.7104
G3 X2.9951 Y21.6004 I0.11 J0.0
E1P0
G0
E1P0
G0
G1 X0.00 Y0.00
M5
G0
M9
M30
