( Mach3 CNC Laser Code )
( Chris' Circuits - http://ChrisCircuits.com )
( Kitchen Sink Electronics - http://KitchenSinkElectronics.com )
( standoff 4/25/2017 10:04:33 PM )
( T0 : 0.22 )
G21 G90 G91.1 G64 G40
G0
( T0 : 0.22 )
T0 M6
G0
M8
( Profile1 )
G17
S1000
G0
G0 X13.9024 Y6.0939
G1 F300.0
E1P1
G2 F400.0 X11.6674 Y4.8035 I-1.49 J0.0
G2 Y7.3843 I0.745 J1.2904
G2 X13.9024 Y6.0939 I0.745 J-1.2904
E1P0
G0
G0 X5.8853
G1 F300.0
E1P1
G2 F400.0 X3.6503 Y4.8035 I-1.49 J0.0
G2 Y7.3843 I0.745 J1.2904
G2 X5.8853 Y6.0939 I0.745 J-1.2904
E1P0
G0
G0 X4.4673 Y35.402
G1 F300.0
E1P1
G2 F400.0 X3.6503 Y35.5999 I-0.072 J1.4883
G2 Y38.1807 I0.745 J1.2904
G2 X5.8853 Y36.8903 I0.745 J-1.2904
G2 X4.4673 Y35.402 I-1.49 J0.0
E1P0
G0
G0 X10.9065 Y36.6146
G1 F300.0
E1P1
G2 F400.0 X11.6258 Y38.1807 I1.4643 J0.2757
G2 X13.8608 Y36.8903 I0.745 J-1.2904
G2 X11.6258 Y35.5999 I-1.49 J0.0
G2 X10.9065 Y36.6146 I0.745 J1.2904
E1P0
G0
( Profile2 )
S1000
G0
G0 X0.8953 Y0.4839
G1 F300.0
E1P1
G1 F400.0 X2.9953
G3 X3.1053 Y0.5939 I0.0 J0.11
G1 Y3.2839
G1 X5.6853
G1 Y0.5939
G3 X5.7953 Y0.4839 I0.11 J0.0
G1 X7.8953
G3 X8.0053 Y0.5939 I0.0 J0.11
G1 Y11.5939
G3 X7.8953 Y11.7039 I-0.11 J0.0
G1 X5.7953
G3 X5.6853 Y11.5939 I0.0 J-0.11
G1 Y8.9039
G1 X3.1053
G1 Y11.5939
G3 X2.9953 Y11.7039 I-0.11 J0.0
G1 X0.8953
G3 X0.7853 Y11.5939 I0.0 J-0.11
G1 Y0.5939
G3 X0.8953 Y0.4839 I0.11 J0.0
E1P0
G0
G0 X8.8024 Y0.5924
G1 F300.0
E1P1
G3 F400.0 X8.9124 Y0.4839 I0.11 J0.0015
G1 X11.0124
G3 X11.1224 Y0.5939 I0.0 J0.11
G1 Y3.2839
G1 X13.7024
G1 Y0.5939
G3 X13.8124 Y0.4839 I0.11 J0.0
G1 X15.9124
G3 X16.0224 Y0.5939 I0.0 J0.11
G1 Y11.5939
G3 X15.9124 Y11.7039 I-0.11 J0.0
G1 X13.8124
G3 X13.7024 Y11.5939 I0.0 J-0.11
G1 Y8.9039
G1 X11.1224
G1 Y11.5939
G3 X11.0124 Y11.7039 I-0.11 J0.0
G1 X8.9124
G3 X8.8024 Y11.5939 I0.0 J-0.11
G1 Y0.5939
G3 Y0.5924 I0.11 J0.0
E1P0
G0
G0 X10.9917 Y12.0027
G1 F300.0
E1P1
G3 F400.0 X11.0124 Y12.0007 I0.0207 J0.108
G1 X13.8124
G3 X13.9224 Y12.1107 I0.0 J0.11
G1 Y14.8007
G1 X15.9124
G3 X16.0224 Y14.9107 I0.0 J0.11
G1 Y21.1107
G3 X15.9124 Y21.2207 I-0.11 J0.0
G1 X13.1124
G3 X13.0024 Y21.1107 I0.0 J-0.11
G1 Y18.4207
G1 X11.8224
G1 Y21.1107
G3 X11.7124 Y21.2207 I-0.11 J0.0
G1 X8.9124
G3 X8.8024 Y21.1107 I0.0 J-0.11
G1 Y14.9107
G3 X8.9124 Y14.8007 I0.11 J0.0
G1 X10.9024
G1 Y12.1107
G3 X10.9917 Y12.0027 I0.11 J0.0
E1P0
G0
G0 X7.9755 Y14.8354
G1 F300.0
E1P1
G3 F400.0 X8.0053 Y14.9107 I-0.0802 J0.0753
G1 Y21.1107
G3 X7.8953 Y21.2207 I-0.11 J0.0
G1 X5.0953
G3 X4.9853 Y21.1107 I0.0 J-0.11
G1 Y18.4207
G1 X3.8053
G1 Y21.1107
G3 X3.6953 Y21.2207 I-0.11 J0.0
G1 X0.8953
G3 X0.7853 Y21.1107 I0.0 J-0.11
G1 Y14.9107
G3 X0.8953 Y14.8007 I0.11 J0.0
G1 X2.8853
G1 Y12.1107
G3 X2.9953 Y12.0007 I0.11 J0.0
G1 X5.7953
G3 X5.9053 Y12.1107 I0.0 J0.11
G1 Y14.8007
G1 X7.8953
G3 X7.9755 Y14.8354 I0.0 J0.11
E1P0
G0
G0 X5.8285 Y21.6055
G1 F300.0
E1P1
G3 F400.0 X5.9053 Y21.7104 I-0.0333 J0.1049
G1 Y24.4004
G1 X7.8953
G3 X8.0053 Y24.5104 I0.0 J0.11
G1 Y30.7104
G3 X7.8953 Y30.8204 I-0.11 J0.0
G1 X5.0953
G3 X4.9853 Y30.7104 I0.0 J-0.11
G1 Y28.0204
G1 X3.8053
G1 Y30.7104
G3 X3.6953 Y30.8204 I-0.11 J0.0
G1 X0.8953
G3 X0.7853 Y30.7104 I0.0 J-0.11
G1 Y24.5104
G3 X0.8953 Y24.4004 I0.11 J0.0
G1 X2.8853
G1 Y21.7104
G3 X2.9953 Y21.6004 I0.11 J0.0
G1 X5.7953
G3 X5.8285 Y21.6055 I0.0 J0.11
E1P0
G0
G0 X8.8324 Y24.435
G1 F300.0
E1P1
G3 F400.0 X8.9124 Y24.4004 I0.0801 J0.0754
G1 X10.9024
G1 Y21.7104
G3 X11.0124 Y21.6004 I0.11 J0.0
G1 X13.8124
G3 X13.9224 Y21.7104 I0.0 J0.11
G1 Y24.4004
G1 X15.9124
G3 X16.0224 Y24.5104 I0.0 J0.11
G1 Y30.7104
G3 X15.9124 Y30.8204 I-0.11 J0.0
G1 X13.1124
G3 X13.0024 Y30.7104 I0.0 J-0.11
G1 Y28.0204
G1 X11.8224
G1 Y30.7104
G3 X11.7124 Y30.8204 I-0.11 J0.0
G1 X8.9124
G3 X8.8024 Y30.7104 I0.0 J-0.11
G1 Y24.5104
G3 X8.8324 Y24.435 I0.11 J0.0
E1P0
G0
G0 X8.8702 Y31.2803
G1 F300.0
E1P1
G3 F400.0 X8.8708 I0.0006 J0.11
G1 X10.9708
G3 X11.0808 Y31.3903 I0.0 J0.11
G1 Y34.0803
G1 X13.6608
G1 Y31.3903
G3 X13.7708 Y31.2803 I0.11 J0.0
G1 X15.8708
G3 X15.9808 Y31.3903 I0.0 J0.11
G1 Y42.3903
G3 X15.8708 Y42.5003 I-0.11 J0.0
G1 X13.7708
G3 X13.6608 Y42.3903 I0.0 J-0.11
G1 Y39.7003
G1 X11.0808
G1 Y42.3903
G3 X10.9708 Y42.5003 I-0.11 J0.0
G1 X8.8708
G3 X8.7608 Y42.3903 I0.0 J-0.11
G1 Y31.3903
G3 X8.8702 Y31.2803 I0.11 J0.0
E1P0
G0
G0 X8.0046 Y31.3779
G1 F300.0
E1P1
G3 F400.0 X8.0053 Y31.3903 I-0.1093 J0.0123
G1 Y42.3903
G3 X7.8953 Y42.5003 I-0.11 J0.0
G1 X5.7953
G3 X5.6853 Y42.3903 I0.0 J-0.11
G1 Y39.7003
G1 X3.1053
G1 Y42.3903
G3 X2.9953 Y42.5003 I-0.11 J0.0
G1 X0.8953
G3 X0.7853 Y42.3903 I0.0 J-0.11
G1 Y31.3903
G3 X0.8953 Y31.2803 I0.11 J0.0
G1 X2.9953
G3 X3.1053 Y31.3903 I0.0 J0.11
G1 Y34.0803
G1 X5.6853
G1 Y31.3903
G3 X5.7953 Y31.2803 I0.11 J0.0
G1 X7.8953
G3 X8.0046 Y31.3779 I0.0 J0.11
E1P0
G0
G0 X5.816 Y42.799
G1 F300.0
E1P1
G3 F400.0 X5.9053 Y42.9071 I-0.0207 J0.108
G1 Y45.5971
G1 X7.8953
G3 X8.0053 Y45.7071 I0.0 J0.11
G1 Y51.9071
G3 X7.8953 Y52.0171 I-0.11 J0.0
G1 X5.0953
G3 X4.9853 Y51.9071 I0.0 J-0.11
G1 Y49.2171
G1 X3.8053
G1 Y51.9071
G3 X3.6953 Y52.0171 I-0.11 J0.0
G1 X0.8953
G3 X0.7853 Y51.9071 I0.0 J-0.11
G1 Y45.7071
G3 X0.8953 Y45.5971 I0.11 J0.0
G1 X2.8853
G1 Y42.9071
G3 X2.9953 Y42.7971 I0.11 J0.0
G1 X5.7953
G3 X5.816 Y42.799 I0.0 J0.11
E1P0
G0
G0 X8.7911 Y45.6312
G1 F300.0
E1P1
G3 F400.0 X8.8708 Y45.5971 I0.0797 J0.0758
G1 X10.8608
G1 Y42.9071
G3 X10.9708 Y42.7971 I0.11 J0.0
G1 X13.7708
G3 X13.8808 Y42.9071 I0.0 J0.11
G1 Y45.5971
G1 X15.8708
G3 X15.9808 Y45.7071 I0.0 J0.11
G1 Y51.9071
G3 X15.8708 Y52.0171 I-0.11 J0.0
G1 X13.0708
G3 X12.9608 Y51.9071 I0.0 J-0.11
G1 Y49.2171
G1 X11.7808
G1 Y51.9071
G3 X11.6708 Y52.0171 I-0.11 J0.0
G1 X8.8708
G3 X8.7608 Y51.9071 I0.0 J-0.11
G1 Y45.7071
G3 X8.7911 Y45.6312 I0.11 J0.0
E1P0
G0
G0 X10.9375 Y52.4019
G1 F300.0
E1P1
G3 F400.0 X10.9708 Y52.3968 I0.0332 J0.1049
G1 X13.7708
G3 X13.8808 Y52.5068 I0.0 J0.11
G1 Y55.1968
G1 X15.8708
G3 X15.9808 Y55.3068 I0.0 J0.11
G1 Y61.5068
G3 X15.8708 Y61.6168 I-0.11 J0.0
G1 X13.0708
G3 X12.9608 Y61.5068 I0.0 J-0.11
G1 Y58.8168
G1 X11.7808
G1 Y61.5068
G3 X11.6708 Y61.6168 I-0.11 J0.0
G1 X8.8708
G3 X8.7608 Y61.5068 I0.0 J-0.11
G1 Y55.3068
G3 X8.8708 Y55.1968 I0.11 J0.0
G1 X10.8608
G1 Y52.5068
G3 X10.9375 Y52.4019 I0.11 J0.0
E1P0
G0
G0 X7.9748 Y55.2308
G1 F300.0
E1P1
G3 F400.0 X8.0053 Y55.3068 I-0.0796 J0.076
G1 Y61.5068
G3 X7.8953 Y61.6168 I-0.11 J0.0
G1 X5.0953
G3 X4.9853 Y61.5068 I0.0 J-0.11
G1 Y58.8168
G1 X3.8053
G1 Y61.5068
G3 X3.6953 Y61.6168 I-0.11 J0.0
G1 X0.8953
G3 X0.7853 Y61.5068 I0.0 J-0.11
G1 Y55.3068
G3 X0.8953 Y55.1968 I0.11 J0.0
G1 X2.8853
G1 Y52.5068
G3 X2.9953 Y52.3968 I0.11 J0.0
G1 X5.7953
G3 X5.9053 Y52.5068 I0.0 J0.11
G1 Y55.1968
G1 X7.8953
G3 X7.9748 Y55.2308 I0.0 J0.11
E1P0
G0
E1P0
G0
G1 X0.00 Y0.00
M5
G0
M9
M30
