( Mach3 CNC Laser Code )
( Chris' Circuits - http://ChrisCircuits.com )
( Kitchen Sink Electronics - http://KitchenSinkElectronics.com )
( top 4/27/2017 6:02:23 PM )
( T0 : 0.21 )
G21 G90 G91.1 G64 G40
G0
( T0 : 0.21 )
T0 M6
G0
M8
( Profile1 )
G17
S1000
G0
G0 X10.7295 Y9.1439
G1 F300.0
E1P1
G1 F400.0 Y56.184
G2 X11.4645 Y56.919 I0.735 J0.0
G1 X84.9646
G2 X85.6996 Y56.184 I0.0 J-0.735
G1 Y9.1439
G2 X84.9646 Y8.4089 I-0.735 J0.0
G1 X11.4645
G2 X10.7295 Y9.1439 I0.0 J0.735
E1P0
G0
( Profile2 )
S1000
G0
G0 X93.0696 Y3.6639
G1 F300.0
E1P1
G1 F400.0 Y9.2089
G1 X95.6646
G3 X95.7696 Y9.3139 I0.0 J0.105
G1 Y17.6639
G3 X95.6646 Y17.7689 I-0.105 J0.0
G1 X93.0696
G1 Y23.5589
G1 X95.6646
G3 X95.7696 Y23.6639 I0.0 J0.105
G1 Y29.6639
G3 X95.6646 Y29.7689 I-0.105 J0.0
G1 X93.0696
G1 Y35.5589
G1 X95.6646
G3 X95.7696 Y35.6639 I0.0 J0.105
G1 Y41.6639
G3 X95.6646 Y41.7689 I-0.105 J0.0
G1 X93.0696
G1 Y47.5589
G1 X95.6646
G3 X95.7696 Y47.6639 I0.0 J0.105
G1 Y56.014
G3 X95.6646 Y56.119 I-0.105 J0.0
G1 X93.0696
G1 Y61.664
G3 X92.9646 Y61.769 I-0.105 J0.0
G1 X85.5446
G1 Y64.364
G3 X85.4396 Y64.469 I-0.105 J0.0
G1 X75.2146
G3 X75.1096 Y64.364 I0.0 J-0.105
G1 Y61.769
G1 X69.3196
G1 Y64.364
G3 X69.2146 Y64.469 I-0.105 J0.0
G1 X63.2146
G3 X63.1096 Y64.364 I0.0 J-0.105
G1 Y61.769
G1 X57.3195
G1 Y64.364
G3 X57.2145 Y64.469 I-0.105 J0.0
G1 X51.2145
G3 X51.1095 Y64.364 I0.0 J-0.105
G1 Y61.769
G1 X45.3195
G1 Y64.364
G3 X45.2145 Y64.469 I-0.105 J0.0
G1 X39.2145
G3 X39.1095 Y64.364 I0.0 J-0.105
G1 Y61.769
G1 X33.3195
G1 Y64.364
G3 X33.2145 Y64.469 I-0.105 J0.0
G1 X27.2145
G3 X27.1095 Y64.364 I0.0 J-0.105
G1 Y61.769
G1 X21.3195
G1 Y64.364
G3 X21.2145 Y64.469 I-0.105 J0.0
G1 X10.9895
G3 X10.8845 Y64.364 I0.0 J-0.105
G1 Y61.769
G1 X3.4645
G3 X3.3595 Y61.664 I0.0 J-0.105
G1 Y56.119
G1 X0.7645
G3 X0.6595 Y56.014 I0.0 J-0.105
G1 Y47.6639
G3 X0.7645 Y47.5589 I0.105 J0.0
G1 X3.3595
G1 Y41.7689
G1 X0.7645
G3 X0.6595 Y41.6639 I0.0 J-0.105
G1 Y35.6639
G3 X0.7645 Y35.5589 I0.105 J0.0
G1 X3.3595
G1 Y29.7689
G1 X0.7645
G3 X0.6595 Y29.6639 I0.0 J-0.105
G1 Y23.6639
G3 X0.7645 Y23.5589 I0.105 J0.0
G1 X3.3595
G1 Y17.7689
G1 X0.7645
G3 X0.6595 Y17.6639 I0.0 J-0.105
G1 Y9.3139
G3 X0.7645 Y9.2089 I0.105 J0.0
G1 X3.3595
G1 Y3.6639
G3 X3.4645 Y3.5589 I0.105 J0.0
G1 X10.8845
G1 Y0.9639
G3 X10.9895 Y0.8589 I0.105 J0.0
G1 X21.2145
G3 X21.3195 Y0.9639 I0.0 J0.105
G1 Y3.5589
G1 X27.1095
G1 Y0.9639
G3 X27.2145 Y0.8589 I0.105 J0.0
G1 X33.2145
G3 X33.3195 Y0.9639 I0.0 J0.105
G1 Y3.5589
G1 X39.1095
G1 Y0.9639
G3 X39.2145 Y0.8589 I0.105 J0.0
G1 X45.2145
G3 X45.3195 Y0.9639 I0.0 J0.105
G1 Y3.5589
G1 X51.1095
G1 Y0.9639
G3 X51.2145 Y0.8589 I0.105 J0.0
G1 X57.2145
G3 X57.3195 Y0.9639 I0.0 J0.105
G1 Y3.5589
G1 X63.1096
G1 Y0.9639
G3 X63.2146 Y0.8589 I0.105 J0.0
G1 X69.2146
G3 X69.3196 Y0.9639 I0.0 J0.105
G1 Y3.5589
G1 X75.1096
G1 Y0.9639
G3 X75.2146 Y0.8589 I0.105 J0.0
G1 X85.4396
G3 X85.5446 Y0.9639 I0.0 J0.105
G1 Y3.5589
G1 X92.9646
G3 X93.0696 Y3.6639 I0.0 J0.105
E1P0
G0
E1P0
G0
G1 X0.00 Y0.00
M5
G0
M9
M30
